/* XPM */
static char *_ce2062d931c4bc0c3738ae129dd3f92sWQHVfZ5zYCVfWLq[] = {
/* columns rows colors chars-per-pixel */
"64 64 256 2 ",
"   c #362014",
".  c #71461E",
"X  c #704F2F",
"o  c #70635D",
"O  c #8D3B17",
"+  c #B83504",
"@  c #CE2E01",
"#  c #D82A01",
"$  c #C83904",
"%  c #E72F02",
"&  c #F53A02",
"*  c #924717",
"=  c #B14B10",
"-  c #B8651C",
";  c #895932",
":  c #B44E2B",
">  c #B26B31",
",  c #D4510C",
"<  c #FB4902",
"1  c #EA520B",
"2  c #FA5603",
"3  c #FC5C02",
"4  c #FC5919",
"5  c #D2670D",
"6  c #F86705",
"7  c #FD6C03",
"8  c #FC7805",
"9  c #EF6F13",
"0  c #FB7A17",
"q  c #D05B29",
"w  c #F5572E",
"e  c #D06F31",
"r  c #F2712E",
"t  c #FC7929",
"y  c #935C52",
"u  c #917559",
"i  c #AC744E",
"p  c #907C78",
"a  c #AF766B",
"s  c #CB714D",
"d  c #F7744C",
"f  c #D77B62",
"g  c #DC8310",
"h  c #FC8505",
"j  c #FE9707",
"k  c #E98E16",
"l  c #FC8718",
"z  c #FC9817",
"x  c #FEAF0B",
"c  c #FEA616",
"v  c #CE8533",
"b  c #FC8726",
"n  c #F48F31",
"m  c #FCAC2F",
"M  c #FEC627",
"N  c #B3854D",
"B  c #8F8370",
"V  c #AD9373",
"C  c #CE8D51",
"Z  c #EF8F4B",
"A  c #CCA457",
"S  c #F9B24C",
"D  c #F9A857",
"F  c #D19172",
"G  c #F2906E",
"H  c #DBA46E",
"J  c #F2B16F",
"K  c #FEC856",
"L  c #FBC76E",
"P  c #013BAD",
"I  c #014BAC",
"U  c #0254AF",
"Y  c #0147B7",
"T  c #014ABC",
"R  c #0254B8",
"E  c #025CBD",
"W  c #0661BC",
"Q  c #2E62B5",
"!  c #0147C4",
"~  c #014BC4",
"^  c #014DCB",
"/  c #0254C5",
"(  c #025CC3",
")  c #0154CC",
"_  c #015BCC",
"`  c #014ED0",
"'  c #0154D3",
"]  c #015AD5",
"[  c #025CDB",
"{  c #085DD8",
"}  c #0263C4",
"|  c #0264CC",
" . c #0966C8",
".. c #036BCC",
"X. c #146FCE",
"o. c #0673CD",
"O. c #0263D3",
"+. c #026BD3",
"@. c #0263DC",
"#. c #0C65DB",
"$. c #026CDC",
"%. c #0373D5",
"&. c #0A79D5",
"*. c #0273DC",
"=. c #047BDC",
"-. c #167AD8",
";. c #2974D3",
":. c #015FE0",
">. c #0265E2",
",. c #026BE4",
"<. c #0B6AE4",
"1. c #026EE9",
"2. c #0274E4",
"3. c #047BE4",
"4. c #0274EB",
"5. c #0A74EB",
"6. c #037BED",
"7. c #0B7AEC",
"8. c #1575E9",
"9. c #1677EA",
"0. c #037DF1",
"q. c #097DF1",
"w. c #2478E8",
"e. c #327AE5",
"r. c #8C7B8A",
"t. c #7B90A5",
"y. c #0A84DA",
"u. c #1687DC",
"i. c #1690DD",
"p. c #2D89DC",
"a. c #0887E7",
"s. c #0582EC",
"d. c #0A8CEC",
"f. c #1488E6",
"g. c #0D97E9",
"h. c #0C93EC",
"j. c #1898E9",
"k. c #0483F2",
"l. c #0986F4",
"z. c #068BF4",
"x. c #0A8CF3",
"c. c #1788F2",
"v. c #0B92F3",
"b. c #0B96F6",
"n. c #0B9AFA",
"m. c #139CF3",
"M. c #1798F6",
"N. c #149CFA",
"B. c #2687E8",
"V. c #348CEA",
"C. c #2899E8",
"Z. c #3796E6",
"A. c #258BF3",
"S. c #269AF5",
"D. c #3898F4",
"F. c #15A0EF",
"G. c #1CA2ED",
"H. c #15A3F3",
"J. c #1BA5F2",
"K. c #18A6F9",
"L. c #1CA4FA",
"P. c #1DABFD",
"I. c #26A6ED",
"U. c #37A7EA",
"Y. c #24ABF2",
"T. c #27A8F7",
"R. c #24ACFB",
"E. c #35A9F7",
"W. c #28B2F8",
"Q. c #2DB2FC",
"!. c #38B6F7",
"~. c #33B4FB",
"^. c #3CBCFC",
"/. c #7799D0",
"(. c #4799EA",
"). c #4997F1",
"_. c #6094E0",
"`. c #4AA7EA",
"'. c #57A8EA",
"]. c #58B3ED",
"[. c #49A9F5",
"{. c #53A8F3",
"}. c #46B7F8",
"|. c #43BCFC",
" X c #57BBF7",
".X c #69A7EB",
"XX c #76ABEA",
"oX c #67B6ED",
"OX c #77B5ED",
"+X c #69A8F4",
"@X c #69B9F4",
"#X c #77B7F2",
"$X c #3DC1FB",
"%X c #48C3F9",
"&X c #4BC2FB",
"*X c #54C4FC",
"=X c #59C6F9",
"-X c #5AD3FB",
";X c #66C6F8",
":X c #6BCBFB",
">X c #77C9F7",
",X c #64D1FB",
"<X c #78D3FC",
"1X c #8F9191",
"2X c #B49594",
"3X c #B4A894",
"4X c #9097AA",
"5X c #B399AD",
"6X c #99A5B8",
"7X c #B2AAB4",
"8X c #F8968B",
"9X c #D3AB95",
"0X c #EDB38F",
"qX c #CB98A1",
"wX c #CEB2AE",
"eX c #EFB1AA",
"rX c #F7CB91",
"tX c #DDC7B0",
"yX c #F3CEAF",
"uX c #8891D3",
"iX c #92A8D6",
"pX c #98B3DB",
"aX c #ACB0C8",
"sX c #A5B6D6",
"dX c #B5BDD6",
"fX c #87B4E7",
"gX c #89B4EF",
"hX c #96B8E7",
"jX c #AEBEE6",
"kX c #C6BACD",
"lX c #EAB5C0",
"zX c #B8C5D8",
"xX c #9CC2EB",
"cX c #84CAF6",
"vX c #95C8F4",
"bX c #83D3FB",
"nX c #8DD5FA",
"mX c #96D6FA",
"MX c #AAC9EF",
"NX c #B9C7E6",
"BX c #A5DBFA",
"VX c #B6D8F8",
"CX c #ABE1FC",
"ZX c #B7E4FC",
"AX c #D5C7CA",
"SX c #C9C7D9",
"DX c #DAD3D9",
"FX c #EBD7CD",
"GX c #EADFD9",
"HX c #CDD7ED",
"JX c #C6E9FC",
"KX c #D5EBFB",
"LX c #DAF2FD",
"PX c #EAE9ED",
"IX c #E6F8FD",
"UX c #F7FCFE",
/* pixels */
";.p.X.p..XgXOXgXvXBXVXVXKXKXLXIXUXUXUXUXUXUXUXUXUXIXIXIXIXIXIXIXLXKXJXVXVXVXBXvX@XMXvXOXvXOX.X'.V.B.-.-.p.-.X. .( W R I Q R U R ",
"X.+.p.Z.'.Z.].oXmXVXVXZXKXIXIXIXIXIXLXIXUXIXUXIXIXIXIXLXKXKXJXZXZXJXCXBXmXcXcXcX>X[.`.XX`.'..XZ.Z.(.Z.(.Z.p.-.| (  . .X.W U I I ",
" .-.%.u.Z.'.].>XvXvXvXmXmXJXIXLXIXLXJXKXLXIXLXIXLXJXJXZXZXJXCXZXBXnXmXmXmXmXbX>X@X@XoX`.C.S.C.Z.C.B.Z.p.u.-.X.| | ..} E R I U U ",
"..-.p.Z.C.C.`.oXcXcXnXmXZXJXJXJXKXKXKXLXLXLXKXJXJXKXJXZXZXCXBXnX<X<X<XbX>X@X@XoX].@X].].vX#XU.j.j.C.(.Z.u.+.%.| | } } } } } U I ",
"( | X.-.u.Z.'.#X#XcXmXmXZXJXJXZXJXJXZXJXZXJXKXJXZXZXZXCXCXmXnXbX<X>X>X>X@X>XcXcXcXoX;X@X].'.C.d.f.`.Z.Z.Z.Z.u.%.+._ ....} E Y I ",
" .| %.u.B.U.`.oX].;X>XmXBXBXBXBXCXZXZXJXCXBXZXZXCXCXmXCXBXnXbXbXmXmXnX;X>X;X;X>X>X;XoXoX`.C.C.S.U.'.C.C.C.f.=.=.%.%.&.o. .R R R ",
"| &.=.f.C.`.].`.]. XoXmXmXnXmXmXBXZXZXZXCXCXBXCXmXmXnXmXnXbXbXbXbXbX;X:XbX<X:X;X X X X].`.U.U.}.C.C.j.a.f.a.=.=.=.%.| ....| } R ",
"+.&.y.C.C.U.U.U.[. X>XnX>XnXbXmXmXBXCXCXCXnXnXBXBXmXnXbX>X<XbX<X<XbX:X=X;X X;X=X X X].].[.}.}.[.I.I.h.h.j.a.3.=.=.=.-.| _ ( ( E ",
"%.u.a.f.C.U.C.I.U.].>X>X>X>X:XbXbXnXBXmXmXbXbXbXmXbX<X<X<X<X:X:XnX<X;X=X*X&X|. X}.}.[.}. X}.T.E.m.j.d.g.d.B.d.a.f.=.%.+.O.| | } ",
"+.=.a.f.C.C.j.S.U. X;X;X>X:X:XbX>X<XnXbXbX<X:X:XbX>X:X,X=X:XJXPXKXVX:X;X X|.|.^.^.!.!.E.E.~.~.M.m.v.v.S.[.a.a.a.a.*.*.+.O._ _ _ ",
"$.3.a.f.C.j.j.I.[. X X=X;X=X;X>X;X<X<X<X<X:X;X;X:X:X:X=XmXFXGXKXKXVXBX=X X|.|.^.~.E.~.Q.E.T.R.T.M.D.V.B.f.3.3.-.3.=.=.*.$.O._ / ",
"*.3.a.f.f.d.j.I.}.}.}.=X;X*X=X;X=X:X:X;X:X;X*X=X=X:X:XBXrXrXGXHXHXJXBX:X*X}.!.~.~.~.Q.Q.~.}.P.L.H.b.D.v.6.a.f.3.3.3.3.*.*.+.| / ",
"*.3.a.a.d.d.h.E.}.!.!. X X|. X X*X;X:X=X=X*X&X&X&X=XmXrXJ tXFXDXHXVXBXmX&X&X|.~.~.Q.W.R.R.R.P.K.E.E.S.b.z.x.c.s.a.3.2.*.$.O.+.O.",
"$.*.3.3.s.v.M.E.E.~.!.|.|.|.}.&X&X*X=X*X*X*X|.|.&X*XyXS J 0X0XAXNXVXBXmX:X^.^.~.~.R.P.P.L.T.L.T.E.n.N.S.M.z.z.d.B.s.3.*.$.+.| +.",
"$.*.3.s.s.v.T.E.T.R.~.!.^.^.|.|.&X&X*X|.&X&X$X$X$XzXm m S D J wXzXNXMXVXmX*X!.~.~.R.R.L.K. XT.K.K.N.E.S.M.v.z.s.f.s.3.2.$.$.O._ ",
"*.3.3.s.d.M.S.T.T.R.~.~.~.!.^.^.|.&X&X|.|.&X^.^.*XS j j z z D H 9XdXDXVXHXBX X~.~.Q.P.}.P.P.R.K.}.E.n.n.v.S.c.V.s.s.3.3.2.$.O.O.",
"2.2.3.s.d.M.S.M.M.T.E.E.R.~.^.!.^.&X&X^.|.|.^.!.sX8 7 8 h j z n H 0XtXAXSXMXvX XQ.Q.R.Q.R.K.T.E.N.n.M.n.b.v.z.x.s.s.6.3.2.*.$.$.",
"2.2.2.s.v.M.M.N.N.T.R.R.R.~.~.~.^.^.|.^.^.|.^.~.qX3 3 3 7 8 h l b Z D 0XwXzXxXcX|.R.R.R.P.E.K.L.E.N.n.n.v.z.x.A.s.6.3.2.2.$.$.@.",
",.2.3.s.v.M.v.N.N.T.R.P.R.~.~.~.!.^.^.^.|.vXNXkXG 4 3 2 3 3 6 8 8 8 n n H wXdXhX@XQ.R.R.P.K.K.T.N.N.n.n.b.n.z.k.k.s.6.2.2.,.,.@.",
"$.2.3.d.h.v.v.b.N.L.R.R.R.Q.~.~.~.^.>XSXyXJ n b 0 0 7 7 7 8 0 6 7 7 7 9 n F 7XsXfX@XR.P.P.K.L.K.N.N.n.S.M.b.M.z.x.k.6.4.2.,.@.O.",
"$.2.6.a.d.d.v.b.N.L.L.R.Q.Q.~.~. XSX8Xd Z r 0 b b l h l 8 8 0 0 t 4 < 2 6 r F 7XsXhX}.R.P.K.N.L.R.N.b.n.n.+XhXMXMXxX).6.2.,.$.@.",
"@.2.3.s.l.x.v.N.N.L.K.P.R.Q.}.NX8Xd d w 3 8 7 j z l l 0 b l 0 0 b b t < 1 1 r F 7XhX XR.P.K.N.K.n.N.{.NXGXGXDXHXNXhX+X6.2.,.$.@.",
"$.2.3.s.6.x.v.N.N.L.L.T.Q.gXlXG d d w 4 4 4 3 8 7 7 0 b 8 l 7 8 8 8 h t 4 1 1 s 2XpX XP.P.K.K.[.hXAXyXyXyXFXDXHXHXMX+Xl.8.1.,.#.",
",.2.3.6.s.z.v.N.N.N.T.[.kXeX8XG 8Xd < < & w w 3 6 6 h c l 8 7 7 7 6 7 7 0 4 s F 7X#XQ.P.P.+XwXJ c S L rXyXFXDXNXhXgX'.A.4.2.$.@.",
",.2.3.6.s.k.v.b.N.{.kXeXG d 4 6 6 4 4 4 < < & 2 2 8 c K L S z 8 7 3 < < < 3 w 5X+XP..X5X0Xn j x c S S L yXAXSXdXhXOX).7.4.2.$.@.",
",.2.2.4.6.k.x.b.M.wXG d t t 4 6 t J G r 2 3 < < 4 6 7 m K M L m l 6 < & & & < 3 d 8Xt 7 7 8 h j c m S J wXkXsXXXXX{.A.6.4.8.,.@.",
",.,.2.4.6.k.z.z.v.eXZ b 8 h 7 7 k a y O w 3 7 3 < 7 7 h K c m c m l 7 & # % & & < 2 6 3 7 8 h h z n D 9XwXaXsXiXXX).V.6.2.1.<.@.",
",.,.2.4.6.k.k.z.fXD j x x x j 7 O o   o 5 1 < j 2 z 6 h K m S m z z n 1 @ # % & & & < 2 3 7 8 h 8 l Z H wXzXxX#XD.k.6.7.8.5.1.@.",
"@.,.2.4.6.s.k.z.dXD D m M K x 8 : o o o 5 , 3 x 2 0 9 j K c z c h l n t $ @ # # # # % & 2 6 7 0 b C F 9X7XfX#X+XA.k.6.6.4.2.,.@.",
"@.$.,.4.6.6.k.z.kXJ 4 r m rXK D Z a y i k 9 6 h 8 , 5 m L K z m 9 9 b t q + + @ # # & < 2 6 6 r n F wXsXfX.X[.D.c.6.B.6.4.2.,.@.",
"[ @.,.2.6.0.0.k.jXFXyXyXJ D yX0X0X0XJ J n k , h h , 5 S K n k 9 5 5 q 6 9 $ $ $ # % & & 2 6 r Z H wXdXhX@X[.S.c.c.s.6.s.6.2.,.@.",
"] @.>.1.4.6.6.6.XXyXyXyX0X0XeXeXrXrXrXrXJ n 5 g v e - S L v v 5 , = - , r = + + $ , 2 & < 6 6 9 Z eXSXcXE.b.M.z.A.s.k.6.2.2.$.$.",
"] @.>.1.4.4.6.6.6.uXeX0X0X0XyXeXtXtXyXyXrXC C > C v N J A v e 5 = 5 - = , : * ; : : 1 < < 2 6 9 n H AXNX@Xb.b.z.c.l.6.6.2.,.$.@.",
"] [ @.,.,.,.4.4.6.0.uXqXqXqX9XwXwXwXwX3XV F N > C i V A v A - = * - = = , q * * : a , 1 2 3 6 6 6 Z 9XSXMX{.z.c.c.c.6.4.2.w.@.@.",
"] [ >.,.,.,.1.1.4.6.6.pXwX7X5X2XqXwX7X3XV V N A C A N > N N ; * . . . * q s + + = F 5Xd 3 3 3 9 r r C wXzXgXD.k.q.8.8.4.1.,.>.] ",
"' ] [ @.,.,.1.1.4.6.6.6.iX7X7X2X2X3X9X9X3X3XV i Z r s e e i ; X X X X O : f $ $ , s 7XiXG 6 6 6 9 C F 3XsXOX{.A.0.6.6.6.1.,.@.[ ",
"' ] ] @.>.>.>.,.1.4.4.4.6./.7X6X6X6X3X3X4X1XB V a r d s e i B ; o o X ; > s , , q s 5XXX.XF 6 8 n Z F wX7XpX.XD.0.4.6.1.,.>.[ ] ",
"^ ' ] [ @.>.>.,.>.,.1.4.6.6._.wX6X4X4X4Xr.p 1XB V : d D Z C i u u o o y a s , , q s 5XfX{.).qX0 n H 9XwXaXpX.X).l.4.4.1.,.>.] ] ",
"^ ^ ] ] [ [ >.>.,.,.1.6.4.8.wX0 F 6Xt.4X1X1X1X1Xp a q & D S H V B p o r.a q q e s a 2XpX+Xv.A.5XH J 9XwXkXpXfX'.c.6.4.5.>.<.[ ] ",
"^ ^ ' ] ] ] <.>.,.,.1.4.4.iXG r e a 6X6X4X4X4X1X1XB F 9 3 n rXyX3Xp /.S.uXa e F 2X5XaXpXXXS.z.z.iXwX9XAXdXjXfX.XA.4.8.8.,.[ ] ] ",
"^ ^ ' ] ] [ [ [ >.,.,.1.4.wXG C a 4X/./.iX7X6X4X4X4X1XC t 8 n J yXwXfXS.n.XXaX2X7XaXsXfX#XS.z.z.z.).dXAXSXhXhX+XA.4.1.,.>.[ ] ' ",
"^ ^ ` ] ] { { [ <.>.,.1.4.FXwXqX6X/._.V.6.V._.iXiXiXaX5XH n n D 0XFXkXvXn.n.[.gXaX7XaXfX{.z.z.k.k.k.c.+XhXjXhX).4.1.1.,.>.[ ] ' ",
"^ ^ ^ ' ' ] ] ] >.>.>.1.4.HXNXdXhX.X).7.6.6.k.k.s.k.uXq 9X0XD J 0XDXGXxXE.n.n.v.b.)..X+XA.A.k.0.l.k.0.0.q.6.5.4.5.,.,.,.>.[ ] ' ",
"~ ~ ^ ' ' ] ] { [ >.>.,.1.+XgXXX).V.8.4.6.6.6.6.6.k.(.F e wXyXrXyXAXHXHX[.b.v.v.z.z.z.z.c.k.0.0.q.0.q.9.7.4.1.1.1.>.,.>.:.] ' ^ ",
"T ! ^ ` ' ] ] ] [ >.>.>.,.5.1.5.1.4.4.6.6.6.0.6.6.0.k.iXF qXSXGXFXDXMXVX#Xz.z.z.z.z.z.z.k.k.0.6.4.8.5.5.5.4.5.,.>.<.>.@.[ ] ' ^ ",
"T ! ~ ^ ' ' ] { ] [ >.>.>.,.,.,.1.1.4.4.4.4.6.6.6.6.6.c.7XaXsXhXVXPXVXgX+Xk.z.z.z.k.0.z.k.6.c.4.5.4.5.8.5.1.5.<.e.>.#.[ [ ' ` ^ ",
"T ! ~ ^ ) ' ' ] ] [ [ >.>.>.,.,.1.1.1.4.4.4.6.6.6.0.6.6.V.hXXX+XD.).gXcXA.k.0.0.0.0.0.q.6.4.6.w.4.5.8.1.1.1.,.>.>.>.[ ] ] ` ^ ! ",
"Y T ~ ~ ) ' ' ' ] ] [ >.>.>.>.,.>.1.1.1.1.1.1.4.6.6.6.6.0.A.).c.k.k.k.k.q.0.0.0.0.6.6.0.6.8.B.6.4.5.1.,.5.<.1.>.>.[ #.{ ] ' ` ! ",
"T ~ ~ ~ ^ ^ ^ ) ' ] ] [ @.>.>.>.>.,.4.1.1.1.1.4.6.6.0.0.6.0.k.k.k.k.k.0.k.0.0.0.0.4.6.6.4.w.w.5.V.8.<.,.<.<.>.>.>.[ [ ] ' ^ ^ ~ ",
"T T ~ ^ ) ) ) ) ) ] ] [ >.>.>.>.,.<.,.1.2.4.4.6.6.6.6.0.0.0.6.6.s.6.6.6.6.6.6.6.6.6.6.6.4.4.1.4.1.w.1.<.,.>.>.>.@.[ ] ] ' ^ ^ ~ ",
"T T ~ ) ) ) ) ) ] ] [ [ ] @.@.@.>.,.1.2.4.4.6.6.6.6.6.6.6.6.6.6.6.6.6.3.4.8.6.6.6.6.6.6.4.5.4.1.4.8.5.1.w.,.,.,.>.[ [ ] ] ' ~ Y ",
"Y P Y ~ ^ ) _ _ ] ] ] @.@.@.@.@.,.1.1.4.1.4.4.4.3.4.4.6.6.6.6.6.3.6.6.4.6.6.6.6.6.6.6.6.4.1.4.4.5.,.,.1.>.>.@.#.@.[ [ ] ' ) ~ Y ",
"P P P P Y ~ _ _ ) ' ] O.@.@.@.@.@.,.,.2.4.4.4.6.6.6.6.6.6.6.6.6.6.4.4.4.2.4.6.6.4.6.4.4.4.,.1.,.,.8.e.@.;.@.] ] #.[ [ ] ] ] ) T ",
"Y Y Y T T T ~ / ) _ ] O.O.$.$.2.2.2.2.2.4.6.6.6.6.6.6.6.6.s.6.s.6.6.6.6.6.s.s.s.s.6.6.4.2.w.,.,.>.@.{ ] #.[ ] ;.) ) _ ) ) ~ Y Y ",
"Y Y T / / | +.O.O.O.@.*.*.*.$.*.2.2.2.2.2.3.6.7.6.s.s.s.6.s.6.s.s.z.v.v.v.z.s.6.3.3.3.6.2.2.2.,.,.<.@.@.] [ $.$.O._ ] ] _ ) ~ Y ",
"I Y R | O.| | $.=.=.=.=.3.*.*.$.2.3.3.s.h.h.s.z.z.v.x.d.x.d.d.d.z.x.x.l.s.x.d.d.s.s.s.6.2.2.2.2.,.,.8.2.2.2.2.$.O.O. . ./ T T Y ",
"( ( ( / R / | | +.*.=.y.a.g.g.g.d.d.h.g.a.d.v.h.v.v.m.H.m.h.z.z.h.h.h.v.v.d.s.s.s.s.6.s.s.d.z.a.s.3.3.3.f.*.O.O.O._ / / T R R Y ",
"E ( E ( | ( | O.%.+.+.+.*.a.a.g.h.g.G.d.a.d.h.h.m.K.W.P.J.H.m.N.H.H.K.P.K.H.b.b.h.h.h.v.m.m.b.g.d.a.3.=.*.*.*.%.+.+.+.| / R T Y ",
"I I I R ( | %.=.=.=.=.=.=.y.a.j.G.I.Y.J.J.J.J.J.W.^.W.H.m.h.h.m.m.m.J.W.W.W.W.W.J.H.K.J.m.h.a.s.a.a.3.*.*.*.=.=.*.+.+.+. .( R R ",
"R U E } } ( } ..%.=.g.j.g.d.g.g.F.G.Q.E.Q.&X$X&X&X$XQ.Q.^.!.Y.Y.P.W.!.!.W.H.H.J.J.Y.J.J.H.m.h.d.a.a.a.g.g.a.=.*.+.| | ( R R ( ..",
"} o.u.y...} | +.%.=.j.j.j.g.g.g.G.}.&X!.Y.Y.Y.!.^.^.&X&X-X&XQ.J.J.J.J.Y.Y.Y.J.J.J.J.m.m.m.j.j.h.a.s.a.a.j.G.a.y.%.+.+.&.y.o...} ",
"I R  .-.-.o.%.%.%.y.i.j.I.I.!.&X=X,X&XY.F.j.I.Y.Y.Y.Y.Y.!.&X&X!.W.!.!.!.!.Y.J.F.J.Y.G.G.I.G.G.J.J.g.j.G.!.Y.G.a.y.y.y.y.&.} } E ",
"I R E  .o.y.i.i.i.i.j.C.U.U.I.I.I.I.W.^.^.I.G.G.Y.Y.Q.}.=X,X,X=X=X=X=X&X&X&X$X&X^.!.!.Y.I.Y.Y.G.m.j.I.G.a.a.a.y.y.C.I.u.o.E E R ",
"E E E E E ( } ..=.C.U.U.U.j.g.j.G.I.G.G.I.!.}.=X=X*X=X&X!.=X*X&X&X!.I.Y.I.G.j.G.!.,X<X,X*XE.Y.Q.}.}.W.j.j.=.y.y.y.%.o.&.o.o...W "
};
