/* XPM */
static char *_9c5dff813f440acf8c1e2bbf788e345GhURMumndFgagbhl[] = {
/* columns rows colors chars-per-pixel */
"46 64 243 2 ",
"   c #02070A",
".  c #030A0D",
"X  c #0F0E0D",
"o  c #050D12",
"O  c #061115",
"+  c #0A1216",
"@  c #0B171B",
"#  c #0C1519",
"$  c #111010",
"%  c #141414",
"&  c #181716",
"*  c #161817",
"=  c #1A1917",
"-  c #131719",
";  c #151A1C",
":  c #1B1C1C",
">  c #261B16",
",  c #211F1B",
"<  c #371918",
"1  c #1F201F",
"2  c #23211E",
"3  c #2A221E",
"4  c #091C21",
"5  c #171D21",
"6  c #1B1E21",
"7  c #201F20",
"8  c #0C272E",
"9  c #1D2124",
"0  c #162529",
"q  c #152C33",
"w  c #0B313A",
"e  c #1B333A",
"r  c #242322",
"t  c #2A2623",
"y  c #2C2926",
"u  c #24282B",
"i  c #2C2A29",
"p  c #322A25",
"a  c #342D29",
"s  c #392C29",
"d  c #37332D",
"f  c #2F2F33",
"g  c #283538",
"h  c #2B3639",
"j  c #3B3631",
"k  c #383937",
"l  c #343B3D",
"z  c #4E2A2F",
"x  c #443D37",
"c  c #633835",
"v  c #33443F",
"b  c #49433B",
"n  c #544534",
"m  c #674C3B",
"M  c #1A3C45",
"N  c #233C43",
"B  c #2C3C42",
"V  c #383E40",
"C  c #1D414C",
"Z  c #1E4A56",
"A  c #28434A",
"S  c #2C454D",
"D  c #394448",
"F  c #3A484D",
"G  c #2B4A54",
"H  c #284C57",
"J  c #254E5A",
"K  c #344C54",
"L  c #354C56",
"P  c #3B4B51",
"I  c #23515E",
"U  c #2A525D",
"Y  c #35525C",
"T  c #3C535A",
"R  c #2B5662",
"E  c #295866",
"W  c #355A66",
"Q  c #3B5A65",
"!  c #2D5570",
"~  c #2E606E",
"^  c #37616E",
"/  c #2D6373",
"(  c #2C697A",
")  c #366876",
"_  c #444544",
"`  c #484745",
"'  c #444A4C",
"]  c #4C4C4B",
"[  c #544B43",
"{  c #534D4A",
"}  c #55514D",
"|  c #5B5349",
" . c #434E54",
".. c #4A4E50",
"X. c #4B5154",
"o. c #47555A",
"O. c #4A565B",
"+. c #505150",
"@. c #545554",
"#. c #5A5653",
"$. c #535B5D",
"%. c #595A59",
"&. c #66594C",
"*. c #675C52",
"=. c #635B54",
"-. c #635E5A",
";. c #5E605E",
":. c #69625A",
">. c #6C645D",
",. c #75685A",
"<. c #77735F",
"1. c #435A63",
"2. c #415C67",
"3. c #4A5D64",
"4. c #545D62",
"5. c #5B5E62",
"6. c #45636D",
"7. c #4A646B",
"8. c #556165",
"9. c #5B6263",
"0. c #58676C",
"q. c #476A75",
"w. c #576B72",
"e. c #57737B",
"r. c #646563",
"t. c #666764",
"y. c #6D6964",
"u. c #646A6B",
"i. c #6B6C6B",
"p. c #766B63",
"a. c #746C63",
"s. c #746E6A",
"d. c #7C7164",
"f. c #74716C",
"g. c #7C736B",
"h. c #676D71",
"j. c #697375",
"k. c #787674",
"l. c #7C7C7A",
"z. c #905C51",
"x. c #886B5B",
"c. c #867767",
"v. c #81766D",
"b. c #85796D",
"n. c #907460",
"m. c #807772",
"M. c #837B73",
"N. c #897D72",
"B. c #827D7A",
"V. c #78807F",
"C. c #9B8354",
"Z. c #8C8176",
"A. c #86827D",
"S. c #8A837B",
"D. c #96897C",
"F. c #AF8769",
"G. c #2236AA",
"H. c #2D508C",
"J. c #387889",
"K. c #386C91",
"L. c #2B4BB8",
"P. c #3B6AA8",
"I. c #415588",
"U. c #487381",
"Y. c #4D7593",
"T. c #637B83",
"R. c #797495",
"E. c #496CB3",
"W. c #687CB7",
"Q. c #315BD3",
"!. c #3867D0",
"~. c #3B66EC",
"^. c #476ACA",
"/. c #5272CC",
"(. c #4A6BD5",
"). c #5679D5",
"_. c #657AD3",
"`. c #4B73EA",
"'. c #557CE6",
"]. c #4B78F5",
"[. c #557DF5",
"{. c #827D9F",
"}. c #3F8598",
"|. c #778289",
" X c #5A88A3",
".X c #6C9AB4",
"XX c #668CDA",
"oX c #6C95DD",
"OX c #7A91DC",
"+X c #5A84EA",
"@X c #5B85F5",
"#X c #5B8BF5",
"$X c #5789F8",
"%X c #688AE5",
"&X c #748BE5",
"*X c #6B94E6",
"=X c #779BE6",
"-X c #638AF4",
";X c #6591F6",
":X c #6A93F4",
">X c #6A98F7",
",X c #779BF5",
"<X c #719CF6",
"1X c #7BA6EB",
"2X c #79A6F4",
"3X c #7EB0F8",
"4X c #8A8883",
"5X c #938A83",
"6X c #988D83",
"7X c #9A9188",
"8X c #9B9596",
"9X c #A69789",
"0X c #A99C92",
"qX c #B5A697",
"wX c #8C92B1",
"eX c #8FA1BC",
"rX c #8A93C7",
"tX c #8EA5D7",
"yX c #85ABEB",
"uX c #8EB2ED",
"iX c #98B8ED",
"pX c #85ABF5",
"aX c #83B2F4",
"sX c #8BB5F3",
"dX c #8DBCF5",
"fX c #88B8F8",
"gX c #94BBF2",
"hX c #A7BEED",
"jX c #97C0EF",
"kX c #99C6F4",
"lX c #A6C6EE",
"zX c #AFCEED",
"xX c #BDD3EE",
"cX c #B9D8ED",
"vX c #A3CCF2",
"bX c #AACCF1",
"nX c #A9D3F2",
"mX c #B7DCF0",
"MX c #C7D4EC",
"NX c #C3DCEC",
"BX c #CDDDEA",
"VX c #DCDCE7",
"CX c #D5DDE9",
/* pixels */
"- - - - - - ; ; ; ; ; ; ; ; ; ; ; ; ; ; = : = = = = = = = = = = - - - - - - % % $ $ $ X X X ",
"- - - - - ; ; ; ; ; ; ; ; ; ; ; ; ; : : = = : = = = : : = = = = = - - - - - & % % % $ $ X X ",
"- ; ; - - ; ; ; ; ; ; ; ; : : : : : : : : : : : ; : : : = = = = = = & - - - & % % % $ $ X X ",
"- ; ; - - ; ; ; ; ; ; : : 5 : 6 6 : : : : : : : : : : : ; = = = = = = & & - & % % % $ % $ X ",
"; ; ; - ; ; ; ; : ; ; 5 5 ) U.9.` 6 : : : : : : : : : : : ; ; = = = = = & - - & % % % % $ X ",
"; ; ; - ; ; ; ; : : 5 5 5 ) 9.9.h.f.j : 1 1 : 9 6 6 6 6 : : : : = = = = = & - - & % % % $ $ ",
"; ; ; ; ; ; ; : 5 5 6 6 6 ( 1.3.9.f.M.j 2 r , 9 6 r 7 7 : : : : : : l ..` x & - - % % % $ $ ",
"; ; - ; 5 5 ; ; 5 5 6 6 6 ) Y ] k $.S.>.r r r r g ^ 8.$.>.a , : F 0.9.g.s.g.= - - & % % $ $ ",
"; ; = ; 5 5 5 5 5 5 6 6 6 ) o.q.w.r.M.v.t r L 6.U.U.l.q.5XN.B o.L 0.r.s.b.>.= - & - - % $ % ",
"; ; = ; 5 5 6 5 5 6 6 9 U q.P q.i.>.s.5.+._ 2.^ e.j.t.1.t.f.4Xa.o.u.m.p d.&.= & & - - % % % ",
"; ; = 5 5 5 6 5 9 6 6 9 J.3.F Y @.k.4.' ] P Q U.6.f.t.8.9. .B.g.a._ S.v.v.[ : = & - - % % $ ",
"; ; = 5 : : 5 5 9 6 6 N U.$.o.6.e.-.$.` _ Y ) 7.o.i.$.O.r.Y 4.7Xp.{ t.m.N.` : = & & - & % $ ",
"; ; : 5 5 5 5 5 9 9 9 I q.1.Y w.u.m.@.9.8.1.U ^ 9.$.r. .o.3.s.0Xv.x v.b.,.| : : & & - & % % ",
"; ; 5 5 5 5 9 6 9 9 9 E |.6.|.9.f.-.#.@.4.$.F E 1.r.%.T 4.%.r.9X#.| :.g.g.d.: & = & & & & % ",
"5 ; 5 5 5 5 6 6 9 9 9 I G J.$.Q i.m.B.i.4.8.1.P ^ 9.$. .$.r.v.Z.x 0.' 0.l.<.: = = & & - & % ",
"5 5 5 5 5 5 6 6 9 9 9 J G J.l ) u.y g.g.k. .1.P ^ 4.u.t.9.{ ] q. .w.a.2.N.*.: : : = & - & & ",
"5 5 5 5 5 5 6 5 9 9 9 R ) }.l Q r.j 5X] R.E.W.Y.l l ' k X.x t Q l  .>.*.c.[ , : : & & & & & ",
"; ; 5 5 9 6 6 9 9 9 9 J J.J.T 7.g.=.7Xi.yXpX=X%XE. .k k _ a u W l $.a.c.<., , : : : & & - & ",
"; ; 5 5 5 6 9 9 9 9 9 R }.T.k @.} s.0XW./.L.L.L.G.H.1.O.F f S /  .o.S.D.*.2 , , : : = & & & ",
"; ; 5 9 9 9 9 9 9 9 r E / j.2.A.9.7X0XL.XXaXfXfXaX1XE.1.0.X.) q.@.@.>.0X[ 2 2 : : : = & & & ",
"; ; ; : 5 6 : : 5 6 9 / ) D l #.#.N.8XkXdX*X).(.XX*X3XoXY ' R w.%.l.i.9X| r 2 2 , : : & & & ",
"= ; ; ; 5 ; : 6 6 6 9 ( }.e.t.u.9.D.tX^.).XXoX1X=X^._.yX1XI.E 7.{ #.` 9Xj r 2 2 2 , : & & & ",
"; ; : 5 : : 6 9 r R q.6.G 2.l >.M.8X_.).dXkXsXaXdXkX1X_.aXoX/ 1.u.B.7XD.r r 2 , 2 , : & & & ",
"; 5 5 5 6 9 9 9 r u W e.w.|.9.m.l._.oXkX%XQ.Q.!.Q.).aXdX+XaXY.A X.#.N.:.r 2 2 , , : = = & & ",
"; 5 5 6 6 9 9 9 r r J g V a.v.g.{.*XvXXX(.yXnXnXnX=X/.2X1X)..XG t.r.Z.[ r r 2 2 2 2 : : & & ",
"; ; : 6 6 9 9 9 9 r E U 6.] a.-.wXnX=X=XcXgX+X-X,XnXgX!.aX^.E.G i.y.Z.b t r r 2 2 2 , : : & ",
"; ; : 6 9 9 9 9 9 r R R T.D A.-.tXjXXXNXpX:XhXlXiX+XvXXX).oXH.T u.r.D.[ y t r r 2 2 , , : & ",
"; ; 5 6 5 9 9 9 9 9 S J w. .B.k.vX1XxXcXxXCXxXxXBXzX,XnX+XkXP.t.f.>.b.[ t t t r 2 , , : : = ",
"; ; : 5 5 9 9 r 9 9 U W e.o.g.wXmXsXcXuXVXxXlXhXzXNXuXlXXXsXE.S.g.#.D.b =.r t t 2 2 , : : : ",
"; ; ; 5 5 9 9 9 r 9 R U e.#.S.wXbXuXiXlXMXMXVXVXMXxXMXsXyXyX.Xk.} $.g.>.:.| r r 3 2 2 , : : ",
"; ; ; 5 5 9 9 9 r r E W T.o.4X>.iXbXgXBXMXVXNXNXCXMXBXsXjXXX X2.3.j.c.y.$.=.r r r r 2 2 , , ",
"; ; ; 5 5 5 9 9 r U E G T.D 4X-.yXkXvXCXxXVXVXCXCXMXNXkXlX1X.XQ s._ ,.N.%.v.b r r r r 2 2 , ",
"; = ; ; 5 6 6 9 9 N R L T.D A.-.=XdX2XxXCXCXVXBXBXNXBXvXlX=X XU 6X@.b ,.r.>.d r r r r r 2 2 ",
"* = ; ; 5 6 6 9 9 g J L e.D l.=.=X=XjXxXBXBXBXNXmXcXvXkXgX2XY.I u.6Xj 2.M.` t t r r r r r 2 ",
"* ; ; ; : 6 5 9 A U H R w.' l.%.tX2XmXvXmXNXcXmXvXnXsXdX2XdXY.R S A.s.y.k y t t r r r r r 2 ",
"- - ; = ; : 5 5 W Y H W q.` f.] eX%XvXsXnXnXkXkXkXkXaX3X#X2XK.R W 4X7Xs.y i t t t r t t r r ",
"- * - = = : : N ) 7.Q 7.q.' @.t.0XyX2XaXdXdXvXkXsX2X2X<X#X+XE ~ ) w.qXp.t i y t t t t t r r ",
"- - * - = : 5 T.w.T q.j.D X.3.Q 5XOX<XpXsXpXaXpX2X2X>X;X>X;XK./ / 6.qXb.[ i y t t t r r r r ",
"- - - * & = e Q k.O.9.l.b 2.P Q rX<X,X;X2X2X#X2X>X;X;X;X(.>XK.U / L 6X6X{ y t t t t r r r r ",
"- - - - ; = e R h.] @.A.i 9  .0.&X;X;XpX<X>X>X>X<X@X#X`.`.'.! J R W S.D.a t t t t t t r r r ",
"- - * - ; = = A i.o.h.5Xk 2 r.4X&X-X+X<X>X$X$X-X@X;X@X`.'.^.J U Z ! f.g.c.x y t t t t t t t ",
"- - * ; - ; J E H Y 5XM.; b i.7X&X:X-X+X2X>X#X;X;X@X[.].'.K.L W ^ w.l.0X0Xa.i i y y y y y t ",
"- - - - - - 5 U R H 7.6XX.f.5Xk._.+X:X@X-X].].].~.].@X`.Q.P.B.7.2.7.h.0XqXN.i i y p y y y y ",
"% - - - - - ; R H N g :.-.s.9X-./.&X-X;X<X[.@X#X;X>X-X].(.E.T Q e.j.0.5X9X7Xx y y y p p p y ",
"+ + + + + - # / Y S > ' Q u.S.f.|.OX[.-X+X;X>X:X[.~.[.@X(.!.M E q.V.8Xi.k.7X:.s a p p p p p ",
"o o . . . o @ / ) D a b R 3.u.1.B.%X=XoX*X(.(././.)./.E.E.K.M R ^ w.7Xt.Y 8.g.a.=.s s a p p ",
"o o .   . q M ~ W o.L ; ^ 9.%.@.5XB.9.+.` #.#.@. .F A g D z. .C E u.7X#.q ' i.N.| t a s s a ",
"o o .     w J e H W Q A q.4X` y.p.v.y.s.-.} %.D L Y Y G L n.F.$.E Y f.l.g ' M.t.&.p t s s s ",
"o o o .   q H M ^ q.Y / q.S.f ;.N.=.>.a.a.v.} ] X.P P L F *.F.x.G O.0 r.6Xk.9Xa.-.[ 2 3 a s ",
"O o o .   . C I w.w.T q.q.k.:.>.g.,.y.+.} r._ D l l l A D ,.n.#.g F @.D 5Xa.9X9X*.>.3 t t p ",
"O O O o     w Q 7.Q / J.e.s.N.*.=.D.,.>.y.l.j.j.B._ Y U f s &.$.Y q u.X.Z.v.M.9Xc.3 , 3 3 t ",
"O O + O o     H Y G ( J.) D.d.D.X.Z.=.] @.l D f.s.f N F z 3 m P A Z G i.=.*.,.g.S., , t t 3 ",
"# # ; ; - o   w G S / ( W c.*.b 8.Z.N.F 5.B M $.f @ q O.< > m N Z W Q $.6Xm.B.D.=., t y y r ",
"# # ; ; : ; O 4 E W E S g :.n *...b.c.: 9 5 6 9 9 9 v f > s ,.0 M H 8.A.l.5Xi.>.t , t t y t ",
"# # @ ; 6 6 : - @ q 0 q N ] g } 8.` 9 5 6 r u u u u u : < c z.t i g F i.o.t.d y t 2 2 2 2 r ",
"O # # ; ; 6 : ; - # # # - ; : = : : : : : : : 9 9 r g g ` x d 9 9 t y d a a t t t t 2 , 2 , ",
"O # # # ; ; ; ; # # # # - ; ; ; ; ; ; - - ; ; : - B A g ,.n ,.| = = : r y p y t 3 t 2 2 , 2 ",
"O O O O O O O O O O # # # # @ # # @ O O O O o . 8 F ` 0 b n C.x.y - & 2 t t y y y t t r r r ",
"O O O O O # O O O O O O # # O # # # # # # # # o 4 M g f y.,.C.a.| = : r r r r t y y y y t t ",
"# O O # # - - - # # # # # # # # # # # @ - # # # O 8 e +.,.#.<.c.j : 5 9 r 9 r r r r t y y i ",
"# O O # - ; ; : : : ; ; 5 ; ; 5 5 5 5 6 9 r 9 9 : - # 0 f b | j 1 9 : 6 r r 9 r r : r r r t ",
"# # O + # - ; ; ; 5 : 6 6 : 5 5 5 6 6 6 6 6 6 6 6 6 5 6 2 , : r r r 1 : : r r r : : : : : r ",
"+ O + + # - ; ; ; : : : ; 5 ; 5 : 6 5 5 6 6 6 6 6 9 : ; r 2 : 9 9 : : : : r r : : = = ; = = ",
"+ O O + # - ; ; ; ; ; : 5 6 : 5 ; ; ; ; 6 6 6 6 5 5 5 ; : r r : : : : : : 9 : : = = - - - % "
};
