/* XPM */
static char *a9d1c642542e4218af39bce91c8fe142HAXTvL3P8zYNbjCi[] = {
/* columns rows colors chars-per-pixel */
"700 392 256 2 ",
"   c #0B2A49",
".  c #0E324E",
"X  c #0C2C54",
"o  c #072B59",
"O  c #0C2E5A",
"+  c #0C3658",
"@  c #0D325D",
"#  c #12375B",
"$  c #233E5E",
"%  c #0A2E62",
"&  c #0E3462",
"*  c #073865",
"=  c #0E3A65",
"-  c #0D366A",
";  c #0E3C6C",
":  c #103563",
">  c #123B64",
",  c #113668",
"<  c #113D6D",
"1  c #0E3D72",
"2  c #0D3B79",
"3  c #103E73",
"4  c #113E7A",
"5  c #16435D",
"6  c #0D4265",
"7  c #0E416D",
"8  c #174769",
"9  c #12426C",
"0  c #0E4375",
"q  c #0E4976",
"w  c #0E457A",
"e  c #0E4A7B",
"r  c #114273",
"t  c #1A4674",
"y  c #144B74",
"u  c #1B4C74",
"i  c #11447B",
"p  c #124C7C",
"a  c #1A4D7B",
"s  c #1A5170",
"d  c #1C5274",
"f  c #15527D",
"g  c #1B537C",
"h  c #1B587B",
"j  c #244661",
"k  c #27506F",
"l  c #255879",
"z  c #2F627D",
"x  c #476178",
"c  c #0F3E82",
"v  c #0E4586",
"b  c #0F4A81",
"n  c #124D83",
"m  c #144B86",
"M  c #0E5287",
"N  c #145284",
"B  c #1A5484",
"V  c #165A85",
"C  c #1C5B85",
"Z  c #14558A",
"A  c #1A568A",
"S  c #16598C",
"D  c #1B5B8C",
"F  c #134D94",
"G  c #165797",
"H  c #165B92",
"J  c #1A5D92",
"K  c #235B84",
"L  c #265885",
"P  c #225C8B",
"I  c #305B85",
"U  c #245E92",
"Y  c #19638A",
"T  c #1C628D",
"R  c #0F6694",
"E  c #166394",
"W  c #1B6394",
"Q  c #1D6995",
"!  c #16679B",
"~  c #1B659A",
"^  c #1C6B9B",
"/  c #1D719D",
"(  c #23638C",
")  c #286689",
"_  c #356889",
"`  c #32738D",
"'  c #236493",
"]  c #2B6493",
"[  c #246B94",
"{  c #2B6C94",
"}  c #25659A",
"|  c #236C9B",
" . c #2B6C9B",
".. c #346B97",
"X. c #297396",
"o. c #24739C",
"O. c #2B739B",
"+. c #2C7A9D",
"@. c #33739C",
"#. c #377899",
"$. c #175BA4",
"%. c #205FA1",
"&. c #1B6AA4",
"*. c #1E72A2",
"=. c #1C77A8",
"-. c #1E7DAA",
";. c #1B71B6",
":. c #256CA4",
">. c #2375A3",
",. c #2B74A3",
"<. c #247AA5",
"1. c #2B7CA3",
"2. c #2675AA",
"3. c #237CAA",
"4. c #2B7CAB",
"5. c #337BA3",
"6. c #3678A7",
"7. c #3B7CA4",
"8. c #3375AD",
"9. c #277AB5",
"0. c #4A718E",
"q. c #457899",
"w. c #647C8F",
"e. c #447CA6",
"r. c #487DAE",
"t. c #227CC2",
"y. c #30859C",
"u. c #3A849B",
"i. c #1F81AE",
"p. c #2482AD",
"a. c #2B85A8",
"s. c #2B83AC",
"d. c #3383A4",
"f. c #3B84A4",
"g. c #3384AB",
"h. c #3988A9",
"j. c #3C8BAB",
"k. c #2E91AB",
"l. c #3B92AC",
"z. c #2887B4",
"x. c #2C8CB3",
"c. c #3689B5",
"v. c #2C94B9",
"b. c #2C94BA",
"n. c #3393B5",
"m. c #3394B9",
"M. c #349BBC",
"N. c #3B98B9",
"B. c #3BA2BD",
"V. c #47869D",
"C. c #6A8799",
"Z. c #4687A8",
"A. c #438CAB",
"S. c #5589A9",
"D. c #4394AC",
"F. c #4995AA",
"G. c #5497AC",
"H. c #478AB5",
"J. c #548CB5",
"K. c #4898B6",
"L. c #5698B8",
"P. c #6897B3",
"I. c #54A3AD",
"U. c #4AA4B9",
"Y. c #56A8BA",
"T. c #5CB2BD",
"R. c #67ACBB",
"E. c #75C0BF",
"W. c #1E87C9",
"Q. c #2E91CA",
"!. c #3998C5",
"~. c #3BA4C2",
"^. c #3AA7C6",
"/. c #38ABD5",
"(. c #31B4E6",
"). c #469AC6",
"_. c #4896CE",
"`. c #569AC4",
"'. c #649DC5",
"]. c #43ABC4",
"[. c #47A7C8",
"{. c #57A7C6",
"}. c #43B4CB",
"|. c #49B7CB",
" X c #58B6C8",
".X c #48A9D5",
"XX c #58A9D4",
"oX c #4ABAD4",
"OX c #56B9D5",
"+X c #67A8C7",
"@X c #6EABCE",
"#X c #64BAC5",
"$X c #66B8C7",
"%X c #76B8C9",
"&X c #67B8D7",
"*X c #77B9D6",
"=X c #4DB7E4",
"-X c #6DBBE3",
";X c #38C5EF",
":X c #5BC1CE",
">X c #4DC4D5",
",X c #58C7D7",
"<X c #53CCDB",
"1X c #58D1DE",
"2X c #67C2CB",
"3X c #6BC2CB",
"4X c #74C6CB",
"5X c #7FD0CE",
"6X c #68C9D7",
"7X c #74CBD4",
"8X c #78CAD5",
"9X c #67D2DD",
"0X c #79D3D9",
"qX c #4ACAEB",
"wX c #57C9E6",
"eX c #56D3E2",
"rX c #5AD5E3",
"tX c #5CDAE7",
"yX c #69CCE8",
"uX c #77C9E5",
"iX c #66DAE5",
"pX c #78DAE5",
"aX c #6AE1EA",
"sX c #78E3E9",
"dX c #74E3F2",
"fX c #8BA7B6",
"gX c #89B9CF",
"hX c #97BDD4",
"jX c #87C8D8",
"kX c #92CED8",
"lX c #84D4D8",
"zX c #85D9DC",
"xX c #8BDCDD",
"cX c #A0D4DB",
"vX c #8DCFE9",
"bX c #87DBE4",
"nX c #97D9E7",
"mX c #A9DAE8",
"MX c #8CE1E3",
"NX c #87E5E9",
"BX c #93E4E4",
"VX c #9AE9E9",
"CX c #95E7F5",
"ZX c #A7E6EA",
"AX c #A2EDEB",
"SX c #A5F1ED",
"DX c #A9F2EE",
"FX c #A8E9F5",
"GX c #B7EEF5",
"HX c #A9F3F3",
"JX c #C4DCE6",
"KX c #CAEAF1",
"LX c #C8F8FB",
"PX c #D7FBFD",
"IX c #E7FCFD",
"UX c #F2FDFE",
/* pixels */
";X;X;X;X;X;X;X;X;X;X;X;X;X;XqXqXqXqXqXqXqXqXqXqXtXtXtXtXtXtXaXaXaXaXaXaXaXaXaXaXaXaXaXaXaXaXaXaXaXiXiXiXtXtXtXtXtXtXtXtXtXtXtXtXtXtXtXtXtXtXtXtXiXiXtXtXaXaXaXaXiXiXaXaXaXaXaXaXaXaXaXaXaXaXaXaXaXaXaXaXaXaXaXiXaXaXaXaXaXaXaXaXaXaXaXaXaXaXaXaXaXaXaXaXaXaXaXaXaXaXaXaXaXaXaXaXaXaXaXaXaXaXaXaXsXsXsXsXaXaXaXaXsXsXsXsXsXsXsXsXsXsXsXsXsXsXsXsXNXNXNXNXNXNXNXNXNXNXNXNXNXCXVXCXVXVXVXVXCXCXCXCXCXCXVXVXVXVXVXVXAXAXSXSXSXSXSXSXAXAXSXSXSXSXHXHXHXHXHXDXDXHXDXDXDXDXDXDXDXDXDXDXDXDXDXDXZXZXAXAXAXAXVXVXAXAXSXDXHXHXHXHXHXHXHXHXDXDXDXDXDXDXDXDXHXHXHXHXHXHXHXDXDXDXDXDXDXDXDXDXDXDXDXDXDXDXSXAXAXAXAXAXVXBXnXnXbXxXxXxXkXkXZXLXGXGXZXZXcXkXkXkXkXjXjXjX4X4X4X5X8X7X8X0X0XuXbXCXVXBXBXBXBXBXBXBXBXBXBXBXBXBXMX0X5X5X4X8XMXBXBXMXNXNXNXNXNXNXNXNXNXNXNXNXNXNXNXNXNXNXNXNXNXNXNXNXNXNXNXNXbXbXbXbXpXpXsXsXpXpXpXpXpXsXpXsXpXpXpXpXpXpXpXpXiXiXiXiXpXpXpXiXiXiXiXiXiXiXiXpX9X9XiXiXiX9X9XiXiXiXiXiXiXiXiXiXiXiXiXiXiXyXiXiXiXiXiXiXyXyXyXiXiXyXyX9X1X1X9X9X1X1X1X1X1X1X1X1X1X<X,X<X,X<X<X<X,X,X,X,X>X>X>X>X>X>X>X>X>X>X>XoXoXoXoX|.oXoXoXoXoX|.}.}././.}.}.^.^.^.^.^././.^.^.^.^.^.^.^.^.^.^.^.^.^.^.^.^.^.^.^.^.^.!.!.!.!.!.!.!.!.!.!.!.!.!.!.b.b.b.x.m.N.N.N.K.K.K.K.K.K.L.gXmXKXKXKXKXKXKXKXKXKXKXKXKXKXKXGXZXcX%XG.f.#.#.f.f.f.5.5.O.O.X.[ [ ( ( K C C C C Y T Q [ o.1.s.g.c.c.m.m.m.!.!.!.!.!.).).!.!.!.!.m.c.4.2.:.| W D B f y y 7 7 6 6 6 6 6 6 6 6 6 6 9 8 9 y t u a p N N S D W Q | | >.3.4.4.4.g.g.c.h.j.K.Y.$X*X8X8X8X8X4X%X%X%X%X%X%XR.R.R.R.R.",
";X;X;X;X;X;X;X;X;X;X;X;X;X;X;XqXqXqXqXqXqXqXqXqXtXtXtXtXtXtXtXaXaXaXaXaXaXaXaXaXaXaXaXaXaXaXaXaXaXiXiXiXtXtXtXtXtXtXiXtXiXiXtXtXtXtXtXtXtXtXtXtXiXiXtXiXtXtXtXtXiXiXtXtXaXaXaXaXaXaXaXaXaXaXaXaXaXaXaXaXaXiXiXiXiXiXiXiXiXiXiXiXaXaXaXaXaXaXaXaXaXaXaXaXaXaXaXaXaXaXaXaXaXaXaXaXaXaXaXaXaXaXaXaXaXaXaXsXsXsXsXsXaXaXsXsXsXsXsXsXsXsXsXsXsXsXsXsXNXNXsXNXNXNXNXNXNXNXNXNXNXCXCXCXVXVXCXCXCXCXCXCXVXVXVXVXVXVXVXVXVXVXSXFXSXSXSXSXAXAXAXAXDXDXDXDXDXGXGXGXGXFXDXDXDXDXDXDXDXDXDXDXDXDXDXDXAXZXAXAXAXVXVXVXAXAXSXDXDXDXDXDXDXDXHXHXDXDXDXDXDXDXDXDXDXDXDXDXDXDXDXDXDXDXDXDXDXDXDXDXSXSXSXSXSXSXAXAXAXAXAXVXBXnXnXxXxXxXxXxXkXcXGXLXGXZXcXcXkXkXkXjXjXjXjX4X4X4X4X4X4X4X8X8X0X8XpXCXVXVXBXBXBXBXBXBXBXBXBXBXBXBXMXlX0X0X7X0XMXBXBXMXNXNXNXNXNXNXNXNXNXNXNXNXNXNXNXNXNXNXNXNXNXNXNXNXNXNXNXNXbXbXbXbXpXpXsXsXpXpXpXpXpXpXpXsXpXpXpXpXpXpXpXpXiXiXiXiXpXpXpXpXiXiXiXiXiXiXiXiXiX9XiXiX9X9X9X9XiXiXiXiXiXiXiXiXiXiXiXiXyXiXyXyX9XyX9X9XyXyXyXyXyX9X9X1X1X1X9X9X1X1X1X1X1X1X1X1X1X<X,X<X<X<X<X<X,X,X,X,X>X>X>X>X>X>X>X>X>X>X>XoXoXoXoX|.oXoX}.}.oX|.}.}././.}./.^.^.^.^.^././.^.^.^.^.^.^.^.^.^.^.^.^.^.^.^.^.^.^.^.^.^.!.!.!.!.!.!.!.!.!.!.!.!.!.!.b.b.b.x.m.!.!.N.N.K.K.K.K.K.L.%XcXKXKXKXKXKXKXKXKXKXKXKXKXKXGXZXcXgXG.V.#.#.#.5.5.5.5.+.O.O.[ [ ( Y C C C C C Y Y Q [ o.1.1.g.g.l.c.m.!.!.!.!.!.).).).).!.!.!.!.b.c.4.2.:.| W D B f y y 7 7 6 6 6 6 6 6 6 6 6 6 8 9 y y u f f f B V D T W [ | >.2.3.4.4.g.g.c.c.c.j.K.{.$X*X8X8X8X8XjX8X4X%X%X%X%X%XR.R.R.R.",
";X;X;X;X;X;X;X;X;X;X;X;X;X;X;X;XqXqXqXqXqXqXqXqXqXtXtXtXtXtXtXtXiXaXaXaXaXaXaXaXaXaXaXaXaXaXaXaXiXiXiXiXiXiXtXtXtXtXtXtXiXiXiXtXtXtXtXtXtXtXtXtXiXiXiXiXtXtXtXtXiXiXiXiXtXtXtXiXiXiXiXiXaXaXaXaXiXiXiXiXiXiXiXiXiXiXiXiXtXtXtXiXiXiXiXiXaXaXaXaXiXiXiXiXiXiXaXaXaXaXaXaXaXaXaXaXaXaXaXaXaXaXaXaXaXaXaXaXaXaXaXaXaXsXaXaXsXsXsXsXsXsXsXsXsXsXsXsXsXsXsXNXNXNXNXNXNXNXNXNXNXCXCXCXCXNXNXNXCXCXVXVXVXVXCXCXCXCXVXVXVXVXAXAXSXAXSXAXAXDXDXGXGXGXLXLXLXLXLXLXLXLXGXGXGXGXDXDXDXDXDXDXDXDXDXDXAXZXVXVXVXVXVXVXAXAXSXDXHXHXHXHXHXHXHXHXDXDXDXDXDXDXDXDXHXHXHXHXHXHXHXHXDXDXDXDXDXDXDXDXSXSXSXAXAXAXDXAXAXAXVXBXnXnXxXxXxXxXxXkXkXZXGXGXZXcXkXkXkXkXjXjX4X4X%X%X%X%X%X%X$X$X$X4X8X0X0XbXNXBXBXVXBXBXBXBXBXBXBXBXBXBXBXNXMXMXbXbXMXBXBXMXNXNXNXNXNXNXNXNXNXNXNXNXNXNXNXNXNXNXNXNXNXNXNXNXNXNXNXNXbXbXsXsXpXsXsXsXpXpXpXpXpXpXpXpXpXpXpXpXpXpXpXpXiXiXiXiXpXpXpXpXiXiXiXiXiXiXiXiXiXiXiXiX9X9X9X9X9XiX9X9X9X9X9X9X9X9XyX9X9X9X9X9X9X9X9X9X1X1X9X9X9X9X9X9X1X1X1X9X1X1X1X1X1X1X1X1X<X<X,X<X,X<X<X,X,X,X,X,X>X>X>X>X>X>X>X>X>X>XoXoXoXoX|.|.}.}.}.}.oX|.}.}././././././.^.^./././.^.^.^.^.^.^.^.^.^.^.^.^.^.^.^.^.^.^.^.^.^.!.!.^.^.!.!.!.!.!.!.!.!.!.!.Q.b.b.b.M.!.!.N.N.N.N.K.K.K.K.+XkXZXKXKXKXKXKXKXKXKXKXKXJXmXmXkXgXG.#.#.#.#.#.#.5.5.@.O.O.[ [ [ Y Y C C C V Y Y Q [ o.1.1.d.g.n.m.m.!.!.!.!.!.!.!.!.!.!.!.!.!.m.b.z.4.2.:.} W D B f y q 7 7 6 6 6 6 6 6 6 6 9 8 s s y y f f B A A D E W | | >.2.4.4.s.g.c.c.c.c.c.K.K.{.$X*X8X8XjXjXjXjXjXjX%X%X%X%X%XR.R.R.",
";X;X;X;X;X;X;X;X;X;X;X;X;X;X;X;XqXqXqXqXqXqXqXqXqXqXtXtXtXtXtXtXtXiXaXaXaXaXaXaXaXaXaXaXaXaXaXaXiXiXiXiXiXiXiXtXtXtXtXiXiXiXiXiXtXtXtXtXtXtXtXtXiXiXiXiXtXtXtXtXiXiXiXtXtXtXtXtXtXiXiXiXiXiXiXiXiXiXiXiXiXiXiXiXiXiXiXiXtXtXtXtXiXiXiXiXaXaXaXaXiXiXiXiXiXiXiXaXaXaXaXaXaXaXaXaXaXaXaXaXaXaXaXaXaXaXaXaXaXaXaXaXaXaXaXaXsXsXsXsXsXsXsXsXsXsXsXsXsXsXsXNXNXNXNXNXNXNXNXNXNXNXCXNXNXNXNXNXCXVXVXVXVXVXCXCXCXCXVXVXVXVXVXVXVXAXDXDXGXGXLXLXLXPXPXPXPXPXPXPXPXLXLXLXLXLXGXGXGXDXDXDXDXDXDXDXAXZXVXVXVXVXVXVXAXAXSXDXHXHXHXHXHXHXHXHXDXDXDXDXDXDXDXDXHXHXHXHXHXHXHXHXDXDXDXDXDXDXDXDXSXAXAXAXAXAXSXAXAXAXVXxXnXxXkXkXxXxXkXkXnXZXGXGXcXkXkXkXjXjXjX4XR.R.R.R.%X%X%X$X$X$X$X$X4X0X0XzXNXBXBXBXBXBXBXBXBXBXBXBXBXBXBXBXNXNXNXNXBXNXMXMXNXNXNXNXNXNXNXNXNXNXNXNXNXNXNXNXNXNXNXNXNXNXNXNXMXNXNXNXNXsXsXsXsXsXsXpXpXpXpXpXpXpXpXpXpXpXpXpXpXpXpXpXiXpXiXiXpXpXpXpXpXiXiXiXiXiXiXiXiXiXiX9X9X9X9X9X9X9X9X9X9X9X9X9X9X9X9X9X9X9X9X9X1X1X1X9X1X1X1X1X9X9X9X9X1X1X1X1X1X1X1X1X1X1X1X1X<X,X<X<X,X<X,X,X,X,X>X>X>X>X>X>X>X>X>X>X>XoXoXoXoXoX|.|.}.}.}.}.oX|.}.}./././././././.^./././.^.^.^.^.^.^.^.^.^.^.^.^.^.^.^.^.^.^.^.^.^.!.^.^.!.!.!.!.!.!.!.!.!.!.!.Q.b.b.b.!.!.!.N.N.N.N.N.K.K.K.Y.jXmXKXJXKXJXJXJXJXJXJXJXmXmXkXR.S.#.` #.#.#.@.@.@.@.O.O.[ [ ( Y C C V V V V Y T [ X.1.1.g.c.n.n.N.N.!.!.!.!.!.!.!.!.!.!.!.!.!.m.b.z.4.2.:.| W D B f y q 7 7 6 6 6 6 6 6 6 9 8 y s y y f f B A D D T W ^ | >.2.3.4.s.c.c.c.c.c.N.K.K.L.{.$X*X8XjXjXjXjXjXjXjXjX%X%X%X%X%XR.R.",
";X;X;X;X;X;X;X;X;X;X;X;X;X;X;X;X;X;XqXqXqXqXqXqXqXqXqXqXqXtXtXtXtXtXaXaXaXaXaXaXaXaXaXaXdXdXaXiXaXaXiXiXiXiXiXiXiXtXtXtXtXtXiXtXtXtXtXtXtXtXtXtXiXiXtXtXtXtXtXtXtXtXtXtXtXtXtXtXtXtXiXiXiXiXtXtXiXiXiXiXiXiXiXiXiXiXiXiXiXiXiXiXtXtXiXiXiXiXiXiXiXiXiXiXiXiXiXiXiXaXaXiXaXaXaXaXiXiXaXaXaXaXaXaXaXaXaXaXaXsXsXsXaXaXaXaXsXsXsXsXsXsXsXsXsXsXsXsXsXsXsXsXsXsXsXNXNXNXNXNXNXNXNXNXNXNXNXNXVXVXVXVXVXVXVXVXCXVXVXVXVXVXVXVXAXDXGXLXLXLXPXPXPXPXPXPXPXPXPXPXPXPXPXPXPXPXLXLXLXGXGXDXGXDXDXDXDXAXAXVXAXAXAXAXAXSXHXSXHXHXHXHXHXHXHXHXDXDXDXDXDXDXDXDXDXDXDXDXDXDXDXDXDXDXDXDXDXDXDXDXSXSXDXSXAXAXAXAXAXAXxXkXkXkXlXlXlXlXxXkXnXDXGXZXkXlXkXjXjXjX%XR.R.R.R.R.R.R.R.R.R.R.T.$X$X4X8XlXbXBXBXBXBXBXBXBXBXBXBXBXBXBXBXBXBXNXNXNXMXMXNXNXNXNXNXNXMXMXMXMXNXNXNXNXMXMXMXMXNXNXNXNXNXNXNXNXMXbXNXNXpXbXpXpXpXpXpXpXpXpXpXpXpXpXpXpXpXpXpXpXpXiXpXpXiXpXpXpXpXiXiXiX9X9X9X9X9X9X9X9X9X9X9X9X9X9X9X9X9X9X9X9X9X9X9X9X9X9X9X9X1X9X9X9X9X9X9X9X1X1X9X9X9X9X1X1X1X1X1X1X,X,X,X,X1X1X1X1X<X<X<X>X>X>X>X,X<X,X>X>X>X>X>X>XoXoXoXoX>X>XoXoXoXoXoX}.}.}.}.}.}.}.}./.}.}.}./././.^.^.^.^.^.^.^.^.^.^.^.^.^.^.^.^.^.^.^.^.^.^.^.^.^.^.!.^.^.!.!.!.!.!.!.!.!.!.M.b.b.b.Q.Q.!.!.!.!.!.N.N.N.N.N.D.L.%XcXZXGXGXGXJXJXJXGXmXmXcXkXR.S.` ` { ..X.@.O.O.O.O.O.[ [ ( Y C V V V V V Y Y [ X.+.1.g.c.n.n.N.N.!.!.!.!.!.!.!.!.!.!.!.!.!.!.m.x.z.4.2.:.} E D V f y q 7 7 6 6 6 6 6 6 6 8 y y y f f f C A D T E E ^ | >.>.3.4.c.c.c.c.c.c.N.K.K.K.L.{.$X*X8X8XjXjXjXjXjXjXjXjX%X%X%X%XR.R.",
";X;X;X;X;X;X;X;X;X;X;X;X;X;X;X;X;X;XqXqXqXqXqXqXqXqXqXqXqXqXtXtXtXtXtXaXaXaXaXaXaXaXaXaXdXdXaXdXaXaXaXiXiXiXiXiXiXiXtXtXtXtXtXtXtXtXtXtXtXtXtXtXiXiXtXtXtXtXiXiXtXtXtXtXtXtXtXtXtXtXiXiXiXiXtXtXiXiXiXiXiXiXiXiXiXiXiXiXtXiXiXiXtXtXiXiXiXiXtXtXiXiXiXiXiXiXiXiXiXiXaXaXiXaXaXaXiXiXaXaXaXaXaXaXaXaXaXaXaXsXaXaXaXaXaXaXsXsXsXsXsXsXsXsXsXsXsXsXsXsXsXsXsXsXsXsXNXNXNXNXNXNXNXNXNXNXNXNXVXVXVXVXVXVXVXVXVXVXVXVXVXVXAXAXGXGXLXLXPXPXPXPXPXPXPXPXPXPXPXPXPXPXPXPXPXPXPXPXLXLXLXGXGXGXDXDXHXDXAXAXSXSXHXSXSXSXSXSXHXDXHXHXHXHXHXHXDXDXDXDXDXDXDXDXDXDXDXDXDXDXDXDXDXDXDXDXDXDXDXDXSXSXDXDXAXAXAXAXZXAXxXkXlXlXlXlXlXlXkXxXnXGXGXnXkXjXjX4X%X%XR.R.R.R.R.R.R.R.R.R.T.T.R.T.$X$X4X0XzXMXBXBXBXBXBXBXBXBXBXBXBXBXBXBXBXBXBXNXBXMXNXNXNXNXNXNXMXMXMXMXNXNXNXNXMXMXMXMXNXNXNXNXNXNXNXNXpXpXbXbXbXbXpXpXpXpXpXpXpXpXpXpXpXpXpXpXpXpXpXpXiXiXpXpXpXpXpXpXiXiXiXpX9X9X9X9XiXiX9X9X9X9X9X9X9X9X9X9X9X9X9X9X9X9X9X9X9X9X1X1X1X1X9X9X9X9X9X9X1X1X9X9X1X9X1X1X9X1X1X1X,X,X,X,X1X1X1X1X<X<X<X<X>X>X>X>X,X>X>X>X>X>X>X>XoXoXoXoX>X>XoXoXoXoX|.}.}.}.oXoX}./././.}.}././././.^.^.^.^.^.^.^.^.^.^.^.^.^.^.^.^.^.^.^.^.^.^.^.^.^.^.^.!.!.!.!.!.!.!.!.!.!.b.b.b.b.b.b.Q.!.!.!.!.!.N.N.N.m.n.j.F.R.gXcXmXmXmXmXJXJXmXcXcXgXR.V.` _ { { { { X.O. . .[ [ [ ( Y Y V V V V V V Y Q [ o.1.d.g.c.N.N.N.!.!.).).!.!.!.!.!.!.!.!.!.!.m.c.x.z.4.2.:.~ E D V f y q 7 7 6 6 6 6 6 6 9 y y y f f g C C D T E Q ^ ^ >.>.3.4.s.c.c.c.c.m.m.N.).).K.Y.{.+X%X8XjXjXjXjXkXjXjXjXjX4X%X%X%XR.R.",
";X;X;X;X;X;X;X;X;X;X;X;X;X;X;X;X;X;X;XqXqXqXqXqXqXqXqXqXqXqXqXtXtXtXtXiXaXaXaXaXaXaXaXaXaXaXdXdXdXaXaXaXiXiXiXiXiXiXtXtXtXtXiXiXtXtXtXtXtXtXtXtXtXtXtXtXtXiXtXtXtXtXiXiXtXtXtXtXtXtXtXtXtXtXtXtXaXaXtXtXtXtXtXtXtXtXtXtXtXtXiXiXtXiXiXiXiXtXtXtXiXiXiXiXaXaXiXiXiXiXiXiXiXiXaXaXiXiXiXaXaXaXaXaXaXaXaXaXaXaXaXaXaXaXaXaXsXsXsXsXsXsXsXsXsXsXsXsXsXsXsXsXNXNXsXsXNXNXNXNXNXNXNXNXNXNXNXNXNXVXVXVXVXVXVXVXVXVXVXVXVXAXDXGXLXLXPXPXPXPXPXPXPXPXPXPXPXPXPXPXPXPXPXPXPXPXPXPXPXPXLXLXGXGXDXDXDXHXHXHXSXHXHXSXSXSXSXSXDXDXDXDXHXHXHXHXDXDXDXDXDXDXDXDXDXDXDXDXDXDXDXDXDXDXDXDXDXDXDXDXSXDXDXSXAXAXAXAXAXAXxXlXlXlXlXlXlXlXkXnXVXFXFXnXlXjX4X%XR.R.R.R.R.R.R.R.R.R.R.R.R.Y.Y.R.$X$X8X0X0XzXBXBXBXBXBXBXBXBXBXBXBXBXBXBXBXBXBXBXBXMXNXNXNXNXNXNXMXMXMXMXNXNXNXNXNXMXMXMXNXNXNXNXNXbXNXNXpXpXpXbXbXpXpXpXpXsXpXpXpXpXpXpXpXpXpXpXpXpXpXpXiXiXiXpXiXpXpXiXiXiXpXpXiXiX9X9XiXiXiXiX9XiX9X9X9X9X9X9X9X9X9X9X9X9X9X9X9X9X1X1X1X1X9X9X9X9X1X1X1X9X9X9X1X1X1X1X9X9X1X1X1X1X,X,X<X<X,X,X<X<X<X<X>X>X>X>X,X>X>X>X>X>X>X>X>X>XoX>X>X>X>XoXoXoXoX}.}.oXoXoX}./././.}./././.^.^.^.^.^.^.^.^.^.^.^.^.^.^.^.^.^.^.^.^.^.^.^.^.^.^.^.^.!.!.!.!.!.M.!.!.!.!.M.b.b.b.b.b.b.Q.m.m.M.M.M.M.M.m.n.c.l.A.F.R.gXcXcXcXcXcXcXcXkXgXP.V._ _ ` { { { { { {  .[ [ [ ( T Y Y V V V V V Y Y [ o.+.a.h.l.N.K.).).).!.).!.!.!.!.!.!.!.!.!.!.m.b.x.z.s.4.2.>.~ E D B f y y 9 7 6 6 6 6 6 9 8 y y y f f C C Y T W Q ^ ^ >.>.<.4.s.z.c.m.m.m.m.!.!.).).).{.{.$X*X8XjXjXjXkXkXkXkXjXjXjX4X%X%X%XR.",
";X(.(.(.(.;X;X;X;X;X;X;X;X;X;X;X;X;X;X;XqXqXqXqXqXqXqXqXqXqXqXtXtXtXtXtXiXaXaXaXdXaXdXdXdXdXdXdXsXsXdXaXdXiXiXiXiXiXiXtXtXtXiXtXtXtXtXtXtXtXtXtXtXiXtXtXtXtXtXtXtXtXiXiXiXiXtXtXtXtXtXtXtXtXtXtXaXaXtXtXtXtXtXtXtXtXtXtXtXtXiXiXtXtXiXiXiXiXtXtXiXiXiXiXaXaXaXiXiXiXiXiXiXiXaXiXiXiXiXaXaXaXaXaXaXaXaXaXaXaXaXaXaXaXaXaXaXaXsXsXsXsXsXsXsXsXsXsXsXsXsXNXNXNXsXsXNXNXNXNXNXNXNXNXCXNXNXNXNXVXVXVXCXVXVXVXVXVXVXVXAXGXGXLXPXPXPXPXPXPXPXPXLXLXLXLXLXLXLXLXLXLXLXLXPXPXPXPXPXPXPXPXLXLXGXGXDXHXHXHXSXHXSXSXSXSXSXSXDXDXDXDXHXHXHXHXDXDXDXDXDXDXHXHXDXDXDXDXDXDXDXDXDXDXDXDXDXDXDXDXDXDXDXDXAXAXAXAXAXAXBXlXlXlXlXlXlXxXBXVXZXZXZXxXlX5X4XR.R.R.R.R.I.I.R.I.I.R.R.R.I.I.Y.Y.T.$X4X8X8X8XMXBXBXBXBXBXBXBXBXBXBXBXBXBXBXBXBXBXMXMXNXNXNXNXNXNXMXMXMXMXNXNXNXNXNXMXMXMXNXNXNXNXNXbXNXNXpXpXpXpXbXbXpXpXNXsXpXpXpXpXpXpXpXpXpXpXpXpXpXpXiXiXpXpXiXiXiXiXiXiXpXpXiXyX9X9XiXiXiXiXiXiX9X9X9X9X9X9X9X9X9X9X9X9X9X9X9X1X1X1X1X1X1X9X9X9X1X1X1X1X9X9X1X1X1X1X9X9X1X1X1X,X,X,X1X<X,X<X<X<X<X>X>X>X>X>X,X>X>X>X>X>X>X>X>X>X>X>X>X>X>XoXoXoXoX}.oXoXoX}././././././.^.^.^.^.^.^.^.^.^.^.^.^.^.^.^.^.^.^.^.^.^.^.^.^.^.!.^.^.^.!.!.!.!.!.M.M.!.!.!.M.b.b.b.b.b.b.b.b.b.m.m.m.N.N.M.m.n.c.j.j.Z.S.P.gXhXkXkXkXhXgXR.P.q.` ) _ ) { { { { { [ [ [ [ [ T Y Y Y V V V V V Y Q X.+.1.d.j.N.N.).).).!.!.!.^.!.!.!.!.!.!.!.!.!.b.x.z.s.4.4.2.| W J S B f y q 7 7 6 6 6 6 6 9 y y f f f f C Y T Q Q ^ / o.>.<.4.s.s.c.c.m.m.!.!.!.).).).).{.{.$X&X8XjXjXjXkXkXkXkXjXjXjXjX%X%X%XR.",
"(.(.(.(.(.(.(.;X;X;X;X;X;X;X;X;X;X;X;XqXqXqXqXqXqXqXqXqXqXqXqXqXtXtXtXtXiXaXaXaXdXdXdXdXsXsXsXsXsXsXsXsXdXdXiXiXiXiXiXtXtXtXtXtXtXtXtXtXtXtXtXtXtXtXtXtXtXtXtXtXtXtXtXtXtXtXtXtXtXtXtXtXtXtXtXtXtXtXtXtXtXtXtXtXtXtXtXtXtXtXtXtXtXtXtXtXiXiXiXiXtXtXiXiXiXiXiXiXiXaXaXaXaXaXaXaXaXaXiXiXaXaXaXaXiXiXiXiXaXaXaXaXaXaXaXaXsXsXsXsXaXsXsXsXsXsXsXsXsXsXsXsXNXNXNXNXNXNXNXNXNXNXNXNXNXNXNXNXNXCXVXVXCXCXVXCXVXVXVXAXGXLXLXPXPXPXPXPXLXLXLXGXGXGXGXGXDXDXGXGXGXGXGXGXLXLXLXLXLXPXPXPXPXLXLXGXHXHXHXHXDXDXDXDXDXDXDXDXDXSXSXSXDXDXDXDXDXHXHXHXHXHXHXHXDXDXDXDXDXDXDXDXDXDXDXDXDXDXDXDXAXAXSXSXSXAXAXAXAXAXVXxXxXlXlXlXxXBXAXZXZXAXVXxXlX5X5X%XR.R.I.I.I.I.I.I.G.I.I.I.I.I.R.R.Y.R.$X8X7X3XzXMXBXBXBXBXBXBXBXBXBXBXBXBXMXMXMXMXMXMXNXNXMXMXMXMXNXNXNXNXMXMXNXNXNXNXNXNXMXMXMXbXbXbXMXMXbXbXbXbXpXpXpXpXbXNXpXpXpXpXpXpXpXpXpXpXpXpXpXiXpXpXiXiXiXpXpXpXiXiXiXiXpXiX9X9X9X9X9X9X9X9X9X9X9X9X9X9X9X9X9X9X9X1X1X1X1X1X1X1X1X9X9X9X9X9X1X1X9X9X9X9X1X1X1X1X,X,X,X1X,X,X,X,X<X<X<X<X<X,X,X,X,X>X>X,X>X>X>X>X>X>X>X>XoXoXoXoXoXoX|.|.oX|.|.}.}.}.}.}.}.}.}.}.}.}.}.^.^.^.^.^.^.^.^.^.^.^.^.^.^.^.^.^.^.^.^.^.^.!.~.~.!.^.!.!.!.!.!.!.!.!.!.!.Q.Q.Q.b.b.b.b.b.b.b.b.m.m.m.m.N.n.n.n.c.g.h.d.f.S.P.R.%X%X%XR.P.S.q._ ) ) ) ) ) [ [ [ [ [ [ ' ' T Y Y Y Y Y Y D D T Q | o.1.d.c.c.N.).).).[.[.[.^.^.^.!.!.!.!.!.!.!.m.x.x.z.s.4.2.>.:.~ J S N y q 0 7 6 6 6 6 6 6 9 y y f f C C T W Q | | o.>.>.2.3.4.s.c.c.c.m.!.).).).).).).K.[.{.+X$X*X8XjXkXkXkXkXkXkXkXjXjXjX%X%XR.",
"(.(.(.(.(.(.(.(.(.(.;X;X;X;X;X;X;X;X;X;X;XqXqXqXqXqXqXqXqXqXqXqXwXtXtXtXiXaXaXaXdXdXdXdXsXsXsXsXsXsXsXsXsXdXiXiXiXiXiXiXtXtXtXtXtXtXtXtXtXtXtXtXtXtXtXtXtXtXtXtXtXtXtXtXtXtXtXtXtXtXtXtXtXtXtXtXtXtXtXtXtXtXtXtXtXtXtXtXtXtXtXtXtXtXtXtXiXiXiXiXtXtXiXtXiXiXiXiXiXiXiXiXaXaXaXiXiXiXiXiXaXaXaXaXiXiXiXiXaXaXaXaXaXaXaXaXaXsXsXsXaXaXsXsXsXsXsXsXsXsXsXsXNXNXNXNXNXNXsXNXNXNXNXNXNXNXNXNXNXNXVXVXCXCXVXCXVXVXAXGXLXLXPXPXPXPXLXLXGXGXZXZXZXZXVXVXVXVXVXVXZXAXZXFXGXGXGXGXLXLXLXLXLXLXLXLXGXHXHXHXDXDXDXDXHXHXDXDXSXSXSXSXDXDXDXDXHXHXHXHXHXHXHXSXAXSXDXDXDXDXDXDXDXDXDXDXDXDXDXDXSXAXAXSXSXSXAXAXAXAXVXVXxXxXxXxXVXAXAXZXAXVXBXxXlX5X4XR.R.R.I.I.G.G.G.G.I.G.G.G.G.G.I.Y.Y.T.$X8X8X$XlXMXBXBXBXBXBXBXBXBXBXBXBXBXMXMXMXMXMXBXNXNXMXMXMXMXNXNXNXNXMXMXNXNXNXNXMXMXMXNXMXbXbXbXMXMXbXbXbXbXpXpXpXpXpXbXpXpXpXpXpX0XpXpXpXpXpXpXiXiXpXiXiXiXpX9X9X9X9X9X9X9XiXiX9X9X9X9X9X9X9X9X9X9X9X9X9X9X9X9X9X9X1X1X1X1X1X1X,X,X1X1X9X9X1X1X1X1X,X,X9X9X1X1X1X1X,X,X,X<X,X,X<X<X<X<X,X,X,X,X,X,X,X>X>X,X>X>X>X>X>X>X>XoX>X>XoXoXoXoX|.|.oX|.|.}.}.}.}.}.}.}.}./.}.}.}.^.^.^.^.^.^.^.^.^.^.^.^.^.^.^.^.^.^.^.^.^.^.!.~.~.^.!.!.!.!.!.!.!.!.!.!.!.!.Q.b.b.b.b.b.b.b.b.b.b.m.m.m.n.n.n.c.c.h.g.d.5.u.Z.S.G.L.G.S.V.` ) ) ) ) ) ) ( ( [ [ [ [ ( ( T Y Y Y Y Y Y Y T T W ^ o.<.4.c.c.N.!.).).[.[..X.X^.^.^.!.!.!.!.!.Q.m.x.z.z.s.4.2.2.:.} W D N N y q 0 7 7 7 7 7 7 7 9 y y f f C D T Q ^ o.o.>.>.>.<.4.4.s.c.c.m.!.!.).).).).).).K.[.{.{.+X%X4XjXkXkXkXkXkXkXkXjXjXjX%X%XR.",
"(.(.(.(.(.(.(.(.(.(.(.(.(.(.(.;X;X;X;X;X;X;XqXqXqXqXqXqXqXqXqXqXqXwXtXtXiXiXaXaXdXdXdXsXsXsXsXsXsXsXsXsXsXsXpXiXiXiXiXiXrXtXtXtXtXtXtXtXtXtXtXtXtXtXtXtXtXtXtXtXtXtXtXtXtXtXtXtXtXtXtXtXtXtXtXtXtXtXtXtXtXtXtXtXtXtXtXtXtXtXtXtXiXiXtXtXtXtXiXiXtXtXtXtXtXtXiXiXiXiXiXiXiXiXiXiXiXiXiXiXiXiXiXiXaXaXiXiXaXaXaXaXaXaXaXaXsXaXaXaXaXsXaXsXsXsXsXsXsXsXsXsXsXsXsXsXNXNXNXNXNXNXNXNXNXNXNXNXNXNXVXVXCXCXCXVXVXVXGXLXLXLXPXLXLXLXGXFXZXVXBXnXBXnXbXbXBXBXBXBXBXBXBXVXZXZXFXZXZXGXGXLXLXLXLXLXLXGXGXHXDXDXDXDXHXHXDXSXSXSXSXSXDXDXDXDXHXHXHXHXHXDXSXVXVXAXDXDXDXDXDXDXDXDXDXDXDXDXDXDXDXDXSXAXAXSXAXAXAXAXAXVXVXBXVXVXAXAXAXAXAXVXnXzXlX5X%XR.R.I.I.I.G.G.G.G.I.I.G.G.I.G.G.I.I.T.$X8X8X$X0XMXBXBXBXBXBXBXBXBXBXBXBXBXBXBXMXMXBXBXMXMXMXNXMXMXNXNXNXNXMXNXNXNXNXNXMXMXNXNXNXbXbXbXbXMXbXbXbXbXpXpXpXpXpXpXpXpXpXpXpXpXpXpXpXpXpXpXpXpXpXpXiXiX9X9X9X9X9X9X9X9XiX9X9X9X9X9X9X9X9X9X9X9X9X9X9X9X9X9X9X9X9X9X1X1X9X1X9X9X1X9X9X9X9X1X9X9X,X1X9X9X1X1X,X,X,X,X,X<X<X<X,X,X,X,X,X,X,X,X,X,X,X>X,X>X>X>X>X>X>X>XoXoX>X>X>X>XoXoX|.|.oX|.|.}.}.}.}.}.}.}.^.^.}.^.^.^.^.^.^.^.^.^.^.^.^.^.^.^.^.^.^.^.^.^.^.^.^.!.~.~.^.^.!.!.!.!.!.!.!.!.!.!.!.Q.b.b.b.b.b.b.b.b.b.b.m.m.m.m.n.n.c.c.g.d.5.1.+.#.#.#.V.#.` ` ) ( ( ( ( ( ( ( ( ( T T ( T T T Y Y Y Y T T T T Q Q o.1.4.g.c.N.!.).).[.[..X.X.X^.^.!.!.!.!.!.m.c.z.z.z.s.9.2.2.:.:.~ J S N N e q r 7 7 7 7 7 7 9 y y f f C C Y E ~ ^ o.>.<.<.3.4.4.s.c.c.c.m.!.N.).).).).).).K.).[.{.{.$X*X8XjXkXkXkXkXkXkXjXjXjX%X%XR.",
"(.(.(.(.(.(.(.(.(.(.(.(.(.(.(.(.(.(.;X;X;X;XqXqXqXqXqXqXqXqXqXqXqXwXtXtXtXiXaXaXiXdXsXsXdXsXsXsXsXsXsXsXsXsXpXpXiXiXiXiXiXrXrXtXtXtXtXtXtXtXtXtXtXtXtXtXtXtXtXtXtXtXtXtXtXtXtXtXtXtXtXtXtXtXtXtXtXtXtXtXtXtXtXtXtXtXtXtXtXtXtXtXtXtXtXtXtXtXtXtXtXtXtXtXtXtXtXtXiXiXiXiXiXiXiXiXiXiXiXiXiXiXiXiXaXaXaXiXaXaXaXaXaXaXaXaXaXaXaXaXaXsXaXsXsXsXsXsXsXsXsXsXsXsXsXsXNXNXNXNXNXNXNXNXNXNXNXNXNXNXBXVXNXCXNXVXVXHXGXLXLXLXLXLXGXFXZXVXnXbXbXbXbXbXbXbXbXbXbXbXbXbXnXnXBXBXVXZXZXZXFXGXGXGXLXLXLXLXGXGXHXDXDXDXHXDXDXSXSXSXSXSXDXDXDXDXHXHXHXHXHXHXSXAXVXAXDXDXDXDXDXDXDXDXDXDXDXDXDXDXDXAXSXAXAXAXAXAXAXAXAXAXVXAXAXAXAXAXAXZXAXVXnXlX5X8X$XR.R.I.I.I.G.G.G.G.G.I.I.G.G.G.F.F.G.Y.R.4X8X3XlXBXBXBXBXBXBXBXBXBXBXBXBXBXBXBXBXBXBXBXMXMXNXNXMXMXMXNXNXNXMXNXNXNXNXNXNXNXNXNXNXbXbXbXpXbXbXbXbXbXpXpXpXpXpXpXpXpXpXpXpXpXpXpXpXpXpXpXpXpXpXpXiXiX9X9X9X9X9X9X9X9XiXiX9X9X9X9X9X9X9X9X9X9X9X9X9X9X9X9X9X9X9X1X1X1X9X9X9X9X1X9X9X9X9X9X9X9X1X1X9X9X1X1X,X,X,X,X,X<X<X<X,X,X,X,X,X,X,X,X,X,X>X>X,X>X>X>X>X>X>XoXoXoX>X>X>X>XoXoX|.|.oX|.|.}.}.}.}.}.}.}.^.^.^.^.^.^.^.^.^.^.^.^.^.^.^.^.^.^.^.^.^.^.^.^.^.^.~.!.~.~.!.!.!.!.!.!.!.!.!.!.!.!.Q.b.b.b.b.b.b.b.b.b.b.b.m.m.m.n.n.n.c.g.g.d.1.1.+.O.X.X.{ { ) ( ( ( ( ( ( ( ( Y Y Y Y Y T T T T Y Y T T T T T W Q o.o.<.s.c.c.N.!.).[.[.[.[..X.X^.^.!.!.!.!.!.m.x.z.s.9.3.2.2.:.:.} W H S N n e q r 0 7 7 7 7 7 9 y y f B A D T W ^ o.>.<.<.4.4.4.s.s.c.c.m.m.!.!.).).).).).).).).).{.{.+X$X*XjXkXkXkXkXkXkXjXjXjX%X%XR.",
"(.(.(.(.(.(.(.(.(.(.(.(.(.(.(.(.(.(.(.;X;X;XqXqX;X;XqXqXqXqXqXqXqXqXwXtXtXiXiXiXiXdXsXsXdXsXsXNXNXNXNXsXsXsXpXpXpXiXiXiXiXiXrXrXtXtXrXrXtXtXtXtXtXtXtXtXtXtXtXtXtXtXtXtXtXtXtXtXtXtXtXtXtXtXtXtXtXtXtXtXtXtXtXtXtXtXtXtXtXtXtXtXtXtXtXtXtXtXtXtXtXtXtXtXtXtXtXtXiXiXiXiXiXiXiXiXiXiXiXiXiXiXiXiXiXiXiXiXaXaXiXiXiXiXaXaXaXsXaXaXaXiXpXsXsXsXsXsXsXsXsXsXsXsXsXsXsXsXsXNXNXNXNXNXNXNXNXNXNXCXBXVXNXNXVXVXAXGXLXLXLXLXLXGXSXVXnXbXbXbXbXpX0X0X0X0XpXuXuXbXbXbXbXbXnXnXnXnXnXVXZXZXZXFXGXGXLXLXLXGXGXDXDXDXHXHXSXSXSXSXSXSXDXDXSXSXDXDXDXDXHXSXSXSXAXAXDXDXDXDXDXDXDXDXDXDXDXDXDXDXDXDXAXAXAXAXAXAXAXAXVXVXVXAXAXAXAXAXAXZXAXVXnXlX8X4X$XI.I.I.I.G.G.F.F.F.G.G.G.G.F.F.F.F.F.I.T.$X8XlXbXBXBXBXBXBXBXBXBXBXBXBXBXBXBXBXMXMXNXNXMXMXNXNXNXNXMXMXMXNXNXNXNXNXMXMXMXMXMXMXMXbXbXbXbXbXbXbXpXpX0X6X&X2X6XpXpXpXpXpXpXpXpXpXpXpX9X9XpXpX0X9X9X9X9X9X9X9X9XiXiXiX9X9X9X9X9X9X9X9X9X9X9X9X9X9X9X9X9X9X9X9X9X9X,X,X1X1X9X9X1X1X9X9X,X,X,X,X,X,X,X,X,X,X,X,X,X,X,X,X<X<X,X<X,X,X,X,X,X,X,X,X>X>X>X>X>X>X>X>X>X>XoXoX|.|.>X>XoXoX|.|.oX|.|.}.}./././.}.}./.^.}.}.^.^.^.^.^.^.^.^.^.^.^.^.^.^.~.~.~.~.~.~.~.^.!.!.!.!.^.!.M.!.!.!.!.!.b.b.b.Q.b.b.b.b.b.b.b.b.b.b.b.b.n.n.n.n.n.x.x.g.g.d.1.<.<.+.| [ [ [ ( Y Y Y Y Y Y Y Y Y Y Y Y Y Y Y Y Y Y T Q [ [ [ [ [ | >.<.4.g.c.m.N.).).[..X.X.X.X.X/.^.!.!.!.!.b.x.z.s.9.2.<.>.*.&.~ ~ J S Z n n p p r 0 0 0 7 7 9 y y f B A D Y E ^ ^ >.>.3.3.4.4.s.s.c.c.c.c.m.!.!.!.).).).).).).K.K.K.).{.+X@X*XjXkXkXkXkXkXjXjXjXgX%XR.",
"(.(.(.(.(.(.(.(.(.(.(.(.(.(.(.(.(.(.(.(.(.;X;XqX;X;X;XqXqXqXqXqXqXqXwXtXtXtXiXiXiXdXsXdXsXNXNXNXNXNXNXNXsXsXpXpXpXiXiXiXiXiXyXrXrXrXrXrXtXtXrXtXtXtXtXtXtXtXtXtXtXtXtXtXtXtXtXtXtXtXtXtXtXtXtXtXtXtXtXtXtXtXtXtXtXtXtXtXtXtXtXtXtXtXtXtXtXtXtXtXtXtXtXtXtXtXtXtXiXiXiXiXiXiXiXiXiXiXiXiXiXiXiXiXiXiXiXiXaXaXaXaXiXiXaXaXaXaXaXaXaXsXpXpXsXsXsXsXsXsXsXsXsXsXsXsXsXsXsXNXNXNXNXNXNXNXNXNXNXNXNXNXNXNXBXVXDXGXLXLXLXGXGXAXBXnXbXbXuXuX0X0X7X7X6X7X8X8X0X0X0XlXbXvXbXbXvXnXnXnXnXnXVXZXZXFXGXGXLXLXGXDXDXDXHXHXSXSXSXSXSXSXDXDXSXDXDXDXDXDXHXHXSXSXDXDXDXDXDXDXDXDXDXDXDXDXDXDXDXSXAXDXAXAXAXAXAXAXAXAXAXVXVXVXAXAXAXAXZXZXAXVXbXlX4X$XR.I.G.I.I.G.G.G.G.G.G.G.G.G.F.F.F.V.F.I.Y.$X8XlXMXBXBXBXBXBXBXBXBXBXBXBXBXBXBXBXMXMXNXNXNXNXNXNXNXNXMXMXMXMXNXNXNXNXMXMXMXMXMXMXMXbXbXbXbXbXbXpXpX6X XY.U.U. X7XpXpXpXpXpXpXpXpXpXpX9X9X0X0X0X9X9X9X9X9X9X9X9X9X9X9X9X9X9X9X9X9X9X9X9X9X9X9X9X9X9X9X9X9X9X9X9X9X,X,X,X,X9X9X1X1X1X1X1X,X,X,X,X,X,X,X,X,X,X,X,X,X,X,X,X,X,X<X,X,X,X,X,X,X,X,X>X>X>X>X>X>X>X>X>X>XoXoX|.|.>X|.oX|.|.|.|.|.}.}././.}.}././.^.^.^.^.^.^.^.^.^.^.^.^.^.^.^.^.^.^.~.~.~.~.~.~.^.^.!.!.!.!.^.!.M.!.!.!.!.!.b.b.b.b.b.b.b.b.b.b.b.b.b.b.b.b.n.n.n.x.n.x.g.g.d.d.1.<.<.<.| [ [ [ T T Y Y Y Y Y Y Y Y Y Y Y Y Y Y Y Y Y T Q [ [ [ o.o.>.<.4.g.c.c.N.!.).).[..X.X.X.X.X/.^.!.!.!.Q.x.z.z.9.2.2.>.*.^ ~ W J H S N n n p p p q q 0 0 y y y f B A D T E ~ ^ >.>.3.4.4.4.4.s.z.c.c.c.c.m.!.!.!.).!.).).).).K.K.K.K.).{.+X@X*XjXjXkXjXkXjXjXjXgX%XR.",
"(.(.(.(.(.(.(.(.(.(.(.(.(.(.(.(.(.(.(.(.(.(.;X;X;X;X;X;XqXqXqXqXqXqXqXwXtXtXiXiXiXpXsXdXsXNXNXNXNXNXNXNXNXsXsXpXpXpXiXiXiXiXiXrXrXrXrXrXrXrXrXrXrXrXrXrXrXrXrXrXrXrXrXrXrXrXrXrXrXrXtXtXrXrXrXrXtXtXtXtXtXtXtXtXtXtXtXtXtXtXtXtXtXtXtXtXtXtXtXtXtXtXtXtXtXiXtXtXiXiXtXtXiXiXiXiXiXiXiXiXiXiXiXiXiXiXiXiXaXaXaXaXiXiXaXaXaXiXiXaXpXpXpXpXsXsXsXsXsXsXsXsXsXsXsXsXsXsXsXsXNXNXNXNXNXNXNXNXNXNXNXBXBXBXVXVXGXLXLXLXGXDXVXBXbXbXbXpX8X7X6X6X6X6X&X6X6X6X7X7X8X8X0X0XlXlXlXlXlXxXnXnXnXnXVXZXZXZXGXGXGXHXHXDXHXSXSXSXSXSXSXSXDXDXDXDXHXHXDXDXHXHXHXHXDXDXDXDXDXDXDXDXDXDXDXDXDXDXSXAXAXSXDXSXAXAXAXAXAXVXAXAXVXVXAXAXAXAXAXAXAXVXxX8X%X$XR.I.G.I.G.G.G.I.Y.I.G.F.Z.F.V.F.F.F.V.G.I.$X4X0XMXBXBXBXBXBXBXBXBXBXBXBXBXBXBXBXBXMXNXNXNXNXMXMXNXNXMXMXMXMXNXNXNXNXMXMXMXMXMXMXMXbXbXbXbXbXbXpX6XY.U.K.N.l.K. X0XpXpXpXpXpXpXpXpXpX9X9X9X0X9X9X9X9X9X9X9X9X9X9XyXyX9X9X9X9X9X9X9X9X9X9X9X9X9X9X9X9X,X,X1X1X9X,X,X,X,X,X,X,X,X,X,X,X1X1X1X,X,X,X,X,X,X,X,X,X,X,X,X,X,X,X,X<X,X,X,X,X,X>X,X,X,X>X>X>X>X>X>X>X>XoX>XoX|.|.|.|.|.oXoXoX|.|.}.}.}.}.}.}.}./././.^.^.^.^.^.^.^.^.^.^.^.^.^.^.^.^.~.~.~.~.~.~.~.~.!.!.!.!.^.!.M.!.!.!.!.!.b.b.b.b.b.b.b.b.b.b.b.b.b.b.b.b.x.x.x.x.x.x.g.g.4.4.<.<.<.>.| [ [ Q T Y Y Y Y Y T T T T Y Y Y Y Y Y Y Y Y T Q [ X.o.o.<.2.4.g.c.c.m.N.).).[.[..X.X.X.X.X^.!.!.!.!.b.z.z.9.2.2.*.*.^ ~ W J H S Z n n n p p e q q q q y y f N A D T E W ^ *.>.<.3.4.4.4.4.4.z.c.c.c.c.m.!.!.!.!.!.).).).K.K.K.K.K.K.K.`.+X@X%XjXjXjXjXjXjXgX%XR.R.",
"(.(.(.(.(.(.(.(.(.(.(.(.(.(.(.(.(.(.(.(.(.(.(.(.(.(.;X;X;XqXqXqXqXqXqXqXwXtXiXiXiXpXdXdXsXNXNXNXNXNXNXNXNXNXsXpXpXpXiXiXiXiXyXrXrXrXrXrXrXrXrXrXrXrXrXrXrXrXrXrXrXrXrXrXrXrXrXrXrXrXrXrXrXrXrXrXtXtXtXtXtXtXtXtXtXtXtXtXtXtXtXtXtXtXtXtXtXtXtXtXtXtXtXtXtXiXiXiXiXiXtXtXiXiXiXiXiXiXiXiXiXiXiXiXiXiXiXiXaXaXaXaXiXiXaXaXaXiXiXiXpXpXaXsXsXsXsXsXsXsXsXsXsXsXsXsXsXsXsXsXNXNXNXNXNXNXNXNXNXNXNXBXBXBXVXAXGXLXLXGXHXCXMXbXbXuXuX8X6X6X&X&X&X&X&X&X&X&X&X6X3X7X7X8X8X8X8X8XlXlXjXlXkXnXnXnXnXnXVXFXGXGXHXDXDXSXSXSXSXSXSXSXDXDXDXDXSXDXDXDXHXHXHXHXDXDXDXDXSXDXDXDXDXDXDXDXDXDXSXAXAXAXSXAXAXAXAXAXAXVXAXAXVXVXAXAXAXAXVXVXVXVXlX4X$XR.Y.G.G.F.G.G.G.G.I.I.G.F.Z.Z.V.F.F.V.V.F.I.T.T.8XMXBXBXBXBXBXBXBXBXBXBXBXBXBXBXBXMXMXNXNXNXNXMXMXMXMXMXMXMXMXMXNXNXNXNXMXMXMXMXMXMXbXbXbXbXbXbX0X{.K.l.N.N.l.l.U.6XbXpXpXpXpXpXpXpXpX9X9X9X9X9X9X9X9X9X9X9X9X9XyXyXyX9X9X9X9X9X9X9X9X9X9X9X9X9X9X9X9X1X1X1X1X9X,X,X,X,X,X,X,X,X,X,X,X1X1X,X,X,X,X,X,X,X,X,X,X,X,X,X,X,X,X,X<X,X,X,X,X>X>X,X,X,X>X>X>X>X>X>X>XoX>X>XoX|.|.|.|.oXoXoXoX|.|.}.}.}.}.}.}.}.}.}.}.^.^.^.^.^.^.^.^.^.^.^.^.^.^.^.^.~.~.~.~.~.~.~.~.!.!.!.!.^.!.M.!.M.!.!.!.b.b.b.b.b.b.b.b.b.b.b.b.b.b.b.b.b.x.x.x.x.s.s.s.4.4.<.<.<.>.| [ [ Q T Y Y Y Y Y T T T T Y Y Y Y Y Y Y Y Y T Q [ o.+.1.<.1.g.x.c.c.N.!.!.).[.[..X.X.X.X.X^.!.!.!.m.x.z.9.2.2.&.*.^ ~ E J S S Z N n n n n p e e e e e f f N S D T E W ^ ^ >.>.<.4.4.s.4.4.s.z.c.c.c.c.m.!.!.!.!.!.).).N.N.N.N.K.K.K.K.K.L.Y.+X%XgXjXjXjXjXgX%XR.R.",
"(.(.(.(.(.(.(.(.(.(.(.(.(.(.(.(.(.(.(.(.(.(.(.(.(.(.(.;XqXqXqXqXqXqXqXqXwXwXrXiXiXiXdXdXsXNXNXNXNXNXNXNXNXNXNXpXpXpXiXiXiXiXiXrXrXrXrXrXrXeXeXeXrXrXrXrXrXrXrXrXrXrXrXrXrXrXrXrXrXrXrXrXrXrXrXrXrXrXeXeXeXeXeXeXrXrXrXtXrXrXrXtXtXtXtXtXtXtXtXtXtXtXtXtXtXtXtXtXiXiXiXiXiXiXiXiXiXiXiXiXiXiXiXiXiXiXiXiXiXiXiXiXiXiXiXiXaXaXiXiXpXpXsXsXsXsXsXsXsXsXsXsXsXsXsXsXsXsXNXNXNXNXNXNXNXNXNXNXNXNXNXBXBXVXVXHXGXLXLXGXCXbXbXpXpXuX8X6X6X&X$X X X X X$X$X$X$X&X&X3X7X7X7X8X8X8X8X8X8XjXjXlXbXvXbXbXnXBXFXGXDXDXDXHXSXSXSXSXSXSXSXHXSXSXSXSXSXSXDXDXDXDXDXDXDXAXAXSXSXDXDXDXDXDXDXDXDXDXSXSXSXSXAXAXVXAXAXAXAXAXVXAXVXVXAXVXVXVXVXVXlX$XT.T.I.I.G.F.F.G.G.I.Y.G.F.A.V.V.V.F.F.V.u.V.I.Y.T.5XBXBXBXBXBXBXBXBXBXBXBXBXBXBXBXBXMXMXMXMXMXNXMXMXNXNXMXMXMXMXNXMXNXNXNXbXbXbXNXNXbXpXpXpXpXbXpX&XU.l.l.l.l.k.y.l. XpXpXpXpXpX0X9X0X0XpXpXpX9X6X9X9X9X9X9X9XyXyXyX9X9X9X9X9X9X9X9X9X9X9X9X9X9X9X9X9X9X9X9X9X9X,X1X9X9X,X,X,X,X,X1X,X,X,X,X,X,X,X,X,X,X,X,X,X,X,X<X<X<X,X,X,X,X,X,X>X,X>X,X,X,X,X>X>X>X>XOXoXoXoXoXoXoXoX|.|.|.oXoXoX|.}.}.}.}.}.}.}.}.}.}.}.^.^.^.^.^.^.^.^.^.^.^.^.^.^.^.^.~.~.~.^.^.^.!.!.!.!.!.!.!.~.!.!.M.!.!.!.M.b.b.b.b.b.b.b.b.b.b.b.b.x.b.b.b.b.x.z.s.s.s.a.4.a.1.<.>.>.o.| [ Q Q T T T T T T T T T T Y D D D Y Y Y Y T T Q [ o.1.1.4.g.x.c.c.m.N.!.).).[..X.X.X.X[.[.!.!.!.Q.m.z.z.3.2.:.&.~ W H S S S Z Z N n n n n p p n p f N B V D J E W ~ ^ ^ >.>.>.3.4.4.4.s.s.s.c.c.c.c.m.m.!.N.!.!.!.N.!.!.!.N.N.N.N.H.c.H.A.F.L.+X%XgXgXgXgX%X%XR.R.",
"(.(.(.(.(.(.(.(.(.(.(.(.(.(.(.(.(.(.(.(.(.(.(.(.(.(.(.(.(.;XqXqXqXqXqXqXqXwXwXrXiXiXpXdXsXsXNXNXNXNXNXNXNXNXNXpXpXpXpXyXiX9XyXrXrXrXeXrXrXeXeXeXrXrXrXrXrXrXrXrXrXrXrXrXrXrXrXrXrXrXrXrXrXrXrXrXrXrXeXeXeXeXeXeXrXrXrXrXrXrXrXtXeXeXeXeXrXrXeXeXrXrXrXrXtXtXtXtXtXtXrXrXiXiXtXiXiXiXiXiXiXiXiXiXiXiXiXiXiXiXiXiXiXiXiXiXaXaXaXiXiXiXaXaXsXsXsXsXsXsXsXsXsXsXsXsXsXsXsXNXNXNXNXNXNXNXNXNXNXNXNXNXBXVXAXGXLXLXGXAXbXpXpXuX0X8X6X6X$X X X X X X X X X X X$X&X&X&X*X3X3X3X7X7X4X8X8X8X8XlXjXvXvXbXbXVXHXHXDXDXHXSXSXSXSXSXSXHXSXHXHXSXSXSXSXDXDXDXDXDXDXDXSXAXDXDXDXDXDXDXDXDXDXDXDXSXSXSXSXSXAXAXAXAXAXAXVXVXVXVXAXVXVXVXVXVXVXlXR.Y.I.I.G.F.F.F.F.G.Y.L.G.F.Z.V.V.V.G.F.V.u.V.G.F.I.lXVXBXBXBXBXBXBXBXBXBXBXBXMXMXBXBXMXMXMXMXNXNXMXMXNXNXMXMXMXMXMXMXNXNXbXbXbXbXNXNXbXpXpXpXbXpX0X Xl.l.l.K.k.k.d.l. X0XpXpXpXpX9X9X9X9XpXpX9X6X X2X9X9X9X9X9XyXyXyX9XyX9X,X X:X9X9X9X9X9X9X9X9X6X9X9X6X9X9X9X9X,X1X1X9X,X,X,X,X,X,X,X,X,X,X,X,X,X,X,X,X,X,X,X,X,X,X,X,X>X>X,X,X,X,X>X>X>X>X,X,X,X>X>X>XOXoXoXoXoXoXoXoXoX|.|.|.oXoXoX|.}.}.}.}.}.}.}.^.}.}.}.^.^.^.^.^.^.^.^.^.^.^.^.^.^.^.^.~.~.~.^.^.^.^.!.!.!.!.!.!.~.!.!.M.!.!.M.b.b.b.b.b.b.b.b.b.b.b.b.b.x.x.x.b.x.z.p.<.<.<.a.a.a.1.<.>.>.o.| [ [ Q Q T T T T T T T T T D D D D Y Y Y Y T T Q o.>.<.4.s.g.c.c.c.m.!.!.).).[..X.X.X.X[.[.!.!.!.Q.b.z.9.3.>.&.~ ~ H H S Z Z Z N n n n n n n n N N N S D S E W ~ ^ ^ | >.>.3.3.4.s.s.s.c.c.c.c.c.m.m.m.!.!.!.!.!.!.!.!.!.!.!.N.N.N.c.c.j.j.A.A.L.+X%X*X%X%X%XR.R.R.",
"Q.Q.Q.Q.Q.Q.(.(.(.(.Q.Q././.(.(.(.(.(.(.(.(.(.(.(.(.(.(.(.(.=XqXqXqXqXqXqXwXwXwXrXiXiXdXsXsXNXNXNXNXNXNXNXNXNXpXpXpXpXyX9X9X9XrXrXrXeXeXeXeXeXeXrXrXrXrXrXrXrXrXrXrXrXrXrXrXrXrXrXrXrXrXrXrXrXrXrXrXeXeXeXeXeXeXrXrXrXrXrXrXrXrXeXeXeXeXtXtXtXtXrXrXrXrXtXtXtXtXtXtXrXrXiXtXtXtXtXiXiXiXiXiXiXiXiXiXiXiXiXiXiXiXiXiXiXiXaXiXiXiXiXiXiXaXaXaXsXsXsXsXsXsXsXsXsXsXsXsXsXNXsXNXNXNXNXNXNXNXNXNXNXNXBXVXHXGXLXGXHXMXpXuX6X6X6X6X&X X X X X X X X X X X X X X X$X$X&X&X&X&X&X&X*X4X4X4X8X8X8X8XlXvXvXnXFXHXDXDXHXSXSXSXSXSXSXSXSXSXSXSXSXSXSXSXSXSXSXDXDXDXDXDXDXDXDXDXDXDXDXDXDXDXDXSXSXSXSXSXAXAXAXAXAXVXVXAXAXAXAXVXVXVXVXVXVXnX4XY.I.G.F.F.A.F.F.I.Y.G.F.F.Z.V.V.V.F.V.u.u.V.F.F.R.MXVXBXBXBXBXBXBXBXBXBXBXMXMXMXMXBXMXMXMXMXMXNXNXNXNXNXMXMXMXMXMXMXMXMXbXbXbXbXNXNXNXpXbXbXbXbX0X{.l.d.l.D.l.y.d.l.{.9XpXpXpXpX9X9X0X0XpXpX9X XU. X9X9X9X9X9X9XyXyXyX9X6X|.U.|.6X9XyXyXyXyX9X6X6X9X9X9X9X6X9X6X,X,X9X9X,X,X,X,X,X,X,X,X,X,X,X,X,X,X,X,X,X,X,X,X,X,X,X,X>X>X,X,X,X>X>X>X>X>X>X>X>X>X>X>X>XoXoXoXoXoXoXoXoXoX|.|.oXoXoX|.}.}.}.}.}.}.}.^.}.}.}.^.^.^.^.^.^.^.^.^.^.^.^.^.^.^.^.~.^.^.^.^.^.^.^.^.!.!.!.~.~.!.!.M.!.M.b.b.b.b.b.b.b.b.b.b.b.b.b.b.x.x.n.).).m.a./ / <.1.s.4.<.<.>.>.o.o.| [ [ [ Q T T T T T T T T Y Y Y Y Y Y D D T W [ o.<.1.d.h.c.c.c.m.m.!.!.).).[.[.[.[.[.[.!.!.!.!.Q.z.s.3.>.&.~ ~ H H S Z Z N n n n n n n n N N N S D E W W W ! ^ / >.>.<.3.4.s.s.c.c.c.c.c.c.m.m.m.m.!.!.!.!.!.).).!.!.!.!.N.N.N.N.c.c.j.h.f.f.Z.J.+X+X@X@XR.R.P.P.",
"Q.Q.W.W.W.Q././.Q.Q.Q.Q.Q.Q.(.(./.(.(.(.(.(.(.(.(.(.(.(.(.(.(.(.qXqXqXqXqXqXwXwXwXiXiXiXdXsXNXNXNXNXNXNXNXNXNXpXpXpXpXyX9X9X9X1XrXrXrXeXrXeXeXeXeXeXeXeXrXrXrXrXrXrXrXrXrXrXrXrXrXrXrXrXrXrXrXrXrXrXeXeXeXeXeXeXrXrXrXrXrXrXrXtXrXeXeXeXtXtXtXtXrXrXrXrXtXtXtXtXtXrXrXrXtXtXtXtXtXtXiXiXiXiXiXiXiXiXiXiXiXiXiXiXiXiXiXiXiXiXiXiXiXiXiXaXaXaXaXsXsXsXsXsXsXsXsXsXsXsXsXNXNXNXNXNXNXNXNXNXNXNXNXNXVXFXGXGXGXHXCXbXuXuX6XOX X X X X X X X X X X X X X X X X X X X X$X$X&X$X$X$X&X$X$X$X%X4X4X8X8XvXbXBXFXHXHXSXSXSXSXSXSXSXSXSXSXSXSXSXSXSXSXSXSXDXSXDXDXDXDXDXDXDXDXDXDXDXDXDXDXDXSXSXSXSXAXAXAXAXAXAXVXVXAXAXAXVXVXVXVXVXVXVXBXlXR.G.G.F.A.F.L.F.L.Y.L.F.F.A.Z.V.V.V.u.u.u.V.F.Y.5XBXBXBXBXBXBXBXBXBXBXMXzX5XzXMXMXBXMXMXMXMXMXNXNXNXNXMXMXMXMXMXMXMXMXMXbXbXbXbXNXNXNXpXbXbXbXbX0X Xl.d.l.l.l.y.y.D. XuX9X9X0XpX0X9X0X0X0XpX9X6X X6X9X9X9X9X9X9X9X9XyX9X:X|.U.U.OX6XpXpXpXyX6X6X6XyXyX9X6X6X6X6X,X,X9X6X,X,X,X,X,X,X,X,X,X,X,X,X,X,X,X,X,X,X,X,X,X,X,X,X>X>X,X,X>X>X>X>X>X>X>X>X>X>X>X>X>XoXoXoXoX|.oX|.oXoX|.|.oXoXoX|.}.}.}.}.}.}.}.^.}.}.}.^.^.^.^.^.^.^.^.^.^.^.^.^.^.^.^.~.^.^.^.^.^.^.^.^.~.!.!.~.!.!.!.M.M.b.b.b.b.b.b.b.b.b.b.b.b.b.b.b.z.n.{.-XOXc.<.^ / <.1.s.4.3.<.>.>.o.o.| | [ [ [ T T T T T T T T Y Y Y Y Y Y D D T W [ o.1.5.g.c.c.c.c.N.m.!.!.!.!.[.[.[.[.[.!.!.!.!.!.c.z.9.2.>.&.~ H S Z Z Z N n n n n n n n N Z Z S D W W ^ ^ ^ / >.>.<.3.4.4.s.c.c.c.c.c.m.m.m.m.!.!.!.!.!.!.!.!.).).).!.N.!.!.!.!.N.c.c.j.h.7.7.7.Z.J.L.P.R.R.L.G.G.",
"W.W.W.W.Q.Q.Q.Q.Q.W.W.W.Q././.(././.(././././.(.(.(.(.(.(.(.(.(.(.;XqXqXqXqXqXwXwXrXiXiXpXpXsXNXNXNXNXNXNXNXbXpXpXpXuX9X9X9X9X1XrXrXrXrXrXeXeXeXeXeXeXeXeXeXeXeXeXeXeXeXeXeXeXeXeXeXeXeXeXeXeXeXeXeXeXeXeXeXeXeXrXrXrXrXrXrXrXrXrXeXeXeXtXtXtXtXrXrXrXtXrXrXrXrXrXrXrXrXrXiXiXiXtXtXiXiXiXiXtXtXiXiXiXiXiXiXiXiXiXiXiXiXiXiXiXiXiXpXiXpXpXpXsXsXpXpXpXsXsXsXsXsXsXsXsXsXsXNXNXNXNXNXNXNXNXNXMXMXVXHXGXGXGXFXNXpXuX6X&X X X X X X X X X X X X X X X X X X X X X X X$X$X$X$X$X$X$X$X$X$X$X$X$X8XlXbXbXVXFXHXHXSXSXAXAXAXSXSXSXSXSXSXSXSXSXSXSXSXSXDXDXDXDXDXDXDXDXDXDXDXDXSXSXSXAXDXDXSXSXAXAXAXAXAXAXVXVXAXAXAXVXVXVXVXVXVXVXVXBX4XI.G.F.V.A.F.G.I.U.F.F.F.F.A.u.u.y.u.u.u.F.Y.$XbXVXBXBXBXMXBXBXBXMXBXMX5XR.4XbXBXMXMXMXMXMXNXNXMXMXMXMXNXNXbXNXMXbXbXbXbXbXbXbXbXbXbXbXpXpXpXpXpX$XF.l.l.d.d.y.l.U.6X0X2X2X9X0X0X0X0X0XpX0X9X6X6X6X9X9X9X9X9X9X9X9XyXyXOXU.U. XOX9XpXpXyXOX X|.|.OX&X6X6X,X,X,X<X,X,X,X,X,X,X,X,X,X,X,X,X,X,X,X,X,X,X,X,X,X,X,X,X,X>X>X>X>X>X>X>X>X>X>X>X>X>X>X>X>XoXoX>X>XoX|.oX|.|.|.oXoXoX|.oX|.}.}.}.}.}.}.}.}.}.^.^.^.}.^.^.^.^.^.^.^.^.^.^.^.^.^.^.^.~.~.^.^.^.^.!.!.!.!.!.!.!.!.!.!.!.M.b.b.b.b.b.b.b.b.b.b.b.b.b.b.x.x.n.{.yX&XK.<.^ ^ | 3.4.1.4.1.<.<.>.>.o.o.| | [ [ Q W T T T Y Y Y Y Y Y Y D D D Y T W [ o.<.5.h.c.c.c.c.m.N.!.!.!.!.!.!.[.!.!.!.!.!.!.c.z.9.2.2.&.~ J H S Z N N n N N N n n N N Z S J W W | | >.>.>.>.<.3.4.4.s.s.c.c.c.m.!.!.!.!.!.!.!.!.!.!.).).!.).).).!.!.!.!.!.!.m.c.c.c.h.g.5.5.5.@.7.Z.G.L.G.S.Z.V.",
"W.W.W.W.Q.Q.Q.Q.W.W.W.W.Q.Q./././././././././././.(.(.(.(.(.(.(.(.(.=XqX=XqXqXwXwXwXrXyXiXpXdXsXNXNXNXNXNXbXbXpXpXpXuX9X9X9X9X,X,XrXrXrXrXeXeXeXeXeXeXeXeXeXeXeXeXeXeXeXeXeXeXeXrXrXeXeXeXeXeXeXeXeXeXeXeXeXeXeXrXrXrXrXrXrXrXrXrXeXrXrXeXeXtXtXrXrXrXtXrXrXrXrXrXrXrXrXrXrXiXiXtXtXtXiXiXiXiXiXiXiXiXiXiXiXiXiXiXiXiXiXiXiXiXiXiXiXiXiXpXpXsXpXpXsXpXsXsXsXsXsXsXsXsXsXsXNXNXNXNXNXNXNXNXNXNXMXVXHXGXGXHXCXbXpX6X&XOX X X X X X X X X X X X X X X X X X X X X X X$X&X X X X$X$X$X$X$X$X$X$X7X0XbXbXnXAXHXHXAXSXAXAXAXSXSXSXSXSXSXSXSXSXSXSXSXSXDXDXDXDXDXDXSXAXSXDXDXDXSXSXAXSXAXSXSXAXAXAXAXAXAXAXVXVXVXAXVXVXVXVXVXVXVXVXVXVXnX4XI.F.D.A.F.G.U.I.F.F.F.V.V.u.u.u.u.u.F.Y.$XzXBXBXBXBXBXxXbXBXbXbXBXMX5XR.4XbXMXMXMXMXMXMXNXNXMXMXMXMXNXNXbXbXbXbXbXbXbXbXbXbXbXbXbXbX0X0X0X0XpX8X{.K.l.h.l.h.D. X9X2XU. X9X0X0X0X0X0X9X9X9X9X9X9X9X9X9X9X9X9X9X9X9X9XOX]. X6X9XpXyXOX[.U.N.N.N.).[. X6X6X,X,X,X,X,X,X,X,X,X,X,X,X,X,X,X,X,X,X,X,X,X,X,X,X,X,X,X,X>X>X>X>X>X>X>X>X>X>XOXoX>XOXoXoXoXoX>XoX|.|.oX|.|.|.oXoX|.|.oX|.}.}.}.}.}.}.}.}.}.^.}.^.^.^.^.^.^.^.^.^.^.^.^.^.^.^.^.~.~.~.~.~.~.~.!.!.!.!.!.!.!.!.!.!.M.b.b.b.b.b.b.b.b.b.b.b.b.b.b.b.x.x.N.OX{.A.,.^ ~ ~ | 1.<.o.<.4.<.<.>.>.o.o.o.| | [ [ Q T T T T Y Y C C C Y Y Y D Y T T Q o.<.4.g.x.c.m.m.m.m.!.!.!.!.!.!.!.!.!.!.!.!.Q.z.z.9.2.*.&.~ H S Z Z N N n N N N N N Z Z S J W ~ ^ >.>.>.<.<.3.4.s.x.c.c.c.m.m.m.!.!.!.!.!.!.!.!.!.!.!.).).).).).).!.!.!.m.!.!.m.c.c.s.g.5.1.1.O.O. .#.e.Z.Z.q.#.` ",
"W.W.W.W.W.W.W.W.W.W.W.W.W.Q.Q.Q.Q.Q.Q././././././././././././././././.(.oX=XqXqXwXwXwXyXiXiXpXpXsXNXNXNXNXsXbXpXbXpXpXpX9X6X,X,X,XwXrXrXrXrXeXeXeXeXeXeXeXeXeXeXeXeXeXeXeXeXeXeXrXrXrXrXeXeXeXeXeXeXeXeXeXeXeXeXrXrXrXrXrXrXrXrXeXeXeXrXeXeXeXeXrXrXtXtXrXrXrXrXrXrXrXrXrXrXrXiXtXtXtXtXiXiXiXiXiXiXiXiXiXiXiXiXiXiXiXiXiXiXiXiXpXpXiXiXaXaXsXpXsXsXsXsXsXsXsXsXsXsXsXsXNXNXNXNXNXNXNXNXNXNXNXMXVXHXGXHXAXbXpXpX9X6XOX X X X X X{.{.{.{. X X X X X X X X X X X X X X X X X X$X$X X X$X$X$X$X7X8XuXbXbXVXHXHXSXSXAXAXAXAXSXSXSXSXSXSXSXSXSXSXSXSXDXDXDXDXDXDXSXAXDXDXDXDXSXSXSXSXAXAXAXAXAXAXAXAXAXVXAXAXAXVXVXVXVXVXVXVXVXVXVXVXVXxXR.I.I.I.U.U.U.U.F.F.V.V.F.u.u.u.u.F.+XT.4XnXBXBXBXBXbXlXlXbXlXzXBXBXbXlXzXMXMXMXMXMXMXMXNXNXMXMXMXMXbXbXbXNXbXbXMXbXbXbXbXbXbXbXbX0XpXpX0XpXpXpX7X{.U.U.U.U. X7X6X XU.2XuX0X9X0X0X0X9X9X9X9X9X9X9X9X9X9X9X9X9X9X6XOX X X$XuXpXuX XU.N.n.k.a.x.x.n.[.OX6X,X,X,X,X,X,X,X,X,X,X,X,X,X,X,X,X,X,X,X,X,X,X,X,X,X,X,X,X,X,X>X>X>X>X>X>X>X>X>X>X>X>X>XoX>X>X>XoX|.|.oXoX|.|.oXoX|.|.oX|.}.}.}.}.}.}.}.}.}.^.}.^.^.^.^.^.^.^.^.^.^.^.^.^.^.^.^.^.~.~.~.~.~.~.!.!.!.!.!.!.!.!.!.!.M.b.b.b.b.b.b.b.b.b.b.b.b.b.b.b.x.b.N.N.4.^ ! ~ W W | o.| | >.1.1.<.<.>.+.o.O.O.O.o.[ [ Q T T T Y Y C C C C Y Y Y Y T T Q o.<.4.g.x.c.n.n.m.m.m.!.!.!.!.!.!.!.!.!.!.!.b.z.9.9.2.&.&.J G Z M M N n N M M M N Z S S J ~ } >.>.>.3.4.4.p.s.s.c.c.c.m.m.!.!.!.).!.!.).).).).).).).[._._.).).).).!.!.!.!.!.m.c.c.x.s.4.4.2.,.| | ' { ) ...._ ) K ",
"W.W.W.W.W.W.W.W.W.W.W.W.W.W.Q.Q.Q.Q.Q.Q././././././././././././././././.oXoX=XqXqXwXwXwXiXiXpXpXpXpXsXNXNXNXbXbXbXbXpXpXuX6X,X,X6XwXrXrXrXrX1X1XeXeXeXeXeXeXeXeXeXeXeXeXeXeXeXeXrXrXrXrXeXeXeXeXeXeXeXeXeXeXeXeXrXrXrXrXrXrXrXrXeXeXrXrXeXeXeXeXeXrXtXtXrXrXrXrXrXrXrXrXrXrXrXtXtXtXtXtXiXiXiXiXiXiXiXiXiXiXiXiXiXiXiXiXiXiXiXiXiXpXiXiXaXaXpXsXsXsXsXsXsXsXsXsXsXsXsXsXsXNXNXNXNXNXNXNXNXNXNXNXVXHXHXHXMXbXpXuX9X6XOX X XOX X X{.{.{.{.{.{.{. X{.{. X X X X X X X X X X X X&X$X{.{. X$X$X$X3X7X8XuXbXnXAXHXHXHXAXAXAXAXSXSXSXSXSXSXSXSXSXSXSXSXSXDXDXDXDXDXDXDXDXDXDXDXSXSXSXSXAXAXAXAXAXVXAXAXAXVXAXVXVXVXVXVXVXVXVXVXVXVXVXVXVXVXlX$XY.I.U.Y.U.U.F.j.u.u.V.u.y.y.u.G.$X$XbXMXMXMXBXBXBXxXzXlXlXbXBXBXBXbXbXMXMXMXMXMXMXMXNXMXMXMXMXMXbXbXbXbXbXbXbXbXbXbXbXbXbXpXbX0X0X0X0X0X0X0X0X7X&X$X6X7X7X7X6X X X9XpX0X9X0X0X9X9X9X9X9X9X9X9X9X9X9X9X9X9X6X].U.U. X7XpXuX XU.N.g.a.a.+.<.1.a.N.[.,X6X,X,X,X,X,X,X,X,X,X,X,X,X,X,X,X,X,X,X,X,X,X,X,X,X,X,X,X,X,X:X>X>X>X>X>X>X>X>X>X>X>X>X>XoX>X>XoX|.|.oXoX|.|.oX|.|.}.|.|.}.}.}.}.}.}.}.}.^.^.^.^.^.^.^.^.^.^.^.^.^.^.^.^.^.^.^.^.~.~.~.~.~.!.!.!.!.!.!.!.!.!.!.!.M.b.b.b.b.b.b.b.b.b.b.b.b.b.b.b.z.b.m.4./ / o.| W W [ | Q ^ o.1.1.1.<.<.1.<.<.+.O.O.o.[ [ Q T T T Y C C C C Y Y Y Y Y T Q | <.1.s.s.c.c.n.m.m.m.m.!.!.!.!.!.!.!.!.!.c.z.z.9.2.>.&.! J S Z Z N N n N N M N Z S S J W ^ >.>.>.<.4.4.s.z.z.c.m.m.m.!.!.!.!.).).).).)._.[.[.[.[.[.[._.[._.).).).!.!.!.!.m.c.c.c.s.4.4.4.,.>.| ' ( D C K K h d y ",
"W.W.W.W.W.W.W.W.W.W.W.W.W.W.Q.Q.Q.Q.Q.Q.Q.Q.Q.Q./././././././././././././.oX=XqX>XwXwXwXwXyXiXpXpXpXpXsXNXNXbXbXbXbXbXbXpXuX6X,X6X6X9XrXrXrX1X1XrXeXeXeXeXeXeXeXeXeXeXeXeXeXeXeXeXeXeXeXeXeXeXeXeXeXeXeXeXeXeXeXeXeXeXeXeXeXeXeXrXeXeXeXrXrXrXrXeXeXeXeXeXeXeXeXeXeXeXrXrXrXrXrXrXrXrXrXtXtXiXiXiXiXiXiXiXiXiXiXiXiXiXiXiXiXiXiXiXiXiXiXiXaXaXaXaXsXsXsXsXsXsXsXsXsXsXsXNXNXNXNXNXNXNXNXNXCXNXNXCXHXHXCXNXpXpXpXuX6X X X X X X X{.{.[.[.{.{.{.{.{.{. X X{.{.{.{. X{.{.{. X X X X{.{. X X$X$X6X8X8XuXbXnXVXHXHXSXAXAXAXAXSXSXSXSXSXSXSXSXSXSXSXSXSXSXSXSXSXSXSXSXDXDXDXDXDXDXDXSXAXAXAXAXAXAXAXAXAXAXVXVXVXVXVXVXVXVXVXVXVXVXVXVXVXVXBXxX4XY.G.U.U.U.G.Z.u.u.u.u.u.V.G.T.8XlXbXbXxXMXBXBXBXBXxXxXMXBXMXBXMX5XlXMXMXMXMXMXMXMXMXMXNXNXNXNXNXbXbXbXbXbXbXbXbXbXbXbXpX0X0X0X7X0X0X0X0X0X0X0X0XuXpXpX0X6X2X X6X9X0X0X9X9X9X9X9X9X9X9X9X9X9X6X6X6X6X6X6X Xl.k.l.U.0XbX6X[.N.k.a.1.+.o.o.+.1.g.N. X6X,X,X,X,X,X,X,X,X,X,X,X,X,X,X,X,X,X,X,X,X,X,X,X,X,X,X,X,X>X>X>X>X>XOXoXoXoX>X>X>XoXoXoXoXoXoXoX|.|.|.oX|.oX|.|.|.|.}.}.}.}.}.}.}.}.}.}.}.}.}.^.^.^.^.^.^.^.^.^.^.^.^.^.^.^.^.~.~.~.~.~.~.~.!.!.M.M.M.M.b.b.Q.b.b.b.b.b.b.b.b.b.b.b.b.b.b.b.b.x.x.b.m.4.*.4.g.4.,.| | Q ^ | <.1.1.1.<.1.1.1.1.,.<.O.O.o.[ W T T T Y C C C C C C C D Y T W [ o.2.4.s.x.c.c.b.m.m.m.m.m.!.!.!.!.!.m.c.z.z.4.2.>.*.~ W H Z Z N N N N N N Z Z S E W ~ ^ >.>.>.<.4.s.c.c.c.m.!.!.!.!.!.!.!.!.).).[.[.[.[.[.[.[..X.X[.[._._.).).!.!.!.!.m.c.c.c.g.s.4.4.2.,.| ' W D B B f a y y 7 ",
"W.W.W.W.W.W.W.W.W.W.W.W.W.W.W.W.Q.Q.Q.Q.Q.Q.Q.Q.Q.Q./././././././././././.oX=X=XoX>XwXwXwXwXyXiXdXpXdXpXpXpXpXpXbXbXbXbXbXpXuX6X6X6X6X,XrXrX1X1XrXrXeX<XeXeXeXeXeXeXeXeXeXeXeXeXeXeXeXeXeXeXeXeXeXeXeXeXeXeXeXeXeXeXeXeXeXeXeXeXrXrXrXrXeXrXrXrXeXeXeXeXeXeXeXeXeXeXeXeXeXrXrXtXrXrXrXrXtXiXiXiXiXiXiXiXiXiXiXiXiXiXiXiXiXiXiXiXiXiXiXiXiXpXaXaXaXaXsXsXpXsXsXsXsXsXsXsXNXsXNXNXNXCXNXNXNXCXNXBXHXHXHXCXNXpXpXpXpX6XOX X X X X X{.[.U.U.U.U.U.U.U.{.{.{.{.{.{.{.{.{.U.U.[.{. X X{.{.$X&X$X$X3XuX8X8XbXbXBXFXHXFXAXSXAXAXSXSXSXSXSXSXSXSXSXSXSXSXSXSXSXSXSXSXSXSXDXDXDXDXDXDXDXDXAXAXAXAXAXAXAXAXAXVXVXVXVXVXVXVXVXVXVXVXVXVXBXBXVXVXVXVXBXlX3XY.I.I.I.F.F.Z.A.F.I.R.4XlXnXBXBXxXxXBXBXBXBXBXBXBXBXMXBXBXxX4XlXMXMXMXMXMXMXMXMXMXNXNXNXNXMXbXzXbXbXbXbXbXbXbXbXbXpXpX0X7X6X0X0X0X0X6X4X0XpXpXpXpXpX0X7X6X6X9X0X9X9X9X9X9X9X9X6X6X9X9X6X6X6X6X6X9X6XU.k.k.k.Y.bXuX XK.c.a.+.o.o.X.o.O.1.d.l.[.OXOX,X,X,X,X,X,X,X,X,X,X,X,X,X,X,X,X>X>X>X>X,X:X,X,X>X>X>X>X>X>XOXOXOXoXoXoXoXoXoXoX|.|.|.|.oX|.|.|.|.|.|.|.|.|.|.|.}.}.}.}.|.}.}.}.}.}.}.}.^.^.^.^.^.^.^.^.^.^.^.^.^.^.^.^.^.~.~.~.~.~.~.~.!.M.M.M.M.M.M.M.Q.b.b.b.b.b.b.b.b.b.b.b.b.b.b.b.x.x.x.x.n.<.>.s.c.c.c.g.<.^ ^ o.1.4.4.4.4.4.4.4.1.1.,.,.O.O.[ Q T T T Y C C C C C C C D D T T [ o.2.3.4.s.z.z.c.c.c.c.c.m.m.m.m.m.c.c.z.z.z.2.2.>.^ W J S Z N N N N N N Z S S J W ^ ^ >.>.>.<.4.z.z.c.m.m.!.!.!.!.).).).).)._.[.[.[.[.[..X.X.X.X.X[.[._.).).!.!.!.!.m.c.c.c.g.4.4.4.2.,.} } W S A N f y y 9 9 9 ",
"W.W.W.W.t.t.9.z.z.z.z.z.z.W.W.W.W.W.W.Q.Q.Q.Q.Q.Q.Q.Q.Q.Q././././././././..XoX=XoX=XqXwXwXwXyXyXiXpXpXpXpXpXpXpXpXbXbXbXbXpXpX0X6X6X6X,XrXrX1X1XeXeXeXeXeXeXeXeXeXeXeXeXeXeXeXeXeXeXeXeXeXeXeXeXeXeXeXeXeXeXeXeXeXeXeXeXeXeXeXeXeXeXrXrXrXrXrXrXeXeXeXeXeXeXeXeXeXeXeXeXeXrXtXtXrXrXrXrXtXtXiXiXiXiXiXiXiXiXiXiXiXiXiXiXiXiXiXiXiXiXiXiXiXiXpXaXpXpXaXpXsXsXsXsXsXsXsXsXNXNXCXCXCXAXFXVXCXMXMXBXHXHXHXCXpXpXpXyXpX6X&X&X&X X X X{.U.U.U.U.U.U.U.U.Y.{.Y.Y.Y.Y.{.{.{.{.Y.U.U.{.{.{.{.&X8X&X$X&X8X6X6XuXbXbXVXHXHXAXSXSXSXSXSXSXSXSXSXSXSXSXSXSXSXSXSXSXSXSXSXSXSXDXDXDXDXDXDXSXSXAXAXAXAXAXAXAXAXAXVXVXVXVXBXVXVXBXBXVXBXVXBXBXBXVXVXVXVXBXVXBX8XR.$X4X%X$X$X%X8XlXlXnXBXBXBXBXBXBXBXBXBXBXBXBXBXxXzXMXBXxX5XzXMXMXMXMXMXMXMXMXMXbXbXNXNXMXzX7X0XzXbXbXbXbXbXbXbXbXzX0X7X7X0XpX0X0X6X4X0XpXpX0X0X0X0X0X0X0X0X9X9X9X9X7X7X9X9X6X6X9X9X6X6X6X6X9X9X:XU.k.k.l. XbX7XY.l.d.+.o.[ [ [ X.O.+.1.g.U.OXOX,X,X,X,X,X,X,X,X,X,X,X,X,X,X,X,X,X,X>X>X>X>X>X>X>X>X>X>X>X>X>X>X>X>XoXoX>X>X>X>XoXoX|.|.oX|.|.|.|.|.|.|.|.|.|.|.}.}.|.|.}.}.}.}.}.}.}.}.^.^.^.^.^.^.^.^.^.^.^.^.^.~.~.~.~.~.~.!.!.!.~.~.!.!.M.M.M.b.b.b.M.b.b.b.b.b.b.b.b.b.b.b.b.b.b.x.x.x.x.x.a./ / >.>.g.N.c.4.>.o.<.4.s.s.s.s.s.5.5.1.1.,.,.O.O.[ Q T T T Y C C C C C C C D D T W [ | >.<.3.4.s.s.z.z.z.z.z.z.z.z.x.z.z.z.z.z.9.<.>.>.^ E S S Z N n n n N Z Z S J W | | >.>.>.2.4.4.c.m.!.!.!.!.).)._._.[.[..X[.[..X.X.X.X.X.X.X.X.X.X[.[._.).!.!.!.m.m.m.c.c.s.4.4.4.2.,.:.| W D D N p y q r 7 7 7 ",
"W.W.W.t.;.;.9.9.9.9.9.9.9.9.z.z.z.z.W.W.W.W.Q.Q.Q.Q.Q.Q.Q.Q.Q./././././././..XoXoXoX=X=XwXwXwXyXyXpXpXpXpXpXpXpXbXbXNXCXCXCXbXbXuX6X6X,X1X1X1X1XeXeXeXeXeX<XeXeXeXeXeXeXeXeXeXeXeXeXeXeXeXeXeXeXeXeXeXeXeXeXeXeXeXeXeXeXeXeXeXeXeXeXrXrXrXrXeXrXeXeXeXeXeXeXeXeXeXeXeXeXeXeXrXrXrXrXrXrXtXtXiXiXiXiXiXiXiXiXiXiXiXiXiXiXiXiXiXiXiXiXiXiXiXiXpXpXpXpXpXpXsXsXsXsXsXsXsXsXNXCXNXbXbXbXBXAXSXVXMXBXHXHXHXNXpXpXpXpXyX6X6X&X&X X X{.U.U.K.K.K.K.K.U.U.U.U.U.U.U.U.Y.{.{.{.{.U.U.Y.{.{.{.$X8X8X X X6X6X6X0XbXbXBXFXHXAXAXSXSXSXSXSXSXSXSXSXSXSXSXSXSXSXSXSXSXSXSXSXSXSXAXDXDXDXDXDXSXAXAXAXAXAXAXAXAXAXVXVXVXVXVXVXVXVXVXBXVXVXVXVXBXVXVXVXVXBXBXlX4X3X5XBXBXBXxXlXbXbXxXxXBXBXBXBXBXBXBXBXBXMXMXMXMXMXMXMXMXMXxXMXMXMXMXMXMXMXMXMXMXbXbXNXNXMXzX0X0XbXbXbXbXbXbXbXbXbXzX0X0X0X0X0X0X0X0X0X0XpX0X0X0X0XpX0X0X0X9X9X9X9X9X7X7X7X6X6X6X6X6X6X6X6X6X6X9X6XU.l.k.U.7X8X{.U.h.+.+.X.X.[ ) X.X.O.o.d.N.OX,X,X,X,X,X,X,X,X,X,X,X,X>X,X,X,X,X,X,X,X,X>X>X>X>XoX>X>XoX>X>X>X>X>XoXoXoX>X>X>X>X|.|.|.|.oX|.|.|.|.|.|.|.|.|.|.}.}.}.|.|.}.}.}.}.}.}.}.}.^.^.^.^.^.^.^.^.^.^.^.^.^.~.~.~.~.~.~.!.!.!.~.~.!.!.M.M.M.b.b.b.M.b.b.b.b.b.b.b.b.b.b.b.b.b.x.z.x.x.x.x.p./ / / >.s.N.c.<.<.1.s.g.g.g.s.s.s.g.g.5.4.1.,.,.O.| [ Q T T Y C C C C C C C D D T W [ | >.2.3.4.4.4.s.z.z.z.z.s.s.z.z.z.4.4.4.9.9.2.>.^ ~ J S Z Z N n n n n Z S J W ~ | >.>.>.<.4.4.z.c.!.!.!.!.!._.[.[.[..X.X.X.X.X.X.X.X.X.X.X.X.X.X.X[.[._.).!.!.!.m.m.c.c.s.4.4.4.2.,.:.} ' W D N N p q 0 7 7 7 7 ",
"t.t.t.;.;.;.;.;.;.;.;.9.9.9.9.9.z.z.z.z.z.W.W.Q.Q.Q.Q.Q.Q.Q.Q.Q.!././././././..XoXoXoX=X=XwXwXyXyXyXpXpXpXpXpXpXbXNXCXCXCXCXCXCXbXpX6X6X,X1X1X1X<X<X<X<X1X1XeX<X<X<XeXeXeXeXeXeXeXeXeXeXeXeXeXeXeXeXeXeXeXeXeXeXeXeXeXeXeXeXeXeXrXrXrXrXrXeXeXrX1X1X1X1XeXeXeXeXeXeXeXeXeXeXeXeXrXrXrXrXrXtXtXrXrXrXiXiXtXtXtXtXiXiXiXiXiXiXiXiXiXiXiXiXiXpXpXpXpXpXpXpXpXpXaXsXsXsXsXNXNXpX9X6X6X6X7XzXCXHXBXVXHXHXCXNXpXpXpXpXyX6XOX X X X X XU.K.F.F.F.F.K.K.U.U.K.K.K.U.U.Y.{.{. X{.Y.U.U.Y.{.{. X&X6X X{.$X6X&X8XbXbXnXAXHXHXSXSXAXAXSXSXSXSXSXSXSXSXSXSXSXSXSXSXSXSXSXSXSXAXAXDXDXDXDXAXAXAXAXAXAXAXAXAXAXAXVXAXAXVXVXVXVXVXVXVXVXVXVXVXVXVXVXVXVXVXBXlX4X4X5XBXBXBXxXxXBXBXxXlXBXBXBXBXBXBXBXMXxXBXMXzXxXMXMXMXMXMXMXMXMXMXMXMXMXMXMXMXMXbXbXMXMXbXbXzXzXbXbXbXbXbXzXzXzXbXzX0X0X0X0X0X0X0X0XpXpXpXpX0X0X0X0X0X0X0X9X9X9X7X9X9X9X9X9X6X6X6X6X6X6X6X6X6X6X6X:X XU. XuX$XK.K.d.X.X.X.X.X.) X.X.X.X.+.l. XOX,X,X,X,X,X,X,X,X,X,X,X,X,X>X>X>X>X:X>X>X>X>X:X>X>X>X>X>X>X>X>X>X>X>XoX>XoXoXoX|.|.|.|.|.|.|.|.|.|.|.|.|.|.|.|.}.|.}.}.|.}.}.}.}./.^.^.^.^.^.^.^.^.^.^.^.^.~.~.~.^.~.~.~.^.~.~.~.!.!.!.!.!.!.M.b.M.M.M.M.b.b.b.b.b.b.b.b.b.b.b.b.b.x.x.x.x.z.z.x.p.=.3.s.s.c.c.p.3.a.s.g.g.g.s.s.g.g.g.4.4.4.1.,.,.O.| [ T T T Y D C C C C C A A D T E W ^ | >.>.2.2.4.4.4.4.4.4.4.4.4.4.4.4.4.2.9.2.2.:.^ W D S Z N N N n n N Z S J ~ | >.>.<.4.4.s.z.c.!.!.!.!.!.).[..X.X.X.X.X.X.X.X.X.X.X.X.X.X.X.X.X.X[.).).!.!.!.m.c.c.c.s.s.4.4.2.2.:.| } J S B n y q 0 7 7 7 7 7 ",
"t.t.;.9.;.;.;.;.;.;.;.;.;.;.;.9.9.9.9.9.9.z.z.W.z.z.z.Q.Q.Q.Q.Q.Q.!.^.^./././././..X.XoXOX=XwXwXyXyXyXpXpXpXpXbXbXnXVXCXCXCXCXCXCXbXuX6X6X1X1X1X1X<X<X<X<X<XeXeX<X<X<X<XeXeXeXeXeXeXeXeXeXeXeXeXeXeXeXeXeXeXeXeXeXeXeXeXeXeXeXeXeXrXrXrXrXrXeXeX1X1X1X1XeXeXeXeXeXeXeXeXeXeXeXeXrXrXrXrXrXrXrXrXrXrXrX9XtXtXtXtXiXiXiXiXiXiXiXiXiXiXiXiXiXiXpXpXiXpXpXpXpXpXaXsXsXsXsXNXNX9X6X:X X X X6XlXBXCXVXHXHXCXNXbXpXpXyXyX6X X X X X X{.U.F.D.F.F.F.F.F.F.K.F.F.D.F.K.U.U.Y.{.{.Y.Y.U.U.Y.{.{. X$X{.{. X6X&X8XbXnXnXVXHXSXAXSXAXAXSXSXSXSXSXSXSXSXSXSXSXSXSXSXSXSXSXSXSXSXAXSXDXSXDXSXAXAXAXAXAXAXAXAXAXAXVXAXVXVXVXVXVXVXVXVXVXVXVXBXMXVXVXVXVXVXBXxX5XlXxXBXBXxXlXMXVXBXBXxXnXBXBXBXBXBXBXxXMXBXBXxXMXBXBXBXBXMXMXMXMXMXMXMXMXbXbXMXMXbXbXMXMXbXbXbXbXbXbXbXbXbXzX0X0XbXbX0X0X0X0X0X0X0X0X0X0XpXpX0X0X0X0X0X0XuX0X9X9X7X9X9X9X9X6X6X6X6X6X6X6X6X6X6X6X6X6X6X6X6XuX{.K.K.f.[ ) X.{ ) { X.X.) X.+.D.{.OX,X,X,X,X,X,X,X,X:X:X:X>X>X>X>X>X>X>X>X>X>X>X>XOXoXOX>X>X>X>XoXoXoXoXoXoXoX|.|.|.|.|.|.|.|.|.|.|.|.|.|.|.|.|.}.}.}.|.}.|.}.}.}.}./.^.^.^.^.^.^.^.^.^.^.^.^.^.~.~.^.~.~.~.^.~.~.~.!.!.!.!.!.!.M.b.M.M.M.b.b.b.b.b.b.b.b.b.b.n.n.n.b.x.x.x.z.z.x.z.z.z.z.x.n.c.s.p.p.p.s.g.g.g.g.x.x.g.g.4.5.4.1.,.,.O.| [ T T T Y Y C C C C C A A D D T E W ^ | >.>.>.2.<.2.4.4.4.2.2.2.2.4.2.2.2.2.2.:.&.~ J D Z Z N N N n n N Z H J ~ | >.2.4.4.s.z.c.!.!.!.!.)._.[..X.X.X.X.X.X.X.X.X.X.X.X.X.X.X.X.X.X.X[.).!.!.!.!.m.c.c.s.s.4.4.2.,.:.| W J S B n p y 0 7 7 7 ; 7 7 ",
"9.;.;.9.;.;.;.;.;.=.;.;.;.;.;.;.;.;.;.-.-.9.z.z.z.z.z.z.Q.Q.Q.Q.Q.Q.!.!.!.^./././././..XoXOX=XwXwXyXyXyXyXpXpXbXnXnXBXVXVXVXVXVXVXMXbX0X6X,X1X1X<X<XeXeXeXeXeXeX<X<X<X<XeXeXeX<X<X<X<X<XeXeXeX<X<X<X<X<XeXeXeXeXeXeXeXeXeXeXeXeXeXeXrXrXrXrXrXrXrXrX1XrXrXrXrXrXrXrX1X1XrXrXrXrX1X1X1XrXrXrXrXrXrXrX9X9XiXiXtXiXiXiXiXiXiXiXiXiXiXiXiXiXiXiXiXpXiXpXpXpXpXpXaXsXpXpXsXNXNX6X X X|.|. X X2X8XBXAXHXHXCXbXbXNXpXyXuX6X X{.Y.{.{.Y.K.F.D.A.F.A.F.D.F.F.F.A.A.D.D.F.K.K.U.Y.Y.Y.Y.U.Y. X{.Y.Y.Y.{.$X8X3X8XbXBXBXVXAXAXVXVXVXVXVXSXSXSXSXSXSXSXSXSXSXSXSXSXSXSXSXSXSXAXAXSXSXSXAXSXAXAXAXAXAXAXAXAXAXAXAXAXVXAXVXVXVXVXVXVXVXVXVXBXMXBXVXVXVXVXVXBXMXBXVXVXBXxXlXxXBXBXBXBXBXMXMXMXMXBXBXMXBXBXBXBXBXBXMXMXBXMXMXMXMXMXMXMXMXbXbXMXMXbXbXbXMXbXbXbXbXbXbXbXbXbXzX0X0XpX0X0X0X0X0X0X0X0X0X0X0XpXpXpX0X0X7X0XpXuXuX0X9X9X9X9X9X9X9X6X6X6X6X6X6X6X6X6X6X6X6X6X6X6X6X$XL.D.f.` ) X.{ ) { { ) ) [ X.l.[.OX,X,X,X,X:X:X:X:X:X>X:X:X>X>X>X>XOXOXOXOX>X>X>XOXoXoXoXoXoXoXoXoX|.|.|.|.|.|.|.|.|.|.|.|.|.|.|.|.|.|.|.|.|.}.}.}.}.}.}.}.}.}.}.}.}.^.^.^.^.^.^.^.^.^.^.^.^.~.~.~.^.~.~.~.~.~.B.B.M.M.M.M.!.!.M.b.M.M.b.b.b.b.b.b.b.b.b.b.b.x.b.b.x.x.x.x.z.x.x.z.z.x.z.z.z.z.s.p.p.s.s.g.x.x.x.x.x.x.g.4.5.5.1.,.,.O.| [ Q T T Y Y C C C C C A A D D D T E W ^ ^ >.>.>.>.2.2.2.2.2.2.2.2.2.2.>.>.>.*.&.~ W J S Z N N N N N N N Z H W ~ >.>.<.4.4.z.c.m.!.!.!._.[.[..X.X.X.X.X.XoXoXoXoXoX.X.X.X.X.X.X.X.X[.).).!.!.!.m.c.c.s.s.4.4.2.>.:.| W E S B N p p q 7 7 7 ; ; 7 ; ",
";.;.9.;.;.;.=.=.;.;.;.=.=.=.=.=.=.=.=.=.=.=.-.9.i.i.z.z.z.z.Q.Q.Q.Q.Q.Q.!.!.^.^./././..X.XoXOXOX,X,XyXyXyXpXpXbXMXBXBXVXVXBXBXBXnXnXbXpX6X6XwXwXwXeXeXeXeXeXeXeX<X<X<X<XeXeXeX<X<X<X<X<XeXeX<X<X<X<X<X<XeXeXeXeXeXeXeXeXeXeXeXeXeXeXeXeXrXrXrXeXrXrX1X1XrXrXrXrXrXrXrX1X1X1XrXrXrX1X1XrXrXrXrXrXtXrX9X9XiXiXiXiXiXiXiXiXiXiXiXiXiXiXiXiXiXiXiXpXiXpXpXpXpXpXaXaXpXpXsXNXsX6X X].].].]. X X2XbXCXHXHXCXbXbXNXpXyX6X&X{.U.U.U.U.U.F.F.A.A.A.D.D.D.D.D.F.A.A.A.D.F.D.F.F.G.U.Y.Y.U.U.{.{.U.K.U.{.&X8X8X8XbXnXBXBXVXVXVXVXVXVXVXSXSXSXSXSXSXSXSXSXSXSXSXSXSXSXSXSXSXAXAXSXSXSXSXSXSXAXAXAXAXAXSXAXAXAXAXAXAXAXAXVXVXVXVXVXVXVXVXBXBXBXBXVXVXVXVXBXBXBXVXBXBXxXxXBXBXBXBXBXBXBXBXBXBXBXBXBXBXBXMXBXBXMXxXxXMXMXMXMXMXMXMXMXMXbXbXMXMXbXbXbXbXbXbXbXbXbXbXbXbXbX0X0X0X0X0X7X7X0X0X0X0X0X0X0X0X0X0X0X0X7X7X0X9X6X6X9X9X9X9X9X9X9X9X6X6X6X6X6X6X6X6X6X6X6X6X6X6X6X6X&XL.f.u.#.#.#.` X.` #.X.) ) +.j.U.OX,X,X,X,XOXOXOXOX>X>X>XOX>X>X>X>XOXOX|.|.|.oXOXOXoXoXoXoX|.|.|.|.|.|.|.|.|.|.|.|.|.|.|.|.|.|.|.|.|.|.|.|.|.}.|.}.}.}.}.}.}.}.}.}.}.^.^.^.^.^.^.^.^.^.^.^.^.~.~.^.~.~.~.~.~.~.B.B.M.M.M.M.!.!.M.M.M.b.b.b.b.b.b.b.b.b.b.b.x.x.b.b.x.x.x.x.x.x.x.z.z.z.z.z.p.p.p.p.p.s.s.x.x.x.x.x.x.g.g.4.5.5.1.,.,.O.| [ W T T Y Y Y C C C C A V S D D D E E W ^ ^ ^ >.>.>.>.>.>.>.>.:.>.>.:.:.*.*.^ ! ~ W S Z N N n N N N N N Z J W ^ >.2.2.4.z.z.m.!.!.!._._..X.X.X.X.X.X.XoXOX.X.X.X.X.X.X.X.X.X.X.X.X[.).!.!.!.m.m.c.c.s.4.4.2.>.:.| ^ E D N n p r 0 7 ; ; ; 7 ; ; ; ",
"9.;.;.;.;.;.=.;.=.=.&.&.&.&.&.&.&.&.=.=.=.=.=.=.3.3.9.p.z.z.z.z.z.b.Q.Q.!.!.!.!.^.^.^./..X.XoXOXOX,X6XyXyXyXpXbXNXVXVXVXAXAXAXAXVXnXvXuX6X6X6X,XwXwXeXeXeXeX<XeX<X<X<X<XeXeX<X<X<X<XeXeXeXeX<X<XeXeXeXeXeXeXeXeXeXeXeXeX<XeXeXeXeXeXeXeXrXeXeXeXeXeXrXeXeXeXeXeXeXeXeXeXeXeXrXeXrXrXrXrXrXrXrXrXiXiXrXrXiXiXiXiXiXiXiXiXiXiXiXiXiXiXiXiXiXiXiXiXiXpXiXiXpXpXpXpXpXpXsXsXpX XU.U.U.U.U.U.Y.$X8XBXHXHXCXbXbXNXpX6X&X XY.U.K.K.F.F.F.D.D.D.A.D.D.A.D.D.D.D.Z.A.A.D.F.F.F.F.F.K.Y.K.F.K.U.K.F.K.Y.$X8X8X8XlXbXnXxXxXVXVXVXVXAXVXAXAXAXAXAXAXSXSXAXSXSXSXSXSXSXSXSXSXSXSXSXSXSXSXSXSXSXSXSXSXSXSXAXAXAXAXAXAXAXAXAXVXVXVXVXVXVXVXVXVXVXVXVXVXVXVXVXBXBXBXVXVXBXBXBXBXBXBXBXBXBXBXBXBXBXMXxXMXBXBXBXMXMXxXxXMXbXbXbXbXMXMXbXbXbXbXMXMXbXbXbXbXzX0XzXbXbXbXbXbXbXzXzX0X0X2XT.$X0XpXpXpX0X0X0X0X0X0X7X9X6X6XpX6X X X6X6X6X6X9X9X6X6X6X6X6X9X9X6X6X6X6X6X6X6X6X6X6X6X$XD.d.u.u.f.u.u.#.X.#.#.{ [ +.h.[.:X,X,X,X,XOXOX>X>X>X>X>X>XOXOXoXOXOXOXOXOX>X>X>X>XOXOXoXoXoXoXoX|.|.|.|.|.|.|.|.|.|.|.|.|.|.|.|.}.}.}.}.}.|.|.|.|.|.}.}.}.}.}.}.}.}.^.}.^.^.^.^.^.^.^.^.^.^.^.^.^.~.~.!.~.~.~.!.!.!.M.M.M.!.M.M.M.M.M.b.b.b.b.b.b.b.b.b.b.x.x.b.b.x.x.z.z.x.x.x.x.z.z.z.z.z.z.z.p.p.p.s.x.x.x.x.x.x.s.4.4.4.1.1.,.<.o.| [ W T T T Y Y Y D D C V V D D D D S Y E W W ~ ^ | | | | | | | | | ^ ^ ^ ^ ^ ~ W W J S Z N N N n N n N N S J W ^ >.2.4.s.z.b.m.!.!._..X.X.X.X.X.X.X.X.XOXOXOXoXoXoX.X.X.X.X.X.X.X[._.).).!.!.m.c.c.s.4.4.2.>.:.| ~ E D Z N p r r 7 7 7 ; ; ; ; ; ; ",
";.;.;.;.;.;.;.=.=.=.&.&.&.&.&.! ! ! ! &.&.&.=.*.=.=.3.3.3.p.p.z.z.z.z.b.m.!.!.!.!.!.^.^.[..X.XoXOXOX,X6X6XyXyXpXbXVXVXAXFXFXFXFXZXVXnXbX0X6X6X,X<X<X<X<X<X<X<X<X<X<X<X<X<X<X<X<XeX<X<XeXeXeX<X<XeXeXeXeXeXeXeXeXeXeXeXeXeXeXeXeXeXeXeXeXrXrXeXeXeXeXrXrXeXeXeXeXeXeXrXeXrXeXeXeXrXrXrXrXrXrXrXrXrXiXrXrXiXiXiXiXiXiXiXiXiXiXiXiXiXiXiXiXiXiXiXiXiXiXiXiXpXpXpXpXpXsXpXsXpX XU.U.U.[.U.U.U. X3XbXFXHXCXNXbXNXpX6X X{.L.U.U.K.F.D.D.D.D.D.A.V.V.A.F.D.D.D.A.A.F.G.G.F.F.F.F.F.L.G.F.D.G.K.F.F.Y.$X4X8X4X4XlXbXlXxXVXVXVXVXVXAXAXAXAXAXAXAXSXSXAXAXSXSXSXSXSXSXSXSXSXSXSXSXSXSXSXSXSXSXSXSXSXSXAXAXAXAXAXAXAXAXVXVXVXVXVXVXVXVXVXVXVXVXVXVXVXVXVXBXBXBXVXVXBXBXBXBXBXBXBXBXBXBXBXBXBXMXMXBXBXBXMXzXbXbXbXxXbXbXbXbXMXMXbXbXbXbXMXMXbXbXbXbXbX0XzXbXbXbXbXbXbXzXzXzX8XT.Y.$X0XpXpX0X0X0X0X0X0X0X7X9X6X6X6X XK.U. X2X6X6X9X9X6X6X6X6X9X9X6X6X6X6X6X6X,X,X,X,X6X&X{.A.d.u.u.j.A.A.d.#.Z.#.) X.y.l.|.,X,X,X,X,XOXOXOXOX>X>X>X>XOXOXOXoX>XOXOXOXOXOXOXOXOXoXoXoXoXoX|.|.|.|.|.|.|.|.|.|.|.|.|.|.|.|.|.}.}.}.}.}.|.|.|.|.}.}.}.}.}.}.}.^.^.^.^.^.^.^.^.^.^.^.^.^.^.^.^.^.~.!.!.~.~.~.!.!.!.M.M.M.!.M.M.M.M.b.b.b.b.b.b.b.b.b.b.x.x.x.x.x.x.x.z.z.x.x.x.x.z.z.z.z.z.z.z.p.s.p.s.s.x.x.x.x.s.s.4.4.1.1.1.1.<.O.| [ Q E T T T Y Y Y D C V V V V V S D S T T J W W W W W W W ~ W W W W W W W W W J J S Z N N N N n n N N N S J W ^ >.2.4.z.c.m.!.!.!.[..X.X.X.XoX.X.X.XOXOXOXOXOX.XoX.X.X.X.X.X.X[.).).).!.N.c.c.c.s.4.4.2.,.:.| ~ W D Z N p r r 9 7 ; ; ; ; ; ; ; ; ",
";.;.;.;.;.;.;.=.=.=.&.&.&.&.&.! ! ! ! ! ! ^ ^ ^ *.*.=.3.3.3.p.p.p.z.z.z.x.b.m.!.!.!.!.!.^.[..X.XOXOXOXOX6X6XyXuXbXnXVXVXVXZXZXZXZXVXnXbXuX6X,X,X<X<X<X<X<X<X<X<X<X<X<X<X<X<X<X<X<X<X<X<X<X<X<X<XeXeXeXeXeXeXeXeXeXeXeXeX<X<X<X<XeXeXeXeXeXeXeXeXeXeXeXrXeXeXeXeXeXeXeXeXeXeXeXeX1X1XrXrXrXrXrXrXrXiXrXrXrXiXiXiXiXiXiXiXiXiXiXiXiXiXiXiXiXiXiXiXiXiXiXiXpXpXpXpXpXpXpXpXpX6X XU.U.U.U.U.U.T.2XzXCXHXCXNXpXNXdX6X{.L.K.Y.Y.U.F.A.j.D.j.Z.V.V.V.V.A.A.A.F.A.Z.F.Y.Y.G.G.F.D.F.G.G.D.A.F.G.G.G.Y.+X$X%X$X4X8XzXlXlXBXVXVXVXVXVXAXAXAXAXAXAXSXSXAXAXSXSXSXSXSXSXSXSXSXSXSXSXSXSXSXSXSXSXSXSXSXSXSXAXAXAXAXAXVXVXVXVXVXVXVXVXVXVXVXVXVXVXVXVXVXVXVXVXBXBXBXVXBXBXBXBXBXBXBXBXBXBXBXBXBXBXBXBXBXBXMXzXxXBXxXxXxXBXbXbXMXMXMXMXbXbXbXMXbXbXbXbXbXzXbXbXbXbXbXbXzXzXlXzX0X3X$X7X0X0X0X0X0X0X0X0X0X0X0X9X6X6X2XU.l.U. X2X6X6X9X6X6X6X6X6X9X6X6X6X6X6X6X6X,X,X,X,X6X XU.j.d.u.u.K.K.D.h.f.G.f.) X.y.U.OX>X,X,X,X,XOXOXOXOXOX>X>X>XOXOX>X>X>X>XOXOX|.|.oXoXOXoXoXoXoX|.|.|.|.|.|.|.|.|.|.|.|.|.|.|.|.|.|.}.}.}.}.}.|.}.}.}.}.}.}.}.^.}.^.^.^.^.^.^.^.^.^.^.^.^.^.^.^.^.^.^.!.!.~.~.~.!.!.M.M.M.M.M.M.M.M.b.b.b.b.b.b.b.b.b.b.b.b.b.x.x.x.b.x.x.z.x.x.x.x.x.z.z.z.z.z.z.z.p.s.p.s.s.s.s.s.s.s.s.4.3.1.1.1.1.<.O.| [ Q W E T T T T Y D A A V V V V V S S S S S D D J J J J J E J J J J J J J J S S S S N N N N N N N N N N S J ~ ^ >.2.4.z.c.!.!.!._..X.X.X.X.XoX.X.X=X=XOXOX.X.XoXoX.X.X.X.X.X_.).!.).!.m.c.c.c.c.4.4.2.,.:.| ~ W D Z N p y r 9 ; ; ; ; ; ; ; ; ; ; ",
";.;.;.;.;.;.=.=.=.&.&.&.&.&.! ! ! ! ! ! ! ! ^ ^ ^ ^ *.*.>.3.3.3.p.p.p.s.z.c.c.b.m.m.M.!.!.).[.[.|.|.OXOXOXOX6XuXuXbXbXnXBXnXnXnXZXnXnXbX0X7X2X,X,X<X<X<X<X<X<X<X<X<X<X<X<X<X<X<X<X<X<X<X<X<X<X<XeXeXeXeXeXeXeXeXeXeXeXeX<X<X<X<XeX<XeXeXeXeXeXeXeXeXeXeXrXeXeXeXeXeXeXeXeXeXeXeX1X1X1XrXrXrXrXrXrXrXrXrXrXiXiXiXiXiXiXiXiXiXiXiXiXiXiXiXiXiXiXiXiXiXiXiXpXpXpXpXpXsXsXpXpX9X X].U.U.U.U.Y. X2XbXCXHXCXCXpXpXdXuX{.K.K.{.{.U.D.A.j.j.Z.Z.V.u.u.V.V.V.F.G.F.A.F.Y.Y.L.L.G.D.A.F.F.A.Z.A.G.L.Y.Y.Y.R.$X4X8X8XlXzXlXBXVXVXVXVXAXAXAXAXAXAXAXSXSXAXAXSXSXSXSXSXSXSXSXSXSXAXAXSXSXSXSXSXSXSXSXSXSXSXAXAXAXAXAXVXVXVXVXVXVXVXVXVXVXVXVXVXVXVXVXVXBXVXVXBXBXBXVXBXBXBXBXBXBXBXBXBXBXBXBXBXBXBXBXBXBXBXxXxXMXMXMXxXBXMXbXMXMXMXMXbXbXbXMXbXbXbXbXbXbXbXbXbXzXbX0X3X$X7X0XzX0X0XpXpX0X0X0X0X0X0X0X0X0X0X7X9X9X6X XU.T.2X6X6X6X6X6X6X6X6X6X6X6X6X6X6X6X6X6X,X,X,X,X6XOXY.D.h.y.u.K.K.K.D.A.K.G.#.X.l. X:X>X,X,X,X,XOXOXOXOXOX>X>X>X>XOX>X>X>X>XOXOX|.|.|.oX|.oXoXoX|.|.|.|.|.|.|.|.|.|.|.|.|.|.|.|.|.|.|.}.}.}.}.}.}.}.}.}.}.}.^.^.}.^.^.^.^.^.^.^.^.^.^.^.^.^.^.^.^.^.^.^.!.!.!.~.~.!.!.M.M.M.M.M.M.M.b.b.b.b.b.b.b.b.b.b.b.b.b.b.x.x.x.b.x.z.z.x.x.x.x.x.z.z.z.z.z.z.z.p.s.p.p.p.s.s.s.s.s.4.4.3.<.<.1.1.<.O.| [ Q Q W W T T T Y D D A V V V V N N N N N N S S S S S S S S S S S S S S S S S S Z N N N N N N N N N N S S J ~ ^ >.4.4.c.c.!.!.)..X.X.X.X.X.X.X.X.X=X=XOXOX.X.X.X.X.X.X.X.X[.).).).).!.m.c.c.c.8.4.2.,.:.} ~ E D S N p p r 7 7 ; ; ; ; ; ; ; ; ; ; ",
";.;.=.=.=.;.=.=.=.&.&.&.&.! ! ! ! ! ! ! ! ! ! ! ^ ^ ^ *.>.<.<.3.3.p.s.s.s.s.x.c.n.m.m.N.N.N.).[.[.|.|.OXOXOX,X6X8XuXbXbXBXnXnXnXnXnXxXlXlX7X3X&X,X,X,X,X<X<X<X<X<X<X<X<X<X<X<X<X<X<X<X<X<X<X<X<XeXeXeXeXeXeXeXeX<X<X<X<X<X<X<X<X<X<XeXeXeXeXeXeXeXeXeXeXeXeXeXeXeXeXeX1XeXrXrXrX1X1X1X1XrXrXrX1X1X1X1X1XrXrXrXrXrX9X9XiXiXiXiXiXiXiXiXiXiXiXiXiXiXpXpXpXpXpXpXpXpXpXsXpXpXpX6X XY.U.U.U.Y. X7XbXCXCXHXCXpXuXuX6X{.K.K.U.U.K.D.A.Z.Z.Z.V.u.u.u.u.V.V.F.I.G.F.F.Y.Y.G.F.F.F.A.F.F.Z.V.Z.F.G.Y.Y.G.Y.R.8XlX8XlXbXlXnXVXVXVXVXAXAXAXAXAXAXAXAXAXAXAXVXAXAXAXSXSXSXAXSXAXAXVXAXAXAXAXAXAXAXAXAXAXAXAXAXAXAXAXAXAXVXVXAXAXVXVXVXVXBXBXVXVXVXVXBXVXVXBXVXVXVXVXBXBXBXBXBXBXBXBXBXBXBXBXBXBXMXMXMXBXMXMXMXMXMXxXxXxXxXxXbXbXbXbXzXzXzXbXbXbXbXMXbXbXbXzXzXzXzX4XI.F.T.0XbXpX0XpX0X0X0X0X0X0X0X0X0X0X0X9X7X7X9X6X6X6X6X6X6X6X6X6X6X6X6X6X6X6X6X6X6X6X6X6X,X,X:X:X,X:X X{.K.h.d.l.K.Y.D.d.u.u.+.h.].OXOX>X>X>X>XOXOXOX|.|.OXOX>X>XOXOXOXOXoXoXoXoXoXoXoXoX|.|.|.|.|.|.|.|.|.|.|.|.|.|.|.|.}.}.}.}.|.|.|.|.|.|.}.}.}.}.}.}.}.}.}.}.^.^.^.^.^.^.^.^.^.^.^.^.^.^.^.^.^.~.~.~.~.~.~.~.~.!.!.M.!.!.M.b.M.b.b.b.b.b.b.b.b.b.b.b.b.b.b.b.x.x.x.b.x.z.z.z.x.x.x.x.z.z.z.p.p.p.p.p.s.p.p.p.p.p.p.p.p.4.4.4.<.<.<.1.,.+.o.| [ [ Q W T T Y Y Y D A V N N N N N N B N N N N N N N N N N N N N S S S S V N N N N N N N N p f N N N D D W ~ | >.4.s.c.m.!.)._..X.X.X.X.X.XoXOXOXOXOXoX.X.X.X.X.X.X.X[.[._.).!.!.!.m.c.c.c.s.4.2.,.:.| } W D Z N p q q 0 7 ; ; ; ; ; ; ; ; ; ; ; ",
";.=.=.=.;.=.=.=.&.&.&.&.! ! ! ! E E E E E ! ! ! W ! ^ ^ / >.>.<.<.3.p.s.s.s.x.x.x.n.n.m.N.N.N.U.[.[.|. X|. XOX2X6X8XbXnXVXVXZXZXZXVXnXbXlX8X4X2X2X,X,X,X,X,X,X<X<X<X<X<X<X<X<X<X<X<X<X<X<X<X<X<X<XeXeXeXeXeXeX<X<X<X<X<XeX<X<X<X<X<X<XeXeXeXeXeXeXeXeXeXeXeXeXeXeXeX<X<XeXrXrXrX1X1X1X1XrXrXrXrX1X1X1X1XrXrXrXrX1X1X9XiXiXiXiXiXiXiXiXiXiXiXiXiXiXpXpXpXiXpXpXpXpXpXpXpXpXpXpX9X2X XT.T. X7XpXNXCXCXCXCXbX0X6X6X{.D.K.U.Y.K.F.j.Z.Z.Z.u.u.u.u.u.V.V.F.G.F.A.A.G.F.A.Z.F.Z.Z.Z.F.F.V.V.F.F.G.Y.I.Y.R.8XlX8XzXxX4XxXVXVXVXVXAXAXAXVXAXAXAXAXAXVXVXVXAXAXAXSXSXAXAXSXSXAXAXAXAXAXAXAXAXAXAXAXAXAXAXAXAXAXAXAXAXVXAXAXAXVXVXVXVXVXBXVXVXBXMXBXVXVXBXVXVXVXVXBXBXBXBXBXBXBXBXBXBXBXBXBXBXMXMXMXxXxXBXMXMXbXxXxXxXxXxXbXbXbXbXzXzXzXbXzXbXbXbXbXbXbXbXzXzXzX4XI.F.T.0XpX0X0X0X0X0X0X0X0X0X0X0X0X0X0X9X7X7X9X9X9X9X6X6X6X6X6X6X6X6X6X6X6X6X6X6X6X6X6X,X,X,X:X6X,X,X6X X{.U.D.D.K.D.d.+.+.d.l.].OX:XOXOX>XOXOXoXOXoXoX|.OXOXoXoXOXoXoXOX|.|.|.|.|.|.oXoX|.|.|.|.|.|.|.|.|.|.|.|.|.|.|.|.}.}.}.}.|.|.|.|.}.}.].].}.}.}.}.}.}.}.^.^.^.^.^.^.^.^.^.^.^.^.^.^.^.^.^.~.~.~.~.~.~.~.~.~.!.!.!.!.!.b.b.M.b.b.b.b.b.b.b.b.b.b.n.b.b.b.b.x.x.x.b.x.z.z.z.x.x.z.p.z.z.p.p.p.p.p.p.s.p.p.p.p.p.a.p.4.4.3.3.3.<.<.<.,.<.O.| | [ Q Q ' T Y Y Y D A B B N B N N f f f n n N n n N n N N N N N N N N N B N B N N N N n n N f N N N D D W ~ >.2.4.c.c.!.!.)._..X.X.X.X.X.XoX.X.XoXoX.X.X.X.X.X.X.X[._.).!.!.!.!.m.c.c.c.s.4.3.,.:.} } J S Z N p q 0 0 7 ; ; ; ; ; ; ; ; ; ; ; ; ",
"=.=.=.=.=.=.=.&.&.&.&.! ! ! ! ! E E E E E E E E ! W ^ ^ ^ / o.>.<.<.4.s.s.s.s.g.x.x.n.n.n.N.N.N.U.[.[.|.|. X XOX&X6XuXbXBXVXZXZXZXZXZXBXnXvXlX8X7X6X6X6X6X,X,X,X,X<X<X<X<X<X<X<X<X<X<X<X<X<X<X<X<X<X<X<X<X<X<X<X<X<X<X<XeXeX<X<X<X<X<X<XeXeXeX<XeXeXeXeX<X<XeX<XeXeXeXeXeXeXrXrX1X1X1X1XrXrXrXrX1X1X1X1XrXrXrXrX1X1X1X1XiXiXiXiXiXiXiXiXiXiXiX9X9XiXiXiXiXpXpXpXpXpXpXpXpXpXpXpXpX0X9X9XpXpXbXNXNXCXCXCXbXuX6X&XU.D.K.{.{.Y.G.Z.Z.Z.Z.V.u.u.u.u.V.A.A.F.F.V.V.V.Z.V.V.V.V.V.V.V.Z.V.Z.F.F.G.I.I.Y.$X8XbXlXzXlX4XlXVXVXVXVXAXAXAXVXAXAXAXAXAXAXAXSXAXAXAXSXSXSXSXSXSXSXSXAXAXSXSXAXAXAXAXAXAXAXAXAXAXAXAXAXAXAXAXAXAXVXVXVXVXVXVXVXVXBXxXBXBXVXBXVXBXVXVXBXBXBXBXBXBXBXBXBXBXBXBXBXBXMXMXBXxXMXBXMXbXbXxXzXxXxXxXbXbXbXxXzXzXbXbXzXbXbX0X4X0XbXbXbXzXzX7XT.T.4XzX0X0X0X0X0X0XpX0X0X0X0X0X0X0X7X0X7X7X7X9X9X9X6X6X6X6X6X6X6X6X6X6X6X6X6X6X6X6X:X,X,X:X6X6X,X,X X{.OXOX XU.K.N.N.K.U.{. XOXOX:X:XOX|.|.OXOXOXOXoX|.|.|.|.|.oXoXoX|.|.|.|.|.|.|.|.|.|.|.|.|.|.|.|.|.|.|.|.|.|.|.|.|.}.}.}.}.|.|.|.}.}.}.}.}.].].}.}.}.}.}.^.^.^.^.^.^.^.^.^.^.^.^.^.^.^.^.^.~.~.~.!.~.!.!.!.!.!.M.M.!.M.b.b.b.b.b.b.b.m.b.b.b.b.b.b.b.b.x.x.x.x.x.b.x.z.z.z.x.z.p.p.z.p.p.p.p.p.p.p.s.s.p.p.4.4.4.4.4.4.<.<.4.4.1.1.,.<.+.o.o.| [ [ [ W T Y D C A B N N N N p p p e p e e e e e e e e e e e f N N N N N N N N n n n n N N N N Z D W } :.>.4.s.c.c.!.!.)._..X.X.X.X.X.X.XoXoX.X.X.X.X.X.X[.[.).).!.!.!.!.m.c.c.c.s.4.4.3.,.:.| } J S Z N e q 0 7 ; ; ; ; ; ; ; ; ; ; ; ; ; ; ",
"=.=.=.=.=.&.&.&.&.&.! ! ^ ! ! ! E E E E E E E E E E W Q ^ ^ o.o.>.<.<.4.s.s.s.s.g.x.x.n.n.n.N.N.N.U.[.[.[.[. X XOX6X8XlXnXnXVXZXZXZXZXZXZXZXVXBXVXbXbX0X7X6X6X6X,X,X,X,X,X<X<X<X<X<X<X<X<X<X<X<X<X<X<X<X<X<X<X<X<X<X<X<XeXeX<X<X<X<X<X<XeXeX<X<XeXeXeXeX<XeX<X<XeXeXeXeXeXeXrXrX1X1X1X1XrXrXrXrX1X1X1X1X1X1X1X1X1X1X1X1XiXiXiXiXiXiXiXiXiXiXiX9X9X9XiXpXiXiXiXpXpXpXpXpXpXpXpXpXpXsXpXpXpXbXbXNXNXNXCXCXbXuX6X XK.D.U.{.$X$XY.F.Z.V.V.u.V.Z.V.V.V.V.V.F.F.u.u.u.u.V.V.V.V.V.V.V.V.V.F.G.G.G.G.G.I.%X8XbXbXbXlX$XlXVXVXVXVXVXVXVXVXVXAXAXAXAXAXAXSXAXAXAXSXSXSXSXSXSXAXAXAXSXSXSXAXAXAXAXAXAXAXAXAXAXAXAXAXVXAXAXAXAXVXVXVXVXVXBXVXBXBXxXxXBXVXVXBXBXBXVXBXBXBXBXBXBXBXBXBXMXxXMXBXMXMXMXMXBXMXBXMXBXBXlX5X5XlXzX5XzXbXzXzXzXbXbXzXMXzX3XT.3X0XbXzXzX0X0X0X0X0XzX0X0X0X0X0XpX0X0X0X0X0X0X0X7X7X7X7X7X7X7X9X7X9X6X6X6X6X6X6X6X6X6X6X6X6X6X6X:X:X:X:X:X6X2X,X,XOX XOXOXOX XOXOXOXOX X XOXOXOX>XOX|.U.|.OXOXOXOXOXoX|.|.|.|.|.|.|.|.|.|.|.|.|.|.|.|.|.|.|.|.|.|.|.|.|.|.|.|.|.|.|.|.}.}.}.}.|.|.|.}.}.}.].].].].].].}.}.}.}.^.^.^.^.^.^.^.^.^.^.^.^.^.^.^.^.~.~.~.!.~.!.!.!.!.!.M.M.!.M.b.b.b.b.b.b.m.m.b.b.b.b.b.n.x.x.x.x.x.x.x.b.x.x.x.z.z.p.p.p.p.p.p.p.p.p.p.p.p.p.p.p.4.4.4.4.<.<.<.<.4.4.5.5.1.,.<.O.o.| | | [ ' T T D D A N N N N N e e y y q q q q q e e e e e e e p p f f f f N N N n n n N N N N N S D W | :.2.4.s.c.m.!.!.).[..X.X.X.X.X.X.X.X.X.X.X.X[.[.[.[._.).!.!.!.!.m.c.c.c.s.4.4.2.,.:.| } W D Z n e q 0 ; ; ; ; ; ; ; ; ; ; ; ; ; ; 9 9 ",
"&.&.&.&.&.&.&.&.&.&.^ ^ ^ ! ! ! ! E E E E E E E E E ! ~ ^ ^ o.o.o.>.1.1.1.s.s.s.s.g.x.c.n.l.l.N.N.K.U.[.[.[. X X X&X7X8XvXnXZXZXFXGXGXGXGXGXGXGXGXGXFXFXVXkXlX8X7X6X6X6X,X,X,X<X<X<X<X<X<X<X<X<X<X<X<X<X<X<X<X<X<X<X<X<X<X<X<X<X<X<X<X<X<X<X<X<X<X<X<X<X<X<X<X<X<X<X<X<X<X<XeXeX1X1X1X1X1X1X1X1X1X1X1X1X1X1X1X1X1X1X1X1X1X1X1XrXiXiXiXiXiXiXiX9XiXiXiXiXiXiXpXpXpXpXpXpXpXpXpXpXpXpXpXpXpXpXpXbXbXNXCXNX0X6X6X&XU.K.K.Y.{.$X{.G.u.u.u.Z.F.F.F.F.V.u.u.V.V.u.u.V.V.V.V.F.F.V.V.V.V.F.F.I.R.R.I.G.L.$X$X8XbXnXlX$XlXVXVXVXVXVXVXVXVXVXVXVXAXVXVXVXVXAXAXAXVXAXAXAXAXAXAXAXAXAXAXAXAXAXAXAXAXAXAXVXZXZXAXZXAXAXAXVXVXVXVXVXVXVXVXVXVXVXVXnXlXBXVXBXBXBXVXVXBXBXBXBXBXBXBXBXBXlXR.lXMXMXMXBXBXBXMXMXBXbXbXzX5X5XlXzX8XlXzXzXbXbXbXbXbXzX4XT.T.3X0XzXzXzXzX0X0X0XzXzX0X0X0X0X0X0X0X0X0X0X0X7X0X7X7X7X7X7X9X7X7X7X7X9X9X6X6X6X6X6X6X6X6X6X6X:X:X:X:X:X6X6X2X6X,X,XOXOX:X:X:X:XOXOXOXOXOXOXOXOX|.OXOX|.].|.OXOXOX|.|.|.|.|.|.|.|.|.|.|.|.|.|.|.|.|.|.|.|.|.|.|.|.|.|.|.|.|.|.|.|.|.|.|.}.}.}.}.}.}.}.}.}.}.}.}.].].].}.}.}.].].].].].].^.^.^.^.^.^.^.^.^.^.^.~.~.~.~.!.~.B.M.M.!.M.M.M.M.M.m.b.M.m.b.b.b.b.b.b.b.b.b.b.x.x.b.b.x.x.x.x.x.z.z.z.z.z.p.p.z.p.p.p.p.p.p.p.3.3.3.3.3.3.3.<.3.3.3.4.4.4.5.5.1.1.<.+.O.| | | [ Q W W D D S N N N f e e q q q 0 0 0 0 0 q q q q q q e e e y p p f f f f N f f p p N N N S J ~ :.>.4.4.c.c.m.!.!.!.[..X.X.X.X.X.X.X.X.X.X[.[.[.^.!.!.!.!.!.!.!.c.c.c.c.4.4.4.2.>.:.| } W S Z n p r 0 7 ; ; ; ; ; ; ; ; ; ; 7 7 7 7 7 7 ",
"&.&.&.&.&.&.&.&.&.! ! ! ! ! ! ! E E E E E E E E E E E ! ~ ^ / o.o.o.1.1.1.1.a.s.s.s.x.c.n.l.l.N.N.K.U.[.[.[.{. X X$X3X8XnXZXZXGXGXGXGXGXLXLXLXLXLXLXLXLXLXGXZXZXnXvX8X7X6X6X,X,X,X,X<X<X<X<X<X<X<X<X<X<X<X<X<X<X<X<X<X<X<X<X<X<X<X<X<X<X<X<X<X<X<X<X<X<X<X<X<X<X<X<X<X<X<X<X<X<X<X<X<X<X1X1X1X1X1X1X1X1X1X1X1X1X1X1X9X9X1X1X1X9XiXiXiXiXiXiXiXiXiXiXiXiXiXiXiXpXiXpXpXpXpXpXpXpXpXpXpXpXpXpXpXpXpXNXNXbX6X X&X&XU.K.K.Y.Y.Y.U.F.u.u.u.A.G.I.I.I.F.u.u.u.V.V.V.V.V.V.Z.G.G.V.V.V.Z.G.G.G.P.R.R.G.G.I.T.$XbXnXlX$X5XxXBXVXVXVXVXVXVXVXVXVXVXBXlXxXVXAXAXAXAXAXVXVXAXAXAXAXAXAXAXAXAXAXAXAXAXAXAXAXAXZXZXAXAXAXAXVXVXAXVXVXCXCXCXCXVXVXAXVXBXBXBXBXBXBXBXBXBXBXMXBXBXBXBXBXBXjXR.4XxXMXxXxXMXMXMXMXbXbXxXlX5XlXxXxXzXzXbXbXzXbXbXbXbXzX4X3X3X0XzXzXzXzX0X0X0X0XzXzX0X0X0X0X0X0X0X0X0X0X7X7X0X7X7X7X7X7X7X7X7X7X7X9X9X6X6X6X6X6X6X6X6X6X6X:X:X:X:X:X:X:X:X:X:X,X,X:X:X:X:X:XOXOXOXOXOXOX>XOXOXOXOXOXOXOXOXOX|.|.OX|.|.|.|.|.|.|.|.|.|.|.|.|.|.|.|.|.|.|.|.|.|.|.|.|.}.}.|.|.}.}.}.}.}.}.}.}.}.}.}.}.}.}.}.}.].}.}.].}.].].^.].].].].^.^.^.^.^.^.^.~.^.^.~.~.!.~.~.!.B.B.M.M.!.M.M.M.M.M.m.b.M.m.b.b.b.b.b.b.b.b.b.b.x.x.b.x.x.x.x.x.x.z.z.p.z.z.p.p.z.p.p.p.p.p.p.p.3.3.3.3.3.<.<.<.3.3.3.4.4.4.5.5.1.1.1.<.O.O.| | | [ W W D D S N N f f e q q q 0 0 7 7 7 0 0 0 0 q 0 0 q w e p y y p f f f f f f p f N N N S E ~ >.>.4.4.c.c.!.!.!.!._..X.X.X.X.X.X.X[.[.[.^.^.!.!.!.!.!.!.m.c.c.c.c.4.4.4.2.,.:.:.| ~ J D N n p r r ; ; ; = = = ; ; ; 7 ; ; 7 7 7 7 7 7 ",
"&.&.&.! &.&.&.&.! ! ! ! ! ! ! E E E E E Y E Y E E E E E ! ~ / o.o.o.+.1.1.1.1.a.s.g.x.c.n.l.l.N.K.K.U.[.[.[. X X X$X4XlXnXZXGXGXGXLXLXLXLXLXPXPXPXPXPXPXPXPXLXLXGXGXZXnXlX7X6X6X,X,X,X,X,X<X<X<X<X<X<X<X<X<X<X<X<X<X<X<X<X<X<X<X<X<X<X<X<X<X<X<X<X<X<X<X<X<X<X<X<X<X<X<X<X<X<X<X<X<X<X<X1X1X1X1X1X1X1X1X1X1X1X1X9X1X9X1X1X1X9X9XiXiXiXiXiXiXiXiXiXiXiXiXpXiXiXpXiXiXpXpXpXpXpXpXpXpXpXpXsXsXsXpXbXNXNXbX6X X X X[.U.{.{.Y.K.A.j.u.u.u.Z.I.Y.I.I.F.V.V.Z.A.F.F.F.F.F.F.G.L.F.V.V.V.F.F.F.G.R.R.G.Z.F.I.$XlXnX5X4X5XlXnXVXVXVXVXVXVXVXVXVXVXMX5XxXVXAXAXAXAXAXAXVXAXAXAXAXAXAXAXAXAXAXAXAXAXAXAXVXVXAXAXAXAXAXAXFXAXCXMXbXbXbXbXbXbXnXCXCXVXBXBXBXBXBXBXBXBXBXBXBXBXBXBXBXBXzX5XlXxXBXxXxXxXMXMXxXxXbXMXzXzXzXxXzXzXxXzXbXzXbXzX0XbX0X8X0X0XzXzXzXzXzXzXzX0XzXzXzX0X0X0X0X0X0X0X0X0X7X7X7X0X7X7X7X7X7X7X7X9X9X7X7X9X6X6X6X6X2X6X6X:X6X6X,X:X:X:X:X2X:X:X:X,X,X:X:X:X:X:X:XOXOXOXOXOXOXOXOXOXOXOXOXOXOXOXOXOXOXOXOX|.|.|.|.|.|.|.|.|.|.|.|.|.|.|.|.|.|.|.|.|.|.|.|.|.|.|.|.}.}.}.}.}.}.}.}.}.}.}.}.}.}.}.}.}.}.}.].^.^.^.].^.^.^.^.^.^.^.^.^.^.~.~.~.~.~.~.~.~.~.!.~.M.M.M.M.M.M.M.M.M.m.b.M.m.b.b.b.b.b.b.b.b.b.b.b.b.b.x.x.x.x.x.z.z.z.p.p.p.p.p.z.p.p.p.p.p.p.3.3.3.3.3.<.<.<.<.<.3.4.4.4.4.5.g.5.1.1.,.+.O.| | | [ W W D D D S N f e e q q 0 0 7 7 7 7 7 0 7 0 0 r 0 q q q y p y y y f f f f p f f N B S D W ^ >.>.4.4.z.c.m.!.!.!.!.[.[..X.X.X.X.X.X_.!.!.!.!.!.!.!.!.c.c.c.c.c.4.4.2.2.>.:.| | ~ W S Z N p r r < > ; = = = = ; ; ; 7 7 7 7 7 7 7 7 7 ",
"&.&.! ! ^ ^ ! ! ! ! ! ! ! ! E E E E E E Y Y Y Y Y Y E E E ~ ^ o.o.o.o.1.1.1.1.1.s.g.g.g.n.l.l.l.K.K.U.[.[.{.{. X X$X4XjXnXZXGXGXLXLXLXLXLXPXPXPXIXIXIXIXIXIXPXPXPXLXLXGXFXVXlX8X6X6X,X,X,X,X<X<X<X<X<X<X<X<X<X<X<X<X<X<X<X<X<X<X<X<X<X<X<X<X<X<X<X<X<X<X<X<X<X<X<X<X<X<X<X<X<X<X1X<X<X<X1X1X1X1X1X1X1X1X1X1X1X1X1X9X1X9X9X9X9X9XiXiXiXiXiXiXiXiXiXiXiXiXpXpXpXpXiXiXpXpXpXpXpXpXpXpXpXpXsXsXsXpXbXNXNXNX7X$X X{.U.U.{.{.Y.F.u.u.u.A.f.f.G.L.G.G.F.A.F.F.F.L.G.G.G.F.F.G.G.F.V.u.V.V.V.V.F.G.Y.G.V.V.G.R.8XlX4X4XxXxXBXVXVXVXVXVXVXVXVXVXVXBX5XzXVXAXAXAXAXAXAXAXAXAXAXAXAXAXAXAXAXAXAXAXAXAXAXAXAXAXAXAXAXAXFXAXCXbX8X7X&X&X&X8X8X0XbXbXBXBXBXBXBXBXBXBXMXBXBXBXBXBXBXBXxXxXxXBXBXMXxXzXxXxXxXxXxXbXbXxXxXxXzXlXlXbXxXzXzXlXlX0XzX0X0XbXzXzXzXzXzXzXzXzX0X0XzX0X0X0X0X0X0X0X0X0X0X7X7X7X0X7X6X7X7X7X7X7X9X6X7X7X6X6X6X6X6X X:X6X:X6X6X6X:X:X:X:X:XOX XOX:X,X:X:XOXOX:XOX:XOXOXOXOXOXOXOX|. X|.|.OXOXOX|.OXOXOXOX|.|.|.|.|.|.|.|.|.|.|.|.|.|.|.|.}.}.}.}.|.|.|.|.|.|.|.|.}.}.}.}.}.].].].].}.}.}.}.}.}.}.}.}.].].].^.].^.~.~.~.~.^.~.^.^.^.~.~.~.~.~.~.~.B.M.!.M.M.M.M.M.M.M.M.b.M.m.b.b.m.b.b.b.b.b.b.b.b.b.b.b.b.b.x.x.x.x.x.x.z.z.z.p.p.p.p.p.z.p.p.p.p.p.p.3.3.3.3.3.<.<.<.<.<.3.4.4.4.4.5.4.5.4.1.,.,.,.O.| | [ W W D D S N N f e e q 0 0 7 7 7 7 7 7 7 7 7 r r 0 0 q q p p y y y y f f f p f f N B S J W ^ >.>.4.4.4.c.m.!.!.!.!.!.!.^.[..X.X[.!.!.!.!.!.!.!.!.m.m.c.c.c.4.4.4.2.>.>.:.| ~ W E S B N p q r ; > > ; = = = ; ; ; ; 7 7 7 7 7 7 7 7 7 ",
"! ! ! ! ! ! ! ! ! ! ! ! E E E Y Y Y Y Y Y Y Y Y Y Y Y E Q ~ Q o.o.o.+.+.+.1.1.a.g.g.g.c.l.l.N.K.K.U.{.{.{.{.{. X X$X4XlXnXZXGXGXKXKXLXPXPXPXPXIXIXIXIXIXIXIXIXIXPXPXPXPXLXLXGXZXnX8X3X2X,X,X,X<X<X,X<X<X<X<X,X<X<X<X<X<X<X<X<X<X<X<X<X<X<X<X<X<X<X<X<X<X<X<X<X<X<X<X<X<X<X<X<X<X<X<X<X<X<X<X<X1X1X1X1X1X1X1X1X1X1X1X1X1X9X9X9X9X9X9X9X9XiXiXiXiXiXiXiXiXiXiXiXiXpXiXpXpXpXpXpXpXpXpXpXpXpXpXpXpXbXbXNXNXpX6X$X{.K.K.K.U.K.A.u.y.u.Z.A.u.f.A.D.D.F.G.L.K.K.L.K.G.G.F.F.F.F.Z.V.#.u.V.V.S.G.Y.R.G.Z.V.G.R.4X4X$X5XxXBXVXVXVXVXVXVXVXVXVXVXVXVXBXBXVXAXAXVXVXVXVXVXAXAXAXAXAXAXAXAXAXAXAXAXAXAXAXAXAXAXAXAXVXVXVXbX0X7X&X X{.{. X X$X$X3X8XzXMXxXMXBXBXBXBXBXBXBXBXMXxXMXxXxXxXMXMXMXMXxXxXxXxXxXxXxXxXxXxXxXxXlX5XzXbXzXlX5X5XzXzXzXzXbXbXzXzXzXzXzXzXzXzXzXzXzXzX0X0X0X0X0X0X0X0X0X0X0X0X9X9X7X7X9X9X9X9X9X6X6X7X2X$X6X6X6X2X2X2X6X6X6X:X6X:X:X:X:XOX X X:XOX:X:XOXOXOXOXOXOXOXOXOXOXOXOXOXOXOXOXOX|.|.|.|.|.|.|.|.|.|.|.|.|.|.|.|.|.|.|.|.|.|.|.}.}.}.}.|.|.|.|.|.|.}.].}.}.}.}.}.}.}.].}.}.}.}.].].}.}.].].^.^.].].].^.~.~.~.~.~.^.^.^.~.~.~.~.~.~.~.~.~.~.~.B.~.!.!.!.M.M.M.m.M.M.m.b.m.b.b.b.b.b.b.b.n.x.x.x.b.b.z.x.z.z.z.z.z.z.z.p.p.p.p.p.p.p.p.p.3.3.3.3.3.3.3.3.<.<.<.<.<.3.4.4.g.g.g.g.4.5.4.,.,.,.,.| | | ' W W D S N N f y e q 0 7 7 7 7 7 7 7 7 7 ; ; ; r 0 q q y y y y y f a a a a p f N N D W ~ ~ :.>.2.4.4.z.c.c.Q.!.!.!.!.!.!.!.!.!.!.!.!.!.!.!.m.c.c.c.c.4.4.4.4.2.>.:.>.| ~ W J S N p p q 0 ; ; , - = = = ; ; ; ; ; ; ; ; 7 7 9 r r r ",
"! ! ! ! ! ! ! ! ! E E E E E E Y Y Y Y Y Y Y Y Y Y Y E E Q Q Q [ o.o.+.1.+.1.1.a.g.h.j.l.l.D.K.K.U.Y.{.{. X X X X$X$X4XlXnXZXGXGXKXKXLXPXPXPXPXIXIXIXIXIXIXIXIXIXIXIXIXIXPXPXPXLXLXFXnX8X3X6X,X,X,X,X,X,X<X<X,X<X<X<X<X<X<X<X<X<X<X<X<X<X<X<X<X<X<X<X<X<X<X<X<X<X<X<X<X<X<X<X<X<X<X<X<X<X<X<X<X1X1X1X1X1X1X1X1X1X1X1X1X1X1X9X1X9X9X9X9X9XiXiXiXiX9XiXiXiXiXiXiXpXpXpXpXpXpXpXpXpXpXpXpXpXpXpXpXpXbXbXbXNXpX6X&X{.K.K.D.D.D.f.y.#.y.u.u.u.u.u.f.A.D.G.L.K.G.Y.Y.L.G.F.Z.A.Z.V.V.V.V.V.V.G.Y.R.R.G.V.V.G.R.R.T.$XlXxXBXVXVXVXVXVXVXVXVXVXVXVXVXVXVXAXAXVXAXVXVXVXVXAXAXAXAXAXAXAXAXAXAXAXAXAXAXAXAXAXAXAXAXVXBXlX7X&X X{.{.{.{.{.Y.Y.{.$X$X4XlXxXxXBXxXMXBXBXBXBXBXxXxXxXxXxXzXxXMXMXxXxXxXxXxXxXxXxXxXbXbXxXzX5XzXbXbXlX0X0X5XbXbXbXzXzXbXzXzXzXzXzXzXzXzXzX0X0X0X0X0X0X0X0X0X0X0X0X0X0X0X9X9X7X7X9X9X9X9X6X9X6X2XY.T.$X6X6X6X X X:X6X6X:X6X:X:X:X:X:XOXOX:X:X:X:XOXOXOXOX X X|.|.OXOXOX X XOXOXOXOXOX|.|.OX|.|.|.|.|.|.|.|.|.|.|.|.|.|.|.|.|.|.|.}.}.}.}.}.}.}.}.|.}.}.}.}.}.}.}.}.}.}.}.].].].].].].].].].^.^.^.^.^.^.~.~.~.~.~.~.~.^.~.~.~.B.B.~.~.~.~.B.B.~.M.!.M.M.M.M.M.M.m.M.m.b.b.b.b.b.b.b.b.b.b.n.x.x.x.x.z.z.z.z.z.z.z.z.p.z.p.p.p.p.p.p.p.p.3.3.-.-.3.3.3.3.3.<.<.<.<.<.4.4.4.g.g.g.4.4.4.4.,.,.,.,.| | | [ W W D S N N p p y q 0 7 7 7 7 7 7 7 7 ; ; ; ; ; 7 0 q r y y y y y a a a a p p N N D J W ^ ^ >.>.2.4.4.z.z.z.c.!.!.!.!.!.!.!.!.!.!.!.m.c.c.z.z.z.z.4.4.2.2.>.:.:.| ~ W J S Z N p e q 0 ; ; , - = = = = - - ; ; ; ; ; ; 7 7 9 r r r ",
"! ! ! ! E E E E E E E E E E Y E Y Y Y Y Y Y Y Y E E E E Q Q Q [ o.O.+.1.1.1.a.d.h.j.j.l.D.K.K.Y.{.$X$X$X$X$X%X$X$X$X8XkXmXZXGXGXKXKXLXPXPXPXPXIXIXIXIXIXIXIXIXIXIXIXIXIXIXIXPXPXPXLXGXZXvX8X6X6X,X,X,X,X<X<X,X<X<X<X<X<X<X<X<X<X<X<X<X<X<X<X<X<X<X<X<X<X<X<X<X<X<X<X<X<X<X<X<X<X<X<X<X<X<X<X<X<X1X1X1X1X1X1X1X1X1X1X1X1X1X1X1X9X9X9X9X9XiXiXiXiX9X9XiXiXpXiXpXsXiX,XOXOXOX2X9XsXsXsXpXpXpXpXpXpXpXbXbXbXpX&X X{.U.D.l.h.h.f.u.y.u.u.u.f.f.#.#.f.f.D.F.K.U.Y.+X+XY.G.A.Z.Z.Z.F.F.I.S.V.S.G.P.Y.G.V.V.L.T.I.I.4XbXxXBXVXVXVXVXVXVXVXVXVXVXVXVXVXVXVXAXAXAXVXAXVXVXAXAXVXVXVXVXAXAXAXAXAXVXBXBXVXAXAXVXVXVXVXxX8X$XY.U.U.Y.Y.L.L.L.L.U.Y.T.$X4XzXbXMXxXxXBXBXBXBXBXzXzXzXzXzXlXlXxXxXxXxXxXxXxXzXlXlXxXxXxXlXzXxXxXxXbXzXzXzXzXbXzXzXzX0XbXzXzXzXzXzXzXzXzX0X0X0X0X0X0X0X0X0X0X0X0X0X0X0X0X9X9X7X7X7X7X9X9X6X6X6X XI.Y.2X6X6X6X:X2X6X6X:X:X6X:X:X:X:X:X:XOX:X:XOXOXOXOXOXOX|.|.].|.|. X|.|.|.|.OXOXOXOXOXOXOXOX|.|.|.|.|.|.|.|.|.|.|.|.|.|.|.|.|.|.}.}.}.}.].].].].}.}.}.}.].].].].}.}.}.}.^.^.^.^.^.^.^.^.^.^.~.~.^.^.~.~.~.~.~.~.^.^.~.~.~.~.~.~.~.~.~.~.!.!.~.M.M.M.M.M.M.M.m.m.M.b.b.b.b.b.b.n.b.b.b.b.n.n.x.x.x.z.z.z.z.z.z.z.z.z.z.p.p.p.z.z.p.p.3.3.3.-.-.3.3.3.3.3.<.<.<.<.<.4.4.4.g.g.4.4.4.4.4.2.,.,.,.| | | [ W W D S N N p p q q 0 7 7 ; ; 7 7 7 7 7 7 ; ; ; ; 0 r q q y y y y y y a a p p N N S J W ~ ^ *.>.>.<.3.s.s.z.z.c.c.m.!.Q.!.!.Q.c.c.c.c.z.z.z.z.4.4.4.2.2.2.>.| ~ ~ W J S Z N p w 0 0 ; ; - - - = = = = - - ; ; ; ; ; ; ; 7 r r r r ",
"E E E E E E E E E E Y Y Y Y Y Y Y Y Y Y Y Y Y Y Y Y E E Q Q [ [ o.+.+.1.1.1.d.h.j.j.K.K.K.K.Y.{.$X4X8XlXjXjX8X8X8X8XjXkXmXZXGXGXKXKXLXPXPXPXPXIXIXIXIXIXIXIXIXIXIXIXIXIXIXIXIXIXIXPXPXLXGXZXvX8X6X,X,X,X,X,X,X<X<X<X<X<X<X<X<X<X<X<X<X<X<X<X<X<X<X<X<X<X<X<X<X<X<X<X<X<X<X<X<X<X<X<X<X<X<X<X<X<X1X1X1X1X1X1X1X1X1X1X1X1X1X1X1X9XyXyX9X9XiXiXiX9X9X9XiXiX9XiXsXsX:X|.].U.U.U. X6XpXsXpXpXpXpXpXpXpXpXbXbXpX7X XU.K.D.l.h.l.j.h.f.f.j.A.D.D.f.y.u.u.j.D.G.U.Y.$X*X$XY.F.Z.V.F.G.G.R.G.V.V.S.G.S.V.V.V.G.Y.F.I.8XBXBXBXVXVXVXVXVXVXVXVXVXVXVXVXVXVXVXAXAXVXVXVXVXAXAXAXVXVXVXAXAXAXAXAXAXVXxXxXVXAXAXVXVXVXBX8X$XY.K.U.U.L.K.K.K.K.K.K.U.U.Y.$X0XbXMXMXMXBXBXBXBXBXxXxXlXzXzXlXjXlXxXxXxXxXxXxXzXlXzXxXbXxXlXzXxXxXzXzXzXzXzXzXzXzXzXzX0XzXzXzXzXzXzXzXzXzX0X0X0X0X0X0X0X0X0X0X0X0X0X0X0X0X9X9X7X7X7X7X9X9X6X6X6X XU.Y.2X6X6X6X6X6X6X6X:X:X,X:X:X:X:X:X:X:X:XOX X X X X XOX|.U.U.U.|.|.|.|.|.|.OXOXOXOXOXOXOXOX|.|.|.|.|.|.|.|.|.|.|.|.|.|.|.|.|.|.}.}.}.}.}.}.}.}.}.}.}.}.].].].].}.}.}.}.].^.^.^.^.^.^.^.^.~.~.~.^.~.^.~.~.~.~.~.^.~.~.~.~.~.~.~.~.~.~.~.!.!.~.M.!.M.M.M.M.M.m.m.M.b.b.b.b.b.b.n.b.b.b.b.n.x.x.x.z.z.z.z.z.z.z.z.z.z.z.p.p.z.z.p.p.p.3.3.3.-.-.3.3.3.3.3.3.<.<.<.2.<.3.4.4.4.4.4.4.4.4.4.,.,.,.| | | [ W W D S N N p p q q 0 7 7 ; 7 7 7 7 7 7 7 ; ; ; ; 7 0 r q q y e y y y y p p p N N S D J W ~ ^ >.>.2.2.3.4.9.z.z.c.c.c.c.c.c.c.z.z.z.z.z.z.4.4.4.2.2.>.:.:.| ~ ~ W S Z N N p r 0 7 ; ; ; - = = = = = - - - ; ; ; ; ; ; 7 7 r r r r ",
"E E E E E E E E E Y S S S S Y Y Y Y S S Y Y Y Y T T T T Q [ o.o.o.+.+.1.1.d.g.j.j.K.K.K.K.L.{.+X8XjXkXnXnXkXkXkXkXkXkXnXZXZXZXGXGXKXKXLXPXPXIXIXIXIXIXIXIXIXIXIXIXIXUXIXIXIXIXIXIXIXIXPXPXLXGXVXlX7X6X6X,X,X,X<X<X<X<X<X<X<X<X,X<X<X<X<X<X<X<X<X<X<X<X<X<X<X<X<X<X<X<X<X<X<X<X<X<X<X<X<X<X<X<X<X1X1X1X1X1X1X1X1X1X1X1X1X1X1X9X9X9XyXyXyXyXyX9X9X9X9X9X9X9XpXpXiX XU.B.B.U.U.U. X9XpXpXpXpXpXpXpXpXpXbXbXbXpX XU.l.l.D.j.j.D.D.D.K.K.K.L.U.L.D.u.y.u.D.U.Y.Y.$X8X%XY.F.Z.u.V.F.Z.S.F.V.V.V.V.V.V.u.u.F.F.F.T.lXBXBXBXVXVXVXVXVXVXVXVXVXVXVXVXVXVXVXVXVXVXVXVXVXVXVXVXVXVXVXVXAXAXAXAXVXVXxXxXVXAXAXAXVXVXbX4XY.F.K.K.K.F.K.K.K.K.K.K.K.K.U. X7XbXMXBXBXBXBXBXxXxXxXxXxXxXzXlX4X5XzXxXxXxXxXzXlXzXxXxXxXxXxXxXlXlX0XlXzXzXzXzXzXzXzXzXzXzXzXzXzXzX0X0X0X0X0X0X0X0X0X0X0X0X0X0X0X0X0X0X8X8X7X7X7X7X7X7X6X6X6X6X6X2X X X6X6X6X6X6X6X6X6X:X:X:X:X:X:X:X:X:X:X:X X XY.T.T. X X|.U.U.].].|.|.|.|.|.|.|.OX X X|.|.|.|. X|.|.|.|.|.|.}.|.|.}.}.}.}.}.}.].].].].}.}.}.}.}.}.}.}.}.].].].].}.}.}.}.}.}.}.^.].].].].^.^.^.^.].~.~.~.^.~.~.~.~.~.~.~.~.~.~.~.~.!.~.B.~.~.M.M.M.M.M.M.M.M.m.m.M.m.b.b.b.b.b.n.b.b.b.b.b.b.b.x.z.x.x.x.x.x.x.z.z.z.p.p.p.p.p.p.3.3.3.3.3.3.3.3.3.3.3.3.3.3.3.2.>.<.3.4.4.4.4.4.4.4.4.4.,.,.,.| | | W W W D Z N n p e q r r 7 7 7 ; ; ; * * = = = = ; ; 7 7 9 q q q e y y y e e p p N N S S J W ~ ~ ^ >.>.2.2.4.4.4.4.z.z.z.z.c.c.z.z.z.9.4.4.3.2.2.2.2.>.>.:.| ~ W J D S N f e q r 7 ; ; ; ; - - - - ; - - ; ; > > 7 9 r r r r r r r r ",
"E E E E E E E E E Y S S D D D D Y Y Y Y Y Y Y Y T T T T [ [ | o.O.+.1.1.d.g.g.l.K.H.K.K.L.Y.{.*XjXnXnXnXnXnXnXnXnXcXnXmXZXZXGXGXGXGXKXKXPXPXIXIXIXIXIXIXIXIXIXIXIXIXIXIXUXUXUXIXIXIXIXIXPXPXPXLXFXnX8X2X:X,X,X,X<X<X<X<X<X<X,X,X<X<X<X<X<X<X<X<X<X<X<X<X<X<X<X<X<X<X<X<X<X<X<X<X<X<X<X<X<X<X<X<X1X1X1X1X1X1X1X1X1X1X1X1X1X9X9X9X1XyXyXyX9X9X9X9X9X9X9X9XiXpXiX9X|.U.B.B.B.N.B.U.2XpXpXpXpXpXpXpXpXpXbXbXbXbX7XY.j.h.D.D.h.l.K.K.K.K.K.[. X X{.K.j.f.D.Y.{.Y.{.$X+XG.Z.#.#.#.u.V.Z.G.G.S.V.V.V.u.#.u.f.j.F.3XbXBXBXBXVXVXVXVXVXVXVXVXVXVXVXVXVXVXVXVXVXVXVXVXVXVXVXVXVXVXVXVXVXVXVXVXVXVXVXVXVXVXAXVXVXBXlX$X$XY.K.K.D.D.D.D.D.D.D.D.D.F.I.T.2XzXMXMXBXBXBXMXzXzXxXxXxXxXzXlX5XlXxXxXxXxXxXzXzXxXxXxXxXxXxXxXlX8XlXzXzXlXzXzXzXlXzXzXzXzXzXzXzXzX0X0X0X0X0X0X0X0X0X0X0X0X0X0X0X0X0X0X7X8X7X7X7X7X7X7X6X6X6X6X6X6X6X6X6X6X6X6X6X6X6X6X:X:X:X:X:X:X:X:X:X:X X XY.Y.Y.Y. X X|.|.|.|.|.|.|.|.|.|.|.|.OX X X|.|. XoX|.U.l.].|.|.|.|.|.|.}.}.}.}.}.}.}.].].].].}.}.}.}.].].].].^.^.^.^.].].].].].].].].].].].].^.^.~.~.~.~.~.~.~.~.~.~.~.~.~.~.~.~.~.~.!.!.!.M.B.B.M.M.M.M.M.M.M.M.m.m.m.b.b.b.b.b.n.n.b.b.b.n.b.x.x.x.z.x.x.x.x.x.z.p.p.p.p.p.p.p.p.3.3.3.3.3.3.3.3.3.3.3.3.3.3.3.3.2.2.<.4.4.4.4.4.4.4.4.4.4.,.,.,.| | | W W W S Z N n p e q q r 0 7 7 ; ; ; * * = = = = = = 7 7 9 0 q q e e e e e e p p N N Z S S J W ~ ~ ^ :.2.2.2.2.4.4.4.9.9.9.9.9.4.9.9.4.2.2.2.2.>.:.:.:.^ ~ ~ J D D N N e q 0 7 ; ; ; ; ; ; - ; ; ; ; - ; ; ; > < 9 9 r r r r r r r r ",
"E E E E E E E E E Y Y Y D D D D Y Y Y Y Y Y Y Y T T T Q [ [ | o.O.+.1.5.d.g.j.j.K.K.K.K.L.{.+X8XvXnXmXmXmXZXnXnXmXmXZXZXZXGXGXGXGXGXGXKXKXPXPXPXIXIXIXIXIXIXIXIXIXIXIXIXUXUXUXUXIXIXIXIXIXIXPXPXLXGXVXlX6X6X:X,X,X<X<X>X>X>X<X>X<X<X<X<X<X<X<X<X<X<X<X<X<X<X<X<X<X<X<X<X<X<X<X<X<X<X<X<X<X<X<X<X<X<X<X,X<X<X1X1X,X,X1X1X1X1X1X1X,X1XyXyX9X9X9X9X9X9X9X9X9XiXpX6X|.B.B.N.N.N.N.U. X0XpXpXpXpXpXpXpXpXpXbXpXpX0X XD.u.f.j.d.j.K.L.L.K.K.[.OX6X6X$X{.Y.G.G.K.L.Y.Y.G.A.u.#.` ` #.u.F.+XjXR.S.V.V.u.#.u.u.j.Y.8XMXBXBXBXVXVXVXVXVXVXVXVXVXVXVXVXVXVXVXVXVXVXVXVXVXVXVXVXVXVXVXVXVXVXVXVXVXVXVXVXVXVXVXVXVXBX8X$X&X{.K.D.l.j.f.f.f.f.j.A.D.F.U.Y.$X0XbXzXxXBXBXBXMXMXxXzXzXxXzXlXlXzXxXxXxXxXxXxXxXxXxXxXxXxXxXzXlX0XlXzX5X0XlXzXlXlXzXzXzXzXzXzXzXzX0X0X0X0X0X0X0X0X0X0X0X0X0X0X0X0X0X7X7X7X7X7X7X7X7X7X6X6X6X6X6X6X6X6X6X6X6X6X6X6X6X2X:X:X:X:X:X:X:X:XOX X XY.Y.Y.U.Y.T. X|. XOX XOXOX XOX|.|.|.|.|. X X X|. X X[.k.a.B.}.|.|.|.|.|.}.}.}.}.}.}.}.].].].].}.}.}.}.}.}.].}.^.^.^.^.].].].].].].].].^.^.].].^.^.~.~.~.~.~.~.~.~.~.~.~.~.~.~.~.~.B.B.!.M.!.!.M.M.M.M.M.M.M.M.M.M.m.m.m.m.b.b.b.b.b.b.b.b.b.x.b.x.x.z.x.x.x.x.x.z.p.p.p.p.p.p.p.3.3.3.3.3.3.3.3.3.3.3.3.3.3.3.3.3.3.2.3.<.<.<.4.4.4.4.4.4.4.1.2.2.,.| | | W W W S Z N N p e q q 0 0 7 ; ; ; ; = * = = = = = = = 7 7 0 0 q q e e e e e e e e N N N S S J ~ ~ ~ &.&.2.2.2.2.2.4.4.9.9.9.2.2.2.2.2.2.>.:.:.:.:.| ~ W J J S A N N p q 0 7 ; ; = = ; ; - - - ; ; ; ; ; ; ; ; 9 9 r r r r r r r r r ",
"! E E E E E E E Y Y Y Y D D D D Y T S D T T T T Y T T Q [ [ | o.O.+.1.5.g.g.j.D.H.K.K.K.L.{.$X8XnXnXmXmXmXmXmXmXmXmXZXZXGXGXGXGXGXGXGXKXKXKXPXPXPXPXIXIXIXIXIXIXIXIXIXIXIXIXUXUXIXIXIXIXIXIXIXIXPXLXGXZXbX7X2X:X,X,X,X,X>X,X>X,X>X>X<X<X<X<X<X<X<X<X<X<X<X<X<X<X<X<X<X<X<X<X<X<X<X<X<X<X<X<X<X<X<X<X<X<X1X1X1X1X,X,X1X1X1X1X1X1X,X1X9XyX9XyX9X9X9X9X9X9X9X9X9X6X].B.B.B.B.N.N.B. X9XpXpXpXpXpXpXpXpXpXpXpX0X8X2XY.A.u.d.d.h.K.{.{.[.U.[.OX6X6X7X7X3X$XU.D.D.K.F.f.u.#.#.#.#.#.u.Z.%XvXgXG.#.#.#.#.u.u.F.$XbXMXBXBXBXVXVXVXVXVXVXVXVXVXVXVXVXVXVXVXVXVXVXVXVXVXVXVXVXVXVXVXVXVXVXVXVXVXBXxXBXVXMXnXVXVXBX8X4X$XY.D.l.j.A.f.f.u.u.Z.Z.Z.Z.F.I.T.8XlX4XzXBXBXBXMXMXMXxXzXxXxXxXxXxXxXxXxXxXxXbXxXxXxXxXxXxXzXzXzXlX5XlX5X0XlXzXzXzXzX0X4X4X0XlXlXzX0X0X0X0X0X0X0X0X0X0X0X0X0X0X0X0X0X7X7X7X7X7X7X7X7X4X2X2X6X6X6X6X6X6X6X6X2X2X6X6X6X6X:X:X6X:X:X:X:XOX X XU.U.Y.U.U.U.U.U.|.|.|.OXOX X XOX X|.|.|.|.|.|.|. X|.|.U.k.a.B.}.|.|.}.|.}.}.}.}.}.}.}.}.].].].].}.}.}.}.}.].].].^.^.^.^.].].].].].].].].^.^.].].].^.~.~.~.~.~.~.~.~.~.~.~.~.~.B.~.B.B.M.M.M.M.M.M.M.M.M.M.M.M.M.M.M.m.m.m.m.b.b.b.b.b.b.n.n.b.x.x.x.z.z.x.x.x.x.x.p.p.p.p.p.p.p.p.3.3.3.3.3.3.3.3.3.3.3.3.3.3.3.3.3.3.2.>.>.>.<.<.3.3.3.<.<.1.2.2.,.,.| | | W W J S Z N N p e w q q 0 7 ; ; ; ; = * = = = = = = = 7 7 0 0 q q y y y y q q w e e n N N S J W ~ ~ ^ &.:.>.2.2.2.2.2.2.2.2.2.:.:.:.:.>.:.:.:.} ~ ~ ~ J J S A N p p q 0 7 ; ; ; = = ; ; - - - ; ; ; ; ; ; ; < < 0 0 r r 0 0 i i i i ",
"~ W W ! E E H H E Y Y Y D D D D D D D D D D D T Y Y T Q [ [ [ X.O.+.+.5.d.g.j.D.H.K.K.K.L.{.$XjXnXmXmXmXZXZXZXZXmXmXZXGXGXGXGXGXGXGXGXKXKXKXLXPXPXPXPXPXPXPXPXIXIXIXIXIXIXIXIXIXIXIXIXIXIXIXIXIXIXPXPXLXGXnX7X2X:X:X,X,X,X>X>X>X>X>X<X<X<X<X>X>X<X<X<X<X>X>X>X>X<X<X<X<X<X<X<X<X<X<X<X<X<X<X<X<X<X<X<X<X,X<X<X<X,X,X,X,X1X1X,X9X1X1X9XyX9X9X9X9X9X9X9X9X9XiXyX9X XU.B.B.U.B.N.U. X9XpXpXpXpXpXpXpXpXpXpX0X8X7X4X$XY.D.d.h.l.K.K.).K.[. XOX6X&X&X8X8X&X{.K.D.K.K.A.f.u.u.Z.A.Z.u.u.G.*X+XZ.#.#.#.u.u.F.T.0XMXBXBXBXBXBXBXVXVXVXVXVXVXBXVXVXVXVXVXVXVXVXVXVXVXVXVXVXVXVXVXVXVXVXVXVXVXBXlXjXxXBXlXlXnXVXBXlX8X$XU.F.j.Z.A.Z.Z.f.u.A.Z.u.u.D.F.T.8XlXlXxXBXBXMXMXMXMXxXxXxXxXxXxXxXxXxXxXxXxXxXxXzXzXzXzXzXzXzXzXlXlXlXlXlXlXlXlXlXzX4XI.I.$XlX0X0X0XzXzX0X0X0X0X0X0X0X0X0X0X0X0X0X7X7X7X7X7X7X7X7X7X6X2X7X7X4X2X2X6X6X6X2X X X2X2X6X6X6X:X6X:X:X:X X X XU.U.U.U.U.U.U.U.U.U.[. X|. X|.|. X X|.].].|.|.|.|. X X|.U.l.N.].|.|.}.}.}.].].}.}.}.}.].].}.}.}.}.].].].].].].].^.^.^.^.^.^.^.].].].].^.].^.^.^.^.~.~.~.~.~.~.~.~.~.~.~.~.~.~.~.B.B.B.M.M.~.~.!.!.M.M.M.M.M.M.M.M.M.m.m.n.m.b.b.b.b.b.b.n.x.x.x.x.b.x.z.z.x.x.x.z.z.z.z.z.p.p.p.p.p.p.p.p.3.3.3.3.3.3.3.3.3.3.3.3.=.3.3.2.>.>.>.>.<.<.<.>.<.<.<.2.2.2.>.| | ^ W E J S Z N N n e w w q 0 7 7 ; ; ; = = = = = = = = = ; 7 7 0 0 q r 0 0 q q q q w e n N N Z H J W ~ ~ :.:.:.2.2.>.2.2.>.:.:.:.&.~ ~ ~ ~ ~ ~ ~ ~ ~ ~ J J H S n p p q 0 7 ; ; ; ; ; ; ; ; ; ; ; ; ; ; 3 r r 3 r r r r r i i i i i i i ",
"^ ^ ! ! ! ! E E Y Y Y Y D D D D D D D D D D T T Y Y Y T Q [ [ X.X.O.+.+.d.d.h.j.A.K.K.K.U.{.$XjXnXmXmXmXZXZXZXZXmXmXZXZXZXZXZXZXZXGXGXGXKXKXKXLXLXLXLXLXPXPXPXPXPXPXPXPXIXIXIXIXIXIXIXIXIXIXIXIXIXIXPXPXLXGXnX8X$XOXOX:X,X,X,X>X>X>X>X>X<X<X>X>X>X>X>X>X>X>X>X>X>X>X<X<X>X<X<X<X<X<X<X<X<X<X<X<X<X<X<X<X,X,X1X1X,X,X,X,X1X1X1X1X1X1X9XyX9X9X9X9X9X9X9X9X9XiXiXyX6X XU.U.B.B.B.U. X9XpXpXpXpXpXpXpXpX0X0X7X4X4X4X7X2XY.D.f.j.j.l.N.K.[.|.6X6X X{.$X$X$X$X{.Y.{.&X+XF.A.D.T.%X$XF.u.u.S.Z.u.#.#.u.f.D.Y.7XNXMXBXBXBXBXBXBXBXVXVXVXVXVXBXBXVXVXVXVXVXVXVXVXVXVXVXVXVXVXVXVXVXVXVXVXVXVXxX4XE.kXBXlXlXBXVXVXlX3XT.K.A.u.Z.A.Z.Z.Z.u.Z.u.u.u.u.D.Y.4XxXBXxXxXMXMXMXMXxXxXxXxXxXxXxXxXxXxXxXxXxXzXzXzXzXzXlXlXzXzXzXzXlXlXlXlXlXlXlXlX0X$XF.F.T.lXlX0X0XzXzX0X0X0X0X0X0X0X0X0X0X0X0X0X7X7X7X7X7X7X7X7X7X7X7X7X6X4X2X2X6X6X6X$XY. X X X6X6X:X:X:X:X:X X X XU.U.U.U.U.U.U.U.U.U.U.U.U.|. XU.U.|. X].U.U.|.|.|.|.|.|.|.].].].|.|.|.}.}.}.].].].].].].].].}.}.}.}.^.^.^.^.^.^.^.^.^.~.^.^.^.^.^.^.~.~.^.^.~.~.~.~.~.~.~.~.~.~.~.~.B.B.B.B.~.~.M.M.B.B.M.M.B.!.!.M.M.M.M.M.M.m.m.m.m.m.n.b.b.b.b.b.b.b.n.n.x.x.x.x.x.z.z.z.x.x.x.z.z.z.z.z.p.p.p.p.p.p.p.p.3.3.3.3.3.3.3.3.3.3.3.3.=.3.3.>.>.>.>.>.>.3.>.>.>.>.>.2.2.,.| | ^ W W E D S Z N N n e e e q q 0 7 7 ; ; ; = = = ; = = = = ; ; 7 7 7 r r 0 0 0 0 0 0 q w e n N N S J W W ~ ~ | :.:.:.:.:.>.>.:.~ ~ ~ ~ ~ W J J J H H H H S Z Z n p i q 0 ; ; ; ; ; ; ; ; ; ; ; ; ; ; ; ; 3 r r 3 r r r r i i w w i i i i ",
"^ ^ ! ! ! ! ! ! E Y Y Y Y D D D C C C C C C D Y Y Y Y Y Q [ [ X.X.X.O.+.5.d.h.h.A.K.K.K.U.{.%XjXnXmXZXZXZXZXZXZXZXmXZXZXZXZXZXZXZXZXZXGXKXKXKXKXKXKXKXKXLXLXLXLXLXLXPXPXPXPXPXPXIXIXIXIXIXIXIXIXIXIXIXIXPXLXGXZX8X2X X:X,X,X>X>X>X>X>X>X<X>X>X>X>X>X>X<X>X>X>X>X>X>X>X>X>X>X<X<X<X<X<X<X<X<X<X<X<X<X<X<X,X,X1X1X1X1X,X1X1X1X1X1X,X1X1X9X9X9X9X9X9X9X9X9X9X9X9XiX9X6X:X XU.U.Y. X6XpXpXpXpXpXpXpXpX0X0X7X4X4X4X4X7X8X2XT.D.h.h.l.l.K.|.OX6X6X{.K.K.L.Y.{.$X$X8XuX8X{.K.F.+XvXjXL.u.u.Z.Z.u.#.u.u.D.Y.2XbXNXMXBXBXBXBXBXBXBXBXVXVXVXBXBXBXVXVXVXVXVXVXVXVXVXVXVXVXVXVXVXVXVXVXVXVXVXVXBXlX4XxXBXlXlXnXVXBXlX$XI.F.A.u.Z.A.Z.V.V.V.A.Z.u.u.u.u.I.$XlXBXxXzXxXMXMXMXxXxXxXxXxXxXxXxXxXxXxXxXxXzXzXzXzXzX5X5XlXzXzXzXlXlXlXlXlXlXlXlX0X4XY.Y.4X5XlX0X8X7X0X0X0X0X0X0X0X0X0X7X0X0X0X0X7X7X7X7X7X7X7X7X7X7X6X6X6X6X2X2X6X6X6X XY. X X X2X2X:X:X:X:X:X X XT.Y.U.U.U.{. X X XU.U.U.U.U.U.U.l.l.U.|.].U.[.|.|.|.|.|.|.|.|.|.|.|.|.|.|.}.}.].].].].].].].].}.}.}.}.^.^.^.^.^.^.^.^.^.^.~.~.^.^.^.^.^.^.^.^.~.~.~.~.~.~.~.~.~.~.~.~.B.B.B.B.B.B.M.M.~.B.B.M.!.M.M.M.M.M.M.M.M.m.m.m.m.m.n.b.b.b.b.b.b.n.n.n.b.x.x.z.x.x.z.z.z.x.z.x.z.z.z.z.z.z.p.p.p.p.p.p.3.3.3.3.3.3.3.3.3.3.3.3.=.=.>.>.>.>.>.>.*.>.>.>.>.>.>.>.,.o.| | ^ W E J S S Z N N N n e e w w q 0 7 7 7 7 ; = = ; = = = = = = ; ; ; 7 9 7 7 7 7 7 0 q q e p N N Z S J W ~ ~ ~ ^ | :.:.| ~ ~ ~ ~ J H H H H S S Z Z Z Z Z n n p p q 0 1 ; ; ; ; ; ; ; ; ; ; ; ; ; ; ; ; ; 3 r r r r r r 0 i w e e e e e e ",
"o.| ^ ^ ! ! ! ! E E Y Y Y Y D D D D D C C C C C Y Y Y Y Y [ [ [ X.X.O.+.+.5.d.h.A.A.K.K.L.{.%XjXnXmXZXZXZXZXZXZXZXmXmXZXZXZXZXZXZXZXZXZXGXGXKXKXLXLXKXLXGXGXGXGXGXGXGXLXLXLXPXPXPXPXIXIXIXIXIXIXIXIXIXIXIXPXPXLXZXlX$X$X:X,X,X>X>X>X>X>X>X>X>X>X>X>X>X>X>X>X>X>X>X>X>X>X>X>X<X<X<X<X<X<X<X<X<X<X<X<X<X<X<X1X1X1X1X1X1X1X1X1X1X1X,X1X1X9X9X9X1X1X9X9X9X9X9X9X9X9X9X9X9X9X6X6X6X9X0XpXpXpXpXpXpXpX0X0X7X4X3X4X4X8X0X0X8X2XT.F.h.j.l.[.OX&X&XOX{.K.h.f.D.U. X3X8X8X*XY.D.A.L.8X*XF.u.A.K.F.f.u.u.f.G.$X0XMXNXNXMXBXBXBXBXBXBXBXBXBXVXVXBXBXVXVXVXVXVXVXVXVXVXVXVXVXVXVXVXVXVXBXxXVXVXVXVXBXBXVXBXlXlXlXnXBX5XT.I.D.D.A.A.A.Z.V.u.F.F.A.u.y.u.u.F.R.lXBXMXxXMXMXMXxXxXbXbXxXxXxXxXxXxXxXxXxXzXzXzXzXzXzXzXzXzXzXzXzXlXlXlXlXlXlX0XlX0X0X7X7X0XlXlX4XT.T.7X0X0X0X0X0X0X0X0X7X7X8X7X7X7X7X7X7X7X6X6X6X6X6X2X2X6X6X2X2X6X6X XT. X$X2X2X2X2X2X:X:X X X XT.Y.U.U.Y. X X X X X X{.U.U.U.U.U.N.N.U.|.|.|.|.|.|.|.|.].|.|.}.|.|.|.].].}.}.}.].].].].].].].].].].}.].].].].].].].].].].].~.~.^.^.^.^.^.^.^.^.~.~.~.~.~.~.~.~.~.~.~.~.B.B.B.~.B.M.M.M.B.B.B.M.M.M.M.M.M.M.M.M.M.m.m.m.m.m.n.b.b.b.b.m.m.n.n.n.n.x.x.n.m.m.m.m.m.b.z.x.z.z.z.z.p.p.p.p.p.p.p.p.3.3.3.3.3.3.3.3.3.3.3.3.=.=.>.>.>.>.*.*.*.*.>.>.>.>.>.>.>.| | ^ W W E S S S Z N N N n b e e w w q 0 0 7 7 7 ; = ; ; = = = = = ; ; ; ; 7 7 7 ; ; ; 7 0 q q e p N Z S D J W ~ ~ ~ } ~ ~ ~ W J J H S S Z Z Z N N n n n n n p i w 0 0 ; ; ; ; ; ; ; ; ; ; ; ; ; ; ; 1 ; ; 1 3 r r r 0 0 0 0 w w e e e e e e ",
">.>.>.>.*.^ ^ ^ ~ ~ E Y Y Y D D D D D D D D C C Y Y Y Y Y ( ( [ [ X.X.O.+.+.5.d.h.A.A.K.L.Y.$XjXnXmXZXZXZXZXZXZXZXmXmXmXmXmXmXmXmXmXmXZXGXGXGXGXGXGXGXGXGXFXFXnXnXnXZXFXFXGXGXLXLXPXPXPXPXIXIXIXIXIXIXIXIXIXIXPXLXFXlX3X2X:X,X,X>X>X>X>X>X>X>X>X>X>X>X>X>X>X>X>X>X>X>X>X>X>X<X<X<X>X>X>X<X<X<X<X<X<X<X<X<X<X<X<X,X,X,X1X1X1X9X9X1X,X,X1X9X9X9X9X9X9X9X9X9X9X9X9X9X9XiXpX9X9XpXpX9X9XpXpXpXpXpXpX0X0X6X3X4X4X7X0XpX0X0X7X3X$XU.l.h.K.{.&X{.U.U.K.D.f.d.l.Y.&X&XY.D.f.d.f.f.L.G.u.y.f.D.A.u.u.f.G.$X8XbXNXMX0X7X0XzXMXBXBXBXBXBXBXBXBXBXBXVXVXVXVXVXVXVXVXVXVXVXVXVXVXVXVXVXxXlXBXVXVXVXVXVXVXzX5XlXxXBXBX8XT.U.D.D.G.F.A.Z.u.V.V.Z.Z.y.y.u.u.F.R.lXBXBXxXxXxXxXxXxXbXbXxXxXxXxXzXzXxXzXzXzXzXzXzXzXzXzXzXzXzXzX5XlXlX5X0X0X0X0X0X0X0X0XlX0X0X0X$XI.I.3X0X0X0X0X8X0X0X7X7X8X6X7X7X7X7X7X7X7X7X7X7X7X6X6X6X6X6X2X6X6X2X XT.$X2X2X2X2X2X2X X X X XY.U.Y.U.U. X X X X X X X XU.U.U.U.U.U.U.[. X|. X X|.|.|.].].|.|.|.|.|.|.}.}.}.}.}.}.}.].].].].].].].].].].].].].].].].].].].].].].].].].].^.^.^.~.^.^.^.^.^.^.~.~.^.~.~.~.~.~.~.~.~.~.~.~.~.B.M.M.M.M.M.M.M.m.m.m.m.m.m.m.m.m.b.b.b.b.m.m.m.m.b.n.b.N.[..X.X.X.X.X.X_.!.!.b.z.z.p.p.p.p.p.p.p.p.p.3.3.3.3.3.3.3.3.2.2.2.2.=.=.>.>.>.*.*.*.*.*.*.*.>.>.>.>.*.^ ^ ~ W W W J S S Z Z N N N n b e e e q q 0 0 0 7 7 ; ; ; ; ; ; * * ; ; ; ; ; ; ; ; ; ; 7 7 0 r p p N N A S D J J W W W J J J S S S Z Z n n n n p p e p p p i i 0 0 1 7 ; ; ; ; ; ; ; ; ; ; ; ; ; ; ; 1 1 1 1 r r r r 0 q w w w w w w e e e e ",
"3.<.>.>.>.>.*./ ^ ^ ~ E E T Y Y Y Y D D D D C C Y Y Y Y Y ( ( ( [ [ { X.O.+.+.d.f.h.A.A.K.Y.+X8XkXcXmXZXZXmXZXZXZXZXmXmXnXnXkXkXkXnXmXmXZXZXFXGXGXGXFXFXFXFXnXvXuXbXvXbXnXCXFXFXGXGXLXLXPXPXPXIXIXIXIXIXIXIXIXPXPXLXFXnX8X6X:X:X>X>X>X>X>X>X>X>X>X>X>X>X>X>X>X>X>X>X>X>X>X>X>X>X>X>X>X>X>X<X<X<X>X>X<X<X>X<X<X<X,X1X1X1X9X1X9X9X1X,X,X,X9X9X9X9X9X9X9X9X9X9X9X9X9X9XyXiX9X9X9X0X9X9XpXpXpXpXpXpX0X0X7X7X7X7X0X0XpXpX0X7X7X3X$XU.j.d.j.K.D.h.h.D.K.D.h.d.D.{.{.A.+.+.+.+.+.#.X.X.+.y.u.u.f.j.G.$X8XbXMXbX8X XT.T.2XzXBXBXBXBXBXBXBXBXBXBXVXVXVXVXVXVXBXBXBXBXBXBXVXVXBXBXBXBXxXBXVXVXVXBXBXBXlX4XlXVXVXBXlX$XY.D.j.F.G.F.Z.u.u.u.u.V.y.y.y.u.F.$XzXMXxXxXxXxXxXnXbXbXbXbXxXxXxXlXxXxXxXzXzX5X8X5XlXzXzXzXzXzX0X4X5X5X4X5X5X0X0X0XlXlXzXlX0X5X0X3XY.T.4X0X0X0X0X8X7X0X7X7X8X7X7X7X7X7X7X7X6X7X7X7X6X6X6X6X6X6X2X2X6X2X X X2X6X2X2X2X$X X X X XY.U.Y.U.U.Y. X X X X X X X X XU.U.U.U.]. X|.|.|.|.|.|.|.].].].|.|.}.|.|.].}.].].].].}.}.].].].].].].].].].].].].].].].].].].].^.^.^.~.~.~.~.~.~.~.~.^.^.^.^.^.~.~.~.~.~.~.~.B.B.B.B.~.!.!.~.~.M.M.M.M.M.M.M.M.m.m.m.m.m.b.m.m.b.b.b.b.b.n.n.n.n.n.K.|.wXyX-XOX.X.X_._._._..X!.b.z.z.p.p.p.p.p.p.p.p.3.3.3.3.3.3.<.<.3.3.3.2.=.=.>.>.>.*.*.*.&.*.*.*.*.*.*.>.^ ^ ^ ~ W W E J J S S Z N N N N n b e e e w q 0 0 0 0 7 7 ; ; * ; * * * ; ; ; ; ; ; ; ; ; ; 7 0 r r p n N N A S D S S S H H S S Z Z N N n p i i w w q q 0 0 0 0 0 1 ; ; ; ; ; ; ; ; ; ; ; ; ; ; 7 7 7 ; 0 1 r r r r r r w w w w w w w w e e e e ",
"4.3.3.<.3.>.>.*.*./ ^ Q Q E T T Y Y Y Y D D C C C Y Y Y Y Y ( ( ( [ [ { X.O.+.5.5.f.f.A.F.K.Y.%XjXkXnXmXmXmXmXmXZXmXmXcXnXkXjX%XjXkXkXnXnXZXZXZXZXZXZXFXZXnXbX8X&X6X6X6XuXpXbXCXCXFXFXGXLXLXPXPXPXIXIXIXIXIXIXIXPXPXLXGXnX7X:X:X>X>X>X>X>X>X>X>X>X>X>X>X>X>X>X>X>X>X>X>X>X>X>X>X>X>X>X>X>X>X<X<X,X,X,X,X>XoX|.|.>X,X,X,X,X,X,X,X9X9X,X,X,X,X9X9X9X9X9X9X9X9X9X9X9X9XyXiX9X9X9X0X9XpXpXpXpXpX0X0X0X0X0X0X0X0XpXpXpXbXpX0X7X4X4X$XY.D.y.y.+.+.+.y.h.h.h.y.+.u.#.X.X.X.+.5.+.X.X.X.+.u.f.A.G.{.4XbXMXMXMXbX2XT.Y.Y.T.7XMXBXBXBXBXBXBXBXBXBXVXVXVXVXVXVXVXBXBXBXVXVXVXVXVXVXBXBXVXVXVXVXVXBXBXBXxXlXxXVXVXBXxX$XY.F.A.F.F.G.F.A.j.f.u.u.u.y.y.u.G.4XxXMXxXMXMXMXxXnXbXbXbXbXxXxXxXlXxXzXxXzX5X3X$X5XzXzXzXzXzXzX0X4X0X5X5X5X0X0X0X0X0X0X0X0X0X0X0X8X7X7X0X0X0X8X7X8X0X0X0X0X8X7X7X7X7X7X7X7X6X6X7X7X6X6X6X2X6X6X2X2X2X2X2X2X2X2X2X2X:XOX X X XY.Y.Y.Y.U.Y. X X X X X X X X X XU.U.U.U.]. X|.|.|.|.|.|.|.].].].].].].].].].].].].].].}.].].].].].].].~.~.B.].].].].].^.^.].].~.~.~.~.~.~.~.~.~.~.~.~.~.~.~.~.~.~.~.~.~.B.B.B.M.M.M.M.B.M.!.!.!.!.M.M.M.M.M.M.M.m.m.m.m.m.b.b.b.b.b.n.n.n.b.n.n.N.{.8XpXuXOX).m.z.9.9.9.9.z.Q.!.!.b.z.p.p.p.p.p.p.p.p.3.3.3.3.3.3.3.<.3.3.3.3.=.=.=.>.>.*.*.*.^ ^ &.*.*.*.*.*.^ ^ ! ~ W W W J J S S Z Z Z N N N n b e e i w q 0 0 0 r 7 7 ; * ; ; * ; ; ; ; ; ; ; ; ; ; ; 7 0 q r p p n N N Z A A A A S Z Z Z N n b e e 0 0 0 0 0 0 0 1 1 1 1 1 ; ; ; ; ; ; ; 1 1 ; ; ; ; ; ; 7 7 7 0 r r r r r r r r w w w w w w w w e e e e ",
"s.p.p.3.3.3.3.<.<.>.o./ ^ Q ~ E E T Y Y Y D C C C Y Y Y Y Y Y ( ( ( [ [ { X.O.+.5.5.f.f.A.F.L.+X%XjXkXkXnXmXmXmXmXmXmXnXjX*X%X+X+X%X*XjXvXnXnXnXnXnXnXnXnXbXuX&XOXOXOXOXOX6XyXuXpXbXCXCXFXGXGXLXLXPXPXPXIXIXIXIXPXPXPXLXGXnX6XOXOX>X>X>X>X>X>X>X>X>X>X>X>X>X>X>X>X>X>X>X>X>X>X>X>X>X>X>X>X>X<X<X,X,X,XOX|.].].].}.|.>X,X,X,X,X,X,X,X,X,X,X,X9X9X,X,X9X9X9X9X9X9X9X9X9X9X9X9X9X9X9X9X9XpX0X0X0X0X0X0X0X0X0XpXpXpXpXpXpX0X0X8X7X7X6X$XU.A.u.+.+.+.y.y.y.y.X.X.[ ) [ X.+.5.+.#.#.u.f.D.G.Y.$X8XbXbXMXMXMXbX3XT.Y.Y.T.3XbXBXBXBXBXBXBXBXBXBXVXVXVXVXVXVXBXBXBXBXVXVXVXVXVXVXBXBXBXBXBXBXVXVXBXBXBXBXVXVXBXBXbX8XY.F.F.F.L.+XY.G.K.A.u.u.I.V.y.u.I.lXbXMXMXxXxXxXxXxXxXbXbXnXxXxXkXlXxXxXzXzX5X3X3X0XzXzXzXzXzXzXzX0XlXlXlXlX0X0X0X0X7X7X0X0X0X0X0X0X0X0X0X0X8X3X2X8X0X0X0X7X7X3X7X8X7X7X7X7X6X6X7X6X6X6X6X2X6X6X2X2X2X2X2X2X2X2X2X2X:XOX X XY.Y.Y.Y.U.U.Y. X X X X X X X X X XU.U.U.U.U. X X|.|.|.|.|.].].].].].].].].].].].].].].].].].].].].].].].~.B.B.].].~.~.~.~.~.~.~.~.~.~.~.~.~.~.~.~.~.~.~.~.~.~.~.~.~.~.B.B.M.M.B.M.M.M.M.M.M.M.M.!.M.M.M.M.M.M.M.m.m.m.m.m.m.b.b.b.b.b.n.n.n.n.n.K.*XbXNXuXXXm.z.-.;.;.&.=.;.;.-.z.Q.!.b.z.p.p.p.p.p.p.p.3.3.3.3.3.3.3.<.3.3.3.3.=.=.=.=.>.*.*.*.^ ^ &.&.^ ^ ^ ^ ^ ^ ! ~ W W E J J J S S Z Z Z N N N n n p p e w q 0 r r 0 7 7 ; ; ; ; ; ; ; ; ; ; ; ; ; ; ; 7 0 0 r p p n n n N N N N N Z N N N b b e e w 0 0 0 0 0 0 1 1 1 1 1 ; ; ; ; ; ; ; 1 1 1 1 1 1 0 0 0 r 0 r r r r r r r r r r w 0 w 0 e e e e e e e e ",
"z.z.z.z.p.p.3.3.3.<.<.>.>.| ^ Q ~ E E T T Y Y Y Y Y Y Y Y Y Y Y Y ( ( [ [ [ X.O.+.5.7.f.f.Z.F.G.R.%X%XjXkXkXnXnXnXnXkXjX*X+XL.G.G.L.+X*X*X8XjXjXvXvXvXvXuX8X&XXX.X.X.X.XoXOXOXOX6XyXuXbXnXCXFXGXGXLXLXPXPXPXPXIXPXPXPXPXLXFXbX6XOX>X>X>X>X>X>X>X>X>X>X>X>X>X>X>X>X>X>X>X>X>X>X>X>X>X>X>X>X>X>X>X>X>X>X|.].].].].U.].}.|.,X,X,X,X,X,X,X,X,X,X,X,X,X,X,X,X9X9X9X9X9X9X9X9X9X9X9X9X9X9X9X0X0X0X0X0X0X0X0XpXpXpXpXpX0XpXbXpXpX0X0X8X8X7X3X$XT.U.G.F.h.y.y.y.y.X.X.X.X.+.y.u.u.u.l.U.Y.{.$X8XbXbXbXMXMXBXMXbX4XT.Y.Y.T.4XbXBXBXBXBXBXBXBXBXBXBXBXBXBXBXBXBXBXBXBXBXBXBXBXBXBXBXBXBXBXBXBXBXBXBXBXBXBXBXBXBXBXBXxX4XI.F.F.F.Y.Y.Y.U.F.A.A.G.u.u.G.4XxXnXxXxXxXxXxXxXxXxXxXbXxXlXlXkXkXxXxXxXzX5X4X5XlXzXzXzXzXzXzXzXzXlX0X0X0X5X5X0X0X0X0X0X0X0X0X0X0X0X0X0X0X8X3X2X8X7X7X7X4XT.Y.T.3X7X7X7X6X6X6X6X6X6X6X3X2X3X3X6X2X2X$X2X2X2X2X2X2X X X XY.Y.Y.Y.Y.U.U.U. X X X X X X|.|. X XU.U.U.U.U. X|.|.|.|.|.].].].].].].].].].].].].].].].].].^.^.].^.].].~.].].~.].].].~.~.].].].~.~.~.~.~.~.~.~.~.~.~.~.~.~.~.~.~.~.~.~.B.B.B.B.B.M.M.M.M.M.M.M.M.M.M.M.M.M.m.m.m.m.m.b.b.b.n.n.n.n.n.n.n.n.n.n.K.8XVXCXpX{.c.9.=.=.=.&.&.&.&.&.*.2.z.Q.!.x.p.p.p.3.3.3.3.3.<.<.<.=.<.<.=.2.3.3.3.=.*.*.*.*.*.*.^ ^ ^ ^ ^ ^ ^ ^ ^ ^ ^ ^ ~ W W E E J J J S S Z Z N N N N n n p e e w w r r 0 0 0 1 1 ; ; ; ; ; ; ; ; ; ; ; = ; 7 0 0 q p p n n n n n N N n n n n n b e e w 0 r 0 0 0 1 1 1 0 0 1 1 1 ; ; ; 1 1 1 1 1 1 3 r 3 3 3 3 r r r r r r i i i i i i i e e e i i i i e e e e ",
"x.x.x.x.z.z.z.s.s.p.4.3.2.>.>.o.^ Q Q W T T Y Y Y Y Y Y Y Y Y Y Y Y ( ( [ [ [ X.O.O.+.#.u.f.Z.A.G.Y.R.%X%XgXjXjXkXjXgX%X+XL.A.h.h.j.K.L.{.{.&X&X*X*X*X*X&XXX.X[.!.!.^.^..X.X.XoXOXOX6XyXuXbXbXCXFXGXGXLXLXPXPXPXPXPXPXPXLXGXAX0X:X>X>X>X>X>X>X>X>X>X>X>X>X>X>X>X>X>X>X>X>X>X>X>X>X>X>X>X>X>X>X>X>X>X>X|.].U.U.U.U.U.U.U.>X,X,X,X,X,X,X,X,X,X,X,X,X,X,X,X9X9X9X9X9X9X9X9X9X9X9X9X9X9X9X9X0X0X0X0X0X0X0XpXpXpXpXpX0XpXpXpXpXpXzXzX0X0X0X0X0X8X7X$XY.K.F.F.F.F.Z.u.f.j.D.F.F.U.Y. X3X8X0XbXbXbXMXMXBXBXBXMXlX3XT.T.2XzXMXBXBXBXBXBXBXBXBXBXBXBXBXBXBXBXBXBXBXBXBXBXBXBXBXBXBXBXBXBXBXBXBXBXBXBXBXBXBXBXBXBXBXbXxX%XI.F.Z.Z.F.U.G.j.j.u.y.u.G.4XzXMXxXxXxXxXxXxXxXxXxXxXnXxXjXjXkXxXxXxXxXzXlXlXlXlXlXlXzXbXzXbXzXlX4X4X8X0X0X0X0X0X0X0X0X0X0X0X0X0X0X0X0X0X8X7X7X8X7X7X7XT.F.l.F.T.6X7X7X6X6X6X6X4X6X3X2X2X2X2X2X2X2X$X2X2X2X2X2X$X X{.Y.Y.Y.Y.Y.Y.U.U.U.Y. X X X X X X X|.].U.U.U.U.U.{. X|.|.|.].].].].].].].].].].].].].].].].].].^.].].~.~.].].].].].].~.~.~.~.~.~.~.~.~.~.~.~.~.~.~.~.~.~.B.B.~.~.~.~.~.N.M.M.B.M.M.M.M.M.M.M.M.M.M.M.M.M.M.m.M.M.m.m.b.b.b.b.n.n.n.n.n.n.n.n.n.n.K.8XFXFXvXXXc.9.9.2.&.&.! G J ~ &.&.&.;.Q.!.!.z.3.p.3.3.3.3.3.<.<.<.=.<.=.=.>.2.2.>.=.*.*.*.*.*.*.^ ^ ^ ^ ^ ^ ^ ^ ^ ^ ^ ^ ~ ~ W E E E J J S S S S S Z Z N N n n p e e w i r q q 0 0 0 1 1 ; ; ; ; ; ; ; ; ; = ; 7 7 0 q p p n n n n p p p n n p p p e w q w 0 r r 0 0 1 1 1 0 0 1 1 ; ; ; ; 1 1 1 1 1 1 r r 3 3 3 3 i i i i i i i i i i i i e e e e i b i i e e e e ",
"b.b.b.b.b.b.x.x.x.z.z.s.4.3.3.>.o.o.Q Q Q T T Y Y Y Y Y Y Y Y Y Y Y Y ( ( ( [ [ [ X.X.O.#.#.u.f.Z.F.G.L.R.+X%X%X%X%X+XY.L.A.f.5.d.g.g.j.K.K.[.[.{.{.{.{.[.).!.!.!.!.!.!.!././..X.XoXOXOX6XyXyXpXbXCXFXGXGXLXLXPXPXPXPXPXLXLXHXbX6X:XOX>XoXoX>XoX>X>X>X>X>X>X>X>X>X>X>X>X>X>X>X>X>X>X>X>X>X>X>X>X>X>X>X|.].U.U.U.U.B.U.U.|.,X,X,X,X,X,X,X,X,X,X,X,X,X,X,X9X9X9X9X6X9X9X9X9X9X9X9X9X9X9X9X0X0X0X0X0X0X0XpX0XpXpXpX0X0XpXpXpXpXzXbXbXbXbXbXbXbXbXzX8X$X$X$X$X$X$XT.Y.T.$X$X3X4X7X8XbXbXbXbXbXMXMXMXMXBXBXBXbXbX0X0XbXMXBXBXBXBXBXBXBXBXBXBXBXBXBXBXBXBXBXBXBXBXBXBXBXBXBXBXBXBXBXBXBXBXBXBXBXBXBXBXBXBXBXBXBXxXBXbX4XY.F.D.D.F.F.u.u.u.u.I.4XzXxXMXxXxXxXxXxXxXxXxXxXxXxXxXkXkXkXnXVXBXbXbXvXbXbXbXzX8X8XzXlX8X4X4X4X4X0X0X0X0X0X0X0X0X5X0X0X0X0X0X0X0X0X0X0X8X8X0X7X7X7XY.u.y.l.Y.2X6X7X6X6X6X6X6X6X6X2X2X2X2X2X2X2X2X2X2X2X2X$X X XY.Y.Y.Y.Y.T.T.Y.U.U.Y. X X X X X X|.|.U.U.U.U.U.U.U.].|.[.|.].].].].].].].].].].].].].].].].].].].].].~.~.~.~.~.~.].].~.~.~.~.~.~.~.~.~.~.~.~.~.~.~.~.~.~.~.~.~.~.~.~.~.B.M.M.B.M.M.M.M.M.M.M.M.M.M.M.M.M.M.M.M.m.m.m.m.b.b.m.n.n.n.n.n.n.n.n.n.K.%XZXHXnX&XN.z.9.>.:.~ H J J J W ~ W E ! 3.!._.b.p.3.3.3.3.3.3.3.<.<.<.<.=.=.>.>.>.2.=.*.*.*.*.*.*.^ ^ ^ ^ ^ ^ ^ ^ ^ ^ ^ ^ ~ ~ W W W W E J J D S D J W S N N N n n p p p p p q q q 0 r r 3 1 7 ; ; ; ; ; ; ; ; ; ; 7 0 q p p p p p p p p p e e e w w w w w q r r r r r 0 ; 7 ; ; ; ; < < < < ; ; r r 1 1 r r 3 3 r r i i i i 0 w w 0 i i i i e e e e e b b b e e e e ",
"m.m.m.m.m.m.b.b.b.b.x.z.s.s.4.4.<.>.o.| [ Q T T Y Y Y Y Y Y Y Y Y Y Y Y Y ( ( [ [ [ { X.X.#.#.u.u.u.Z.Z.F.G.L.R.R.Y.L.F.Z.7.5.4.4.4.s.g.x.n.n.c.N.N.N.N.m.c.b.Q.Q.Q.Q.!.Q.Q.!.^..X.X.XoXOXOXwXyXpXbXbXCXFXGXGXLXPXPXPXPXLXLXGXBX7XOXOX>XoXoXoXoXoX>X>X>X>X>X>X>X>X>X>X>X>X>X>X>X>X>X>X>X>X>X>X>X>X>X>X|.].B.U.U.B.B.B.B.}.,X,X,X,X,X,X,X,X,X,X,X,X,X,X,X9X9X9X9X9X9X9X9X9X9X9X9X9X9X9X9X0X0X0X0X0X0X0XpX0X0X0X0X0X0XpXpXpXpXbXzXbXbXbXbXbXbXbXzX8X4X4X4X8X0XzX0X0XlXzXbXbXbXbXbXMXMXMXMXMXMXMXMXMXMXBXBXBXMXMXMXMXBXBXBXBXBXBXBXBXBXBXBXBXBXBXBXBXBXBXBXBXBXBXBXBXBXBXBXBXBXBXBXBXBXBXBXBXBXBXBXBXBXBXBXBXBXBXBXbX8X$XT.T.T.Y.I.I.T.3X4X4XlXMXMXxXxXxXxXxXxXxXxXxXxXxXxXkXnXZXFXVXvX8X*X*X*X8XlXnXbX8X4XR.Y.I.T.8X0X0X0X0X0X0X0X0X0X0X0X0X0X0X8X0X0X0X7X8X8X8X8X0X0X7XY.u.y.l.T.6X6X7X6X6X6X6X4X6X6X3X2X2X2X2X2X2X2X2X2X2X X X XT.Y.Y.Y.Y. X X XY.U.U.U.U.T. X X X X].U.U.U.U.U.K.l.U.].[.[.[.|.].].].].].|.].].].].].].].].].].].].].].].].].].~.~.].~.~.~.~.~.~.~.~.~.~.~.~.~.~.B.B.B.~.~.~.~.~.~.~.~.~.B.N.M.B.M.M.M.M.M.M.M.M.M.M.M.M.M.M.M.m.m.m.m.m.m.m.m.n.n.n.n.n.n.n.n.n.{.nXFXnX*XK.z.9.>.| W S S D S S S W W W W ^ s._.!.p.3.3.3.3.3.3.3.<.<.<.<.<.>.>.>.>.>.=.*.*.*.*.*.&.^ ^ ^ ^ ^ ^ ^ ^ ^ ^ ^ ^ ~ ~ ~ W W E E H J J J J W W S Z N N N n n n p p p p e q 0 0 r r r 7 7 7 ; ; ; ; ; ; ; 7 7 0 q p p p p p p i w w w w w w w w w w q r r r r r 0 0 0 0 1 1 1 1 1 ; ; 1 1 r 3 1 1 r r r 3 r 0 i i i i w w w 0 i i e e e e e e e b b b b b e e ",
"!.!.!.!.!.!.!.!.!.m.m.b.c.x.x.s.a.1.<.>.o.| [ Q T T Y Y Y ( ( ( ( ( Y Y Y Y Y Y [ [ ) { X.X.X.#.#.#.u.u.u.Z.Z.F.F.A.A.f.5.5.1.1.<.1.1.4.s.s.x.c.c.c.c.z.z.z.z.z.b.b.z.Q.Q.Q.Q.Q.!.!..X.X.X.XOXOX6XuXpXbXbXCXFXGXGXLXLXLXLXLXGXAXpX2XOX>X>X>X>X>X>X>X>X>X>X>X>X>X>X>X>X>X>X>X>X>X>X>X>X>X>X>X>X>X>X>X>X|.].B.B.B.B.B.B.B.].>X,X,X,X,X,X,X,X,X,X,X,X,X9X9X9X9X9X9X9X9X9X9X6X6X9X9X9X9X9X9X9X9X9X0X0X0X0X0XpXpX0X0XpXpXpXpXpXpXpXpXbXbXbXbXzXzXlX5X4X4X4X4X8XzXbXbXbXbXbXbXbXbXbXbXMXbXbXxXMXMXMXMXMXMXbXMXMXMXMXMXMXMXMXBXBXMXMXMXBXBXBXBXBXBXBXBXBXBXBXBXBXBXBXBXBXBXBXBXBXBXBXBXBXBXBXBXnXBXMXxXBXBXBXBXMXBXnXBXBXBXbXxXxXxXlXlXlXlXxXlX5XlXMXxXxXxXxXxXxXxXxXxXxXxXxXnXnXZXFXnX8X$X{.{.{.{.{.$X8XbXvX%XI.D.F.T.7X5X0X0X0X0X0X0X0X8X0X0X7X7X0X0X0X0X0X7X8X8X8X8X8X8X7X$XI.F.U.$X7X7X7X6X6X3X3X3X6X6X6X6X2X2X2X2X2X2X2X2X2X$X X XT.Y.Y.Y.{. X X XT.Y.U.U.U.U.U.U.U.U.U.U.U.U.U.U.U.U.U.[.U.U.U.|.].].].].].].].].].].].].].].].].].].].^.[.[.].].].].].].~.~.~.~.~.~.~.~.B.B.~.~.~.~.~.~.~.~.~.~.B.N.B.B.~.~.N.N.!.!.!.!.!.!.M.M.M.M.M.M.m.m.m.m.m.m.m.m.m.m.m.m.b.b.m.n.n.n.m.n.n.&XnXjXR.A.1.>.| ' T D S D A A V A T ( T [ o.4.!.!.z.3.3.3.3.3.<.>.>.>.>.>.>.=.>.>.>.>.*.*.*.*.*.*.&.&.^ ^ ^ &.^ ^ ^ ^ &.^ ! ! ! ! ~ E ~ ~ H J J J J J H S Z Z Z Z N N n n n p p e w w w w w 0 r r r 0 1 1 1 0 1 0 0 0 0 0 w i p p p p w w w w w w w w w w w q r r r r 0 0 0 0 0 3 3 3 1 1 1 1 r r r r r 0 0 0 0 0 0 0 0 0 w w i i i i i i b b b b e e b b b b b n n b ",
"!.!.!.!.!.!.!.!.Q.Q.!.m.m.m.b.x.x.s.a.1.<.o.o.| [ Q T Y Y ( ( ( Y Y Y ( Y ( Y Y ( [ ( [ ) { X.X.X.#.#.#.#.#.#.f.f.7.5.5.,.,.1.1.<.<.<.3.4.4.s.s.z.z.z.z.z.9.z.z.z.z.z.z.z.W.Q.Q.Q.!.!.!..X.X.X.XOXOX6XuXuXbXCXFXFXGXGXLXLXGXGXFXbX6X:X>X>X>X>X>X>X>X>XoX>X>X>X>X>X>X>X>X>X>X>X>X>X>X>X>X>X>X>X>X>X>X>X>X|.].B.B.B.B.B.B.}.>X,X,X,X,X,X,X,X,X,X,X,X,X9X9X9X9X9X9X9X9X9X9X6X6X9X9X9X9X9X9X9X9X0X0X0X0X0X0XpXpXpX0XpXpXpXpX0X0XpXpXbXbXzXzXzX5X8X4X4X4X4X5X0XzXbXbXbXxXlXlXzXbXbXbXbXbXxXxXMXMXMXMXMXMXMXMXMXMXMXMXMXMXMXMXMXMXMXMXBXBXMXMXBXBXBXBXBXBXBXBXBXBXBXBXBXBXBXBXBXBXBXBXBXBXBXMXzXxXMXxXBXBXBXBXnXxXxXnXBXnXnXBXnXxXMXMXxXlXlXzXxXxXxXxXxXxXxXxXxXxXxXxXxXxXxXnXZXFXVX8X+X{.K.K.K.K.K.U.{.7XbX8XY.F.F.T.7X0X0X0X0X0X0X0X0X7X7X7X7X7X0X0X8X8X8X8X8X8X8X8X7X7X7X6X2X$X$X2X7X7X7X6X6X3X3X2X2X2X2X6X2X2X2X2X2X2X2X2X2X2X X X XT.T. X X X X X{.Y.U.U.U.U.U.U.U.U.U.U.U.U.U.U.U.U.[.U.U.U.U.U.].[.[.[.[.].].].].].].].].].].].].].[.~.~.].].].~.~.].~.B.B.B.B.~.~.~.~.B.B.B.B.~.~.~.~.~.~.~.~.N.N.N.N.~.!.N.N.N.N.N.M.M.M.M.M.M.M.M.M.m.m.m.m.m.m.m.m.m.m.m.m.b.b.m.n.n.n.n.n.K.8XjXL.+.Q T Q Y C A C C C C B g C ( ( Y Y [ o.b.!.b.p.-.3.3.<.<.>.>.>.>.>.=.=.>.>.>.*.*.*.*.*.&.*.&.&.^ ^ &.&.^ ^ ^ ^ ^ ! ! ! ~ ! ~ E ~ ~ ~ ~ ~ J J J H S Z Z Z Z Z Z Z n n n n p e w w q q q 0 r r r 3 3 3 0 0 0 0 0 0 0 0 w i i i w w w w w w w w w w w w w r r r r 0 0 0 0 0 0 0 0 0 1 0 0 r r r r r i i 0 0 0 0 0 w 0 i i i i i i i i b b b b e e e b b n L ....P ",
"!.!.^.^.^.^.^.^.^.!.!.!.!.!.!.m.n.x.s.s.4.1.1.>.o.[ W T T Y Y Y Y Y Y Y Y Y ( Y ( ( ( ( ) [ [ [ X.X.X.O.X.X.X.@.@.O.O.+.+.+.<.<.<.>.<.>.3.4.4.4.9.9.9.9.9.9.9.9.9.9.9.9.9.9.z.z.b.Q.Q.!.!.!.^..X.XoXOXOX6XuXpXNXCXFXGXGXGXGXGXFXCXpX6X:X|.>XoXoX>XoXoXoXoXoX>X>X>X>X>X>X>X>X>X>X>X>X>X>X>X>X>X>X>X>X>X>X>X|.|.].B.B.].].|.,X,X,X,X,X,X,X,X,X,X,X,X,X9X9X,X,X9X9X9X9X9X9X6X6X9X9X9X9X9X9X9X9X9X0X0X0X0X0XpXpX0X0XpXpX0X0X0X0XpXpX0XzXzXzX5X8X4X4X4X4X5X0XzXzXbXzXzXlX5X8X0XzXbXbXbXbXxXxXMXMXMXMXMXMXMXMXMXMXMXMXMXMXMXMXMXMXMXMXBXBXBXBXBXBXBXBXBXBXBXBXBXBXBXBXBXBXBXBXBXBXBXBXMXMXMXMXxXxXMXxXBXBXBXBXnXxXxXxXxXxXxXxXxXxXxXxXxXlX5XzXxXxXxXxXxXxXxXxXxXxXxXxXxXxXxXxXZXZXjXR.U.K.D.j.j.j.D.D.K.{.8XbX$XY.Y.2X7X0X0X0X0X0X0X0X7X0X7X7X7X8X7X7X8X8X8X8X8X8X8X8X7X7X7X7X7X7X6X6X6X6X4X4X3X3X2X2X2X2X2X6X2X2X2X2X2X2X2X2X2X2X$X X X X X X X X X X X XY.U.U.U.U.U.U.U.U.U.U.U.U.U.U.U.U.U.U.B.B.U.[.].].[.[.].].].].].].].].].].].].].[.n.n.N.].].~.~.B.B.B.B.B.B.~.~.~.~.B.B.B.B.B.~.~.~.~.~.~.~.B.N.B.N.N.M.M.M.M.M.M.M.M.M.M.M.M.M.M.M.m.m.m.m.m.m.m.m.m.m.m.m.b.b.m.b.n.x.x.n.U.uX$Xf.+.Q [ [ C h g g g g g g f C C C h V Y [ c.[.m.p.-.-.3.<.3.>.>.>.>.<.=.=.>.>.*.*.*.*.*.*.*.*.&.&.^ ^ ^ ^ ^ ^ ^ ^ ^ ! ! ! ~ ~ ~ ~ ~ H ~ :.:.W J H H H H S Z Z S Z Z Z n n n p e e e q q 0 0 r r r r r r 0 0 0 0 0 0 0 0 0 w w w w w w w w w w w w w w w w i r r r 0 0 0 0 0 0 0 0 r r r r r i r i 0 0 w w 0 w w w i i i i i i i i i i i i i i e e e b B ..J.'.J.] ",
"/././././././././././.^.^.!.!.!.M.m.b.c.x.s.s.1.1.o.[ Q T T Y Y Y Y Y Y Y Y ( ( ( ( ( ( ( ( [ [ [ [ X.X.X.X.X.X.X.X.O.O.O.+.+.+.>.>.>.>.>.>.<.<.4.9.9.9.9.9.2.2.2.2.2.;.2.9.9.9.z.z.z.c.Q.!.!.!./..X.XoXOX&XyXuXNXCXFXHXGXGXGXHXCXbX9X:XOX|.oXoXoX>XoXoXoXoXoXoX>X>X>X>X>X>X>X>XoXoXoXoX>X>X>X>X>X>X>X>X,X>XOX|.|.|.|.OX>X,X,X,X,X,X,X,X,X,X,X,X,X,X9X9X,X,X9X9X9X9X9X9X6X6X9X9X9X9X9X9X9X9X9X0X9X0X0X0X0X0X0X0XpXpX0X0X0X0XpXpX0X0X0X0X5X4X4X4X4X5X0XlXzXzXbXzXlX8X4X4X5XlXzXbXMXbXxXxXMXMXMXMXMXMXMXMXMXMXMXMXMXMXMXMXMXMXMXMXBXBXBXBXBXBXBXBXBXBXBXBXBXBXBXBXBXBXBXBXBXBXBXMXMXMXMXMXBXMXxXMXBXBXBXnXnXxXxXxXxXMXxXxXxXxXxXxXxXzXzXxXxXxXxXxXxXxXxXxXxXxXxXxXzXxXkXnXAXkXR.I.F.A.f.f.h.h.f.A.D.U.$X0X0X$XT.3X0X0X0X0X0X0X0X0X8X8X8X8X7X7X7X8X8X7X7X7X8X8X8X8X7X7X7X7X7X7X7X6X6X7X7X3X3X3X2X2X2X2X2X2X2X2X2X2X2X2X2X2X2X2X$X$X X X X X X X X X X X XY.U.U.U.U.U.U.U.U.U.U.U.].{.{.U.U.U.B.B.U.[.].].].].].].].].].].].].].].].U.N.N.x.s.n.U.U.~.~.B.B.B.B.B.B.~.~.~.~.B.B.B.B.B.~.~.N.~.N.N.N.N.N.B.N.M.M.M.M.M.M.M.M.M.M.M.M.M.M.M.M.m.m.m.m.m.m.m.m.m.m.m.m.b.m.m.b.n.x.x.n.K.&XK.d.h.1.O.) h d h g f d d d f h K ( h f C Q d.[.m.3.-.-.3.<.3.>.>.>.>.<.=.=.>.*.*.*.*.*.*.*.*.*.&.&.^ ^ ^ ^ ^ ^ ^ ^ ! ! ! ~ ~ ~ ~ ~ ~ H ~ ~ ~ J J J J H H S S S S S Z Z n n n n b b b e w e i i i i i i i 0 0 0 0 0 0 w i i w w w w w w w w w w w w w w w w 0 i i i 0 0 0 0 0 0 0 0 i i i i i i i i i i i i w w w w i i i i i i i i i i i i i i e e e n ..`.*X+X7.D ",
"/././././././././././././.^.^.^.!.!.!.m.n.c.x.s.4.<.o.[ Q Q T T Y Y Y Y Y Y ( ( Y Y ( T ( ( [ [ [ [ [ { X.X.X.X.X.X.O.O.o.o.o.o.o.o.o.>.>.>.>.>.2.2.2.2.2.*.&.&.&.&.&.&.*.*.2.2.2.9.9.z.z.Q.Q.Q.!.!..X.XoXOXOXyXuXNXCXFXHXHXHXFXCXCXpX6X:XOX|.oXoX>X>X>XoXoXoXoX>X>X>X>X>X>X>X>XoXoX>X>X>X>X>X>X>X>X>XOX>X>X>X>X,X,X,X,X>X,X,X,X,X,X,X,X,X,X,X,X,X,X,X,X,X,X,X,X9X9X9X9X6X9X9X9X9X9X9X9X9X9X9X0X9X0X0X0X0X0X0X0X0X0X0X0XpXpXpXpX0X0X0X7X4X4X4X4X4X0XlXzXzXzXzXlX5X4X4X4X5XlXxXMXxXxXxXxXxXxXxXxXxXxXxXxXMXMXMXMXMXMXMXMXMXMXMXMXBXBXBXBXMXMXBXBXBXBXBXBXBXBXBXBXBXBXBXBXBXBXMXMXMXMXbXbXbXMXxXxXMXxXxXxXxXnXnXxXxXxXxXxXxXxXxXxXxXxXxXxXxXxXxXxXxXxXxXxXxXxXzXxXlXxXkXnXBX4XG.D.f.f.u.u.u.u.u.u.f.F.Y.3X0X3X$X7X0X0X0X0X0X8X7X8X8X8X8X7X8X8X8X8X8X8X7X7X7X7X7X7X7X7X6X7X7X7X7X7X7X7X6X3X6X3X2X2X2X2X2X2X2X2X2X2X$X X X X2X2X$X X X X X X X X X X X X X X XU.U.U.U.U.U.U. X].Y.U.U.U.U.U.U.B.B.U.[.].[.].].].].].].].].].].].].U.U.N.N.n.x.N.B.B.B.B.B.B.B.B.B.B.B.B.B.B.B.B.B.B.N.N.~.~.~.~.N.N.N.M.M.M.M.M.M.M.M.M.M.M.M.M.M.M.m.m.m.m.m.m.m.m.m.m.m.m.b.b.b.b.n.n.n.n.n.x.x.n.K.[.j.j.c.5.X.) h d l h y y y s d g K ) h h h Y o.K.m.3.=.3.3.<.>.>.<.<.>.>.>.*.*.*.*.>.<.>.*.*.*.&.&.^ &.! ! &.&.&.&.&.! ! ! ~ ~ ~ ~ ~ ~ J H ~ ~ J J J J J J H S S S S Z Z n n N N n n n n n n n i i i i e 0 0 w 0 0 0 w 0 0 w w w w w w w w w w w w w w w w w 0 w w w 0 0 0 0 0 0 0 0 i i i i i p p p i i i i e e e e i e i i i i i i e i b b b b m n A U 6.J.H.@.P ' ",
"/./././././././././.oX.X/./././.^.^.!.!.!.m.m.c.x.s.<.o.o.Q Q T T Y Y Y Y Y ( ( ( Y Y Y ( ( [ [ [ [ [ X.{ { { X.[ [ [ | o.o.o.o.o.o.o.o.*.*.*.*.>.:.&.&.&.&.! ! ! ! ! ^ ^ &.*.&.*.*.2.2.9.z.z.Q.Q.!.!.^..X.XOXOXyXuXNXCXCXFXFXFXFXCXbX9X6X:X|.|.oX>X>X>XoXoXoXoXoXoX>X>X>X>X>X>XoXoX>X>X>X>X>X>X>X>X>XOX>X>X>X>X,X,X,X,X>X,X,X,X,X,X,X,X,X,X,X,X,X,X,X,X,X,X,X,X,X9X9X9X6X6X6X9X9X9X9X9X9X9X9X0X9X9X0X0X0X0X0X0X0X0X0X0XpXpXpXpX0X0X7X4X4X4X4X4X0X0XzXzXzXlX0X8X4X4X4X4X0XzXbXMXxXxXxXxXxXxXxXbXxXxXxXxXxXxXMXMXMXMXMXMXxXxXMXMXMXMXMXMXMXMXMXMXBXBXBXBXBXBXBXBXBXBXBXBXBXBXMXMXMX0X3X3X8XbXMXMXMXxXxXxXBXxXxXnXxXxXxXxXxXxXxXxXxXxXxXxXxXxXxXzXxXzXxXxXxXxXzXlXlXlXxXBXlX$XF.Z.f.#.#.#.#.#.#.#.u.j.K.$X8X0X8X8X0X0X0X8X8X8X8X8X7X7X7X8X7X8X8X8X7X8X7X7X7X7X7X7X7X7X7X7X7X7X7X7X7X7X6X3X3X3X2X2X2X2X2X2X2X2X2X2X$X X X X X$X X X X X X X X X X X X X X X X X].U.U.{. X X X{.U.U.U.U.U.U.U.U.].[.[.[.].].].].].].].].].].].].].U.U.N.N.N.N.!.~.B.B.B.B.B.B.B.B.B.B.B.B.B.N.N.B.B.N.N.N.N.M.M.M.M.M.M.M.M.M.M.M.M.M.M.M.M.m.m.m.m.m.m.m.m.m.m.m.m.m.m.m.n.b.b.b.b.n.n.n.n.n.x.x.n.K.K.j.j.j.O.) ( h f h h s s g h l g l l h h h Y [ c.s.3.=.<.<.<.>.<.<.<.>.>.>.*.*.*.*.>.<.>.*.*.&.^ ^ ^ &.! ! &.*.&.^ ! ! ! ! ~ ~ ~ ~ ~ ~ E ~ ~ ~ ~ W W J J H S S S S S Z Z N N N N N N Z Z Z Z n n p p p i e e e w 0 0 e e e w w w w w w w w w w w w w w w w w w w w e 0 0 0 0 0 0 w w i i i i p p p p i i i i e e e e e e e i i i i b e b b n Z H J } ,.8.8.8.} W :.2.",
"oXoXoXoX/./.oXoXoXoXoXoX.X.X.X.X.X.X^.^.!.!.!.m.m.x.s.1.<.o./ Q Q Q T T T T T T Y ( ( ( ( ( [ [ [ [ [ [ { [ [ [ [ [ [ | | | | | | ^ ^ ^ ^ ^ ^ *.*.:.&.&.! ! ! E E ~ ~ ~ ~ ~ ! ^ ^ *.&.2.2.9.9.z.Q.Q.!.!.!.[..XOXOXyXuXpXNXCXCXCXCXCXCXpX9X:XOX|.oXoX>X>XoXoXoXoXoXoXoXoX>XoXoXoXoXoXoX>X>X>X>X>X>X>X>XOX>X,X>X>X>X,X>X,X,X,X:X,X,X,X,X,X,X,X,X,X,X,X,X,X,X,X,X,X,X9X9X9X6X6X6X6X9X9X9X9X9X9X9X0X0X0X9X0X0X0X0X0X0X0X0X0X0XpXpXpX0X7X3X3X4X4X4X0X0XzXzXzXlX0X4X4X4X4X4X5XlXzXbXbXxXxXxXxXbXbXMXMXbXbXxXxXMXxXMXMXMXMXMXMXxXxXxXxXxXMXMXMXMXMXMXBXMXMXMXMXBXBXBXBXBXBXMXMXBXBXMXMX5XT.Y.I.T.lXMXMXzXxXxXBXBXxXxXxXxXMXxXxXxXxXxXxXxXxXxXxXxXzXzXzXxXlXzXzXxXxXzXlXlXlXnXBX8XT.D.f.#.#.` ` ` ` ` #.#.u.D.{.7X0X0X8X8X8X8X8X7X8X8X7X8X8X8X8X7X7X8X7X8X7X7X7X7X7X7X7X7X7X7X7X7X7X7X7X7X7X6X3X3X3X2X2X2X2X2X2X2X2X2X2X$X$X$X X X X X$X$X X X X X X X X X X X X X X X X X X X X XU.U.U.K.K.U.U.[.[.[.[.U.U.].].].|.|.].].].].].].].].~.~.B.~.~.~.~.~.B.B.B.B.B.B.B.B.B.B.B.B.B.N.N.B.B.N.N.N.N.M.M.M.M.M.M.M.M.M.M.M.M.M.M.M.M.m.m.m.m.m.m.m.m.m.m.b.m.m.m.n.n.n.m.b.m.n.n.n.n.x.x.x.n.N.N.j.d.5.X.( ) Y h h h h h ( ) K g g d d l l h Y o.3.3.=.<.<.<.>.>.<.>.*.=.*.*.*.*.*.*.>.*.*.&.^ ^ ^ ^ &.! ! &.*.&.^ ! ! ! ! ~ ~ ~ ~ ~ ~ ~ ~ ~ } } ~ ~ ~ ~ W H H S S S S Z Z Z Z N N N N N N N n n n n b e e e e e e w e e e e w w w w w w w w w w w w w w w w w w w w e e e e e e e e e e e e i i i i i i i i e e e e e e e i i i b b n Z J | :.:.8.8.8.8.8.8.:.:.:.:.",
"=X=X=X=X=X=X=XoXoXoXoXoXoXoXoXoX.X.X.X[.^.!.!.!.m.m.c.s.4.<.o.o.[ [ Q T Q Q Q T Y ( ( ( ( ( [ [ [ [ { [ [ [ [ [ [ [ [ [ | | | | ^ ^ Q ^ ^ ^ ^ ^ ^ ^ ~ ! ~ ~ E E E W W J W W W ~ ~ ^ &.&.2.2.2.9.z.z.b.!.!.!.[..XXXOXyXuXpXNXCXCXCXCXCXNXpX6X:XOX|.oX>X>XoXoXoXoXoX|.oXoXoXoXoXoXoXoX>X>XoX>X>X>X>X>X>X>X>X>X>X>X>X>X>X>X>X>X,X:X,X,X,X,X,X,X,X,X,X,X,X6X6X7X6X7X6X6X6X6X6X6X6X6X6X9X9X9X9X9X9X7X0X0X0X9X0X0X0X0X0X0X0X0X0X0X0X0X7X4X3X3X3X7X0X0X0XzXzXlX5X4X4X4X4X4X8XlXzXzXbXbXxXxXxXxXMXMXMXMXMXbXxXxXMXMXMXMXMXMXMXMXxXxXxXxXxXxXMXMXMXMXMXMXMXMXMXMXMXMXMXMXMXMXMXMXMXMXMXxX4XY.I.I.I.4XbXbX5X5XxXBXMXMXxXxXxXxXxXxXxXxXxXxXxXxXxXxXxXzXzXzXlXlXlXxXxXxXzXlXlXzXnXnX%XI.D.f.#.` ` ` ` ` ` ` ` #.j.T.6X7X8X8X8X8X8X8X8X8X8X7X2X4X8X8X8X7X7X7X7X7X7X7X7X7X7X7X6X6X6X6X6X6X6X6X6X6X6X3X2X2X2X2X2X2X2X2X6X0X8X2X$X$X$X X$X X X X X X X X X X X X X X X X X X X X X X X XU.K.D.F.D.K.U.U.U.[.].U.N.N.U.].].].[.].].].].].].].].~.~.B.~.~.~.~.~.~.B.B.B.B.B.B.B.B.B.B.B.N.N.N.B.B.N.N.N.N.M.M.M.M.M.M.M.M.M.M.M.M.M.M.M.M.m.m.m.m.m.m.m.m.m.n.n.m.m.b.n.n.n.m.m.m.x.x.n.n.x.x.x.n.K.K.j.d.5.{ ) #.X.Y Y ( ( ( ( ) K h h g h ` ` h f Q <.3.<.<.<.<.>.>.>.*.*.*.*.*.*.*.*.*.*.*.*.*.^ ^ ^ ^ &.&.&.&.&.^ &.&.! ! ! ~ ~ ~ ~ ~ ~ ~ ~ ~ } } } } } } ~ J J J S S S S Z Z Z Z N M N N N N N N n n n b b e n e e e e e e e e e e e e e e w w w w w w w w w w w w e i i i i i i i i e e e e i i i i i i i e e e e e w w i e i n Z S } ,.4.4.9.2.:.} J G H H J ~ ~ ~ ",
"=X=XqXqXqXqX=X=XqXqXqXqX=X=XoXoXoX.X.X.X/.^.^.!.!.M.m.c.s.4.<.>.o.[ Q T Q T T Y Y Y T ( [ [ [ [ [ [ [ [ [ [ [ [ [ [ [ [ [ [ Q ^ ^ ! ! ! ! ^ ^ ^ ^ ~ ~ ~ ~ ~ J J J J J J J J J W W ~ ~ ~ &.:.2.2.2.4.z.x.m.!.!._..X.XOX6XuXpXNXCXCXCXCXNXpXuX6X,X|.|.oXoXoXoXoXoXoXoXoXoXoXoX}.oXoXoXoXoXoX>X>X>XoXoXoXoX>X>X>X>X>X>X>X>X,X,X,X,X>X>X>X,X>X,X,X,X,X,X6X0XNXCXCXCXbX0X6X6X6X6X6X6X6X6X6X9X9X9X9X9X9X0X9X0X0X0X0X0X0X0X0X0X0X0X0X0X7X7X3X4X7X7X0X0X0XlXlX0X4X4X4X4X4X8XlXzXzXzXzXzXzXzXzXzXzXzXxXxXxXxXxXxXMXMXMXMXMXMXMXxXxXxXMXMXxXxXxXxXMXMXMXMXMXMXMXMXMXMXMXMXMXMXMXMXMXMXMXxX4XT.I.I.Y.7XbXMXlXlXxXMXxXxXxXxXxXbXxXxXxXxXxXxXxXxXzXzXzXzXzXzXzXzXzXzXxXzXxXlXlXzXnXxX%XY.F.u.#.` ` ` ` #.#.#.` ` u.Y.2X8X8X8X8X8X8X8X8X8X8X7X$X3X7X8X7X7X7X7X7X7X7X7X7X6X6X7X6X6X6X6X7X7X7X7X6X4X3X2X2X2X2X2X2X2X2X4XlXbX8X$X X X X X X X{.T. X X X X X$X X X X X X X X X X X X X XY.F.h.l.F.K.U.U.U.U.].U.U.N.l.B.U.].].].].].].].].U.U.~.~.[.[.~.~.~.B.B.B.B.B.N.N.N.N.B.B.M.M.M.M.M.M.M.N.M.M.M.M.N.N.N.M.M.M.M.M.M.M.m.m.M.N.N.N.m.m.m.m.m.m.m.m.m.m.m.m.m.m.m.m.x.x.x.x.n.n.x.x.x.x.x.n.K.D.h.d.X.( { #.X.[ X.+.f.#.#.7.{ ) ) ( ) #.` ( Y / <.=.<.<.>.>.>.=.*.*.*.>.*.*.*.*.*.*.*.&.*.*.&.^ ^ ! &.&.&.&.^ ^ ^ ^ ! ! ! ~ ~ ! ~ ~ ~ ~ ~ ~ ~ } :.:.:.~ ~ J H J H J H S S S Z Z Z Z M M M N Z Z M n n n b b n n p e e e e e e e e e b e e e e e e e e e w w e e e b b b b b i b n n b i i i b b i i i i i i e e w w w i p p P ..8.8.c.c.c.9.:.G G Z M m b M H ~ :.:.",
"=XqXqXqXqXqXqXqXqXqXqXqXqXqX=XoX=X=XoX.X.X.X/.^.^.!.!.m.c.s.a.<.>.o.[ Q T T T Y T T T [ [ [ [ [ [ [ { { [ [ [ [ [ | | | [ [ Q Q Q ~ ~ ~ ^ ^ ^ ^ ^ ~ ~ ~ ~ W J J J J J J J J J J J J W W ~ ^ *.>.2.2.3.p.z.m.!.!.!..X.XOXyXuXpXNXNXCXCXNXpXpX6X6XOX|.oXoXoX|.oX|.oXoXoXoXoXoX}.}.oXoXoXoXoXoX>X>XoXoXoXoX>X>X>X>XoXoXoXoX>X>X>X>X>X>X>X,X,X,X,X,X,X6XpXNXNXbXbXMXVXVXbX7X6X6X6X6X6X6X6X6X9X9X9X9X9X9X9X0X0X0X0X0X0X0X0X0X0X0X0X0X0X7X7X7X7X0X0X0X0X5X5X4X4X4X4X4X8X5XlXzXzXzXzXzXzXzXzXzXzXzXbXMXxXxXxXxXMXMXMXMXMXMXMXxXxXxXMXMXxXxXxXxXMXMXMXMXxXMXMXxXMXMXMXMXMXMXMXMXMXMXMXxX5XT.Y.Y.$XzXMXMXMXxXxXxXzXxXxXxXxXxXxXxXxXxXxXxXzXlXzXzXzXzXzXzXzXzXzXzXzXzXlXlXlXlXjXlX$XG.F.u.#.#.#.#.#.#.#.#.#.` u.G.$X8X8X8X8X8X8X8X8X8X8X7X4X8X7X7X4X7X7X7X7X7X7X7X6X6X6X7X6X6X3X3X6X6X4X4X3X3X2X2X2X2X2X2X2X2X2X7XvXlX+XT. X$X X X{.{.Y.Y.{. X X X X X X X X X X X{.{.{.{.{. X{.K.h.u.u.l.K.U.U.U.].U.U.U.N.l.N.U.].].[.[.[.].].U.B.B.B.B.~.~.~.~.~.B.B.B.B.B.N.N.N.N.B.B.M.M.M.M.M.M.M.M.M.M.M.N.N.N.N.M.M.M.M.M.M.M.m.m.M.M.N.N.m.m.m.m.N.m.m.m.m.m.m.m.m.n.x.x.x.x.x.x.n.n.x.x.x.x.x.c.K.d.+.+.X.) X.) [ X.+.j.K.H.K.A.@.#.#.X.{ #.{ { | >.<.<.<.>.>.>.=.=.*.*.*.>.*.*.*.*.*.*.^ ^ | >.2.>.*.^ &.&.&.&.&.^ ! ! ! ! ! ~ ~ ~ ~ ~ ~ ~ ~ ~ ~ ~ ~ &.~ ~ J J H J J H H H S S S Z Z Z Z Z M Z Z Z M n n n M m m n p p p e e e b e e e b b b b e e e e e e e e e b b n n n n n i b b n b i i i b b i i i i i i e e e e e y l ..J.@X&XXX_.!.9.&.G S M v b i e b H ~ :.:.",
"=X=XqXqXqXqXqXqXqXqXqXwXqXwXqXqXqX=X=XoXoX.X.X.X^.^.!.!.m.c.z.4.<.>.o.[ Q T T T T T Q Q [ [ [ [ [ [ X.X.[ [ [ [ [ | | ^ [ Q Q Q W W W ~ ^ ^ ^ ^ ^ ~ ~ ~ W W E J J J J J J D J J J J E E W W ~ ^ *.>.2.<.4.z.m.!.!.!..XXXOX6XyXpXbXNXNXbXpXpXyX6X,X|.|.|.|.|.|.|.oX|.oXoXoX|.}.}.oXoXoXoXoXoX>X>X>XoXoXoX>X>X>X>XoXoXoXoX>X>X>X>X>X>X,X,X,X,X,X,X6XpXNXpX6X X X&X8XnXVXbX7X6X6X6X6X6X6X6X6X9X9X9X9X9X9X0X0X0X0X7X0X0X0X0X0X0X0X0X0X0X0X0X0X0X0X0X0X5X4X4X4X4X4X4X0XlXzXzXlXzXzXzXzXzXzXzXzXzXxXMXxXxXxXxXbXMXMXMXMXMXMXMXxXxXxXMXMXMXxXxXMXMXMXMXxXxXzXlXxXMXMXMXMXMXMXMXMXMXMXMXxX4X3X4XlXbXMXMXxXxXxXxXxXxXMXxXxXxXxXxXxXxXxXxXzXlXzXzXzXzXzXzXlXlXlXlXzXlXlXlXlXlX5XlX$XF.A.Z.#.#.V.#.#.u.#.` ` #.u.F.$X8X8X8X8X8X8X8X8X8X8X8X7X7X7X4X4X7X7X7X7X7X7X7X6X7X7X7X4X4X3X3X6X6X6X6X6X6X2X2X2X2X2X2X2X2X2X3X$X$XU.Y. X$X X{.{.{.Y.Y.{. X X X X$X$X X X X X X{.{.{.{.{.{.U.l.y.u.h.l.U.U.U.U.U.U.U.B.N.l.N.U.[.[.[.[.[.U.~.~.B.B.B.B.~.~.~.~.B.B.B.B.B.N.N.N.B.B.B.B.M.M.N.N.M.M.M.M.M.M.N.N.N.N.N.M.M.M.M.M.M.M.m.m.M.N.N.M.m.m.m.m.N.m.m.m.m.m.m.m.m.n.n.n.n.n.x.x.n.n.x.x.x.x.x.x.g.5.X.X.X.( ( T T [ d.K.).K.K.K.f.7.#.@.#.#.) ( [ >.<.<.<.<.>.>.=.=.=.*.*.*.*.*.*.*.*./ ^ o.h.K.).h.2.>.&.&.&.&.&.&.^ ! ! ! ! ~ ~ :.~ ~ ~ ~ ~ ~ J J ~ ~ ~ ~ J J W W H H H H H H H S Z Z Z Z Z Z Z Z M n n n n m n n n n n n p e b b b e b b b b e e e e e e e e e b n n n n n n i b n n b b i i b b b i b b b b i i i p a I S.%XvXvX-XXX).9.:.~ Z n e i 0 0 w e Z J :.:.",
"=XqXqXqXqXqXqXqXwXqXqXwXwXwXwXqXqXqX=X=XoXoX.X.X.X.X^.!.!.m.x.z.a.<.o.o.Q Q T T T T Q Q [ [ [ [ [ [ X.X.[ [ [ [ | | | ^ | Q Q Q ~ ! ! W ! ^ ^ ^ ^ ~ ~ ~ ~ W J J J J J J J D J J J J E E W W W W ^ ^ >.>.<.4.z.c.!.!.).[.XXOXyXyXuXpXpXpXpXuXuX6X,X>X|.|.|.|.|.|.|.}.}.|.oX|.|.}.oXoXoXoXoXoX>X>X>XoXoXoX>X>X>X>XoXoXoXoXOX>X>X>X>X>X>X,X>X>X,X,X9XNXpX X].].U.[.Y.$XxXVXbX6X6X6X6X6X6X6X6X6X9X9X9X9X9X9X9X0X0X7X7X7X0X0X0X0X0X0X0X0X0X0X0X0X0X0X7X4X3X3X3X4X4X4X5X5X5X5X5X5X5X5X5X5X5X5X5XlXzXzXxXxXxXxXxXxXxXxXxXMXMXMXxXxXxXMXMXMXMXxXMXMXMXxXxXxXzX5XxXMXMXMXMXMXxXxXMXMXMXMXxXzXzXzXxXMXxXMXxXxXxXxXxXxXxXxXxXxXxXxXxXxXxXxXxXxXxXzXzXzXzXzXlXlXlXlXlXlXlXlXlXlXlXlX$XF.Z.Z.u.u.Z.Z.Z.Z.u.#.` ` u.F.$X8X8X8X8X8X8X8X8X8X7X8X7X8X4X4X4X4X4X4X7X7X7X7X6X6X7X7X4X3X3X3X6X6X6X6X6X6X2X2X2X2X2X2X3X2X&X$XT.Y.U.Y. X XY.Y. X X{.T.{. X$X X X X{.$X X X X X{.{.{.{.{.U.K.l.y.y.l.U.U.U.U.U.U.U.B.N.D.l.N.K.[.].].].U.[.~.~.B.B.B.B.~.~.~.B.B.B.B.B.B.N.N.N.N.B.B.B.M.M.N.N.M.M.M.M.N.N.N.N.N.N.N.M.M.M.M.M.M.M.m.m.M.M.M.M.m.m.m.m.N.m.m.m.m.m.m.m.n.n.n.n.n.n.x.x.n.x.x.x.x.x.x.s.a.+.[ Y Y T [ X.[ [ y.N.K.K.K.L.K.K.#.H.'.H.] Y o.>.>.<.<.>.>.>.=.=.*.*.*.*.*.*./ / / ^ o.A.&X&XK.,.^ | ^ ^ &.&.:.>.&.! ! ! ! ! ~ ~ ~ ~ ~ ~ ~ ~ J J J ~ ~ ~ } ~ | :.W H H H H J H H S S Z Z Z Z Z Z M n n n M n n m m m m m n n b b b b b b b b b b b b b n n n b b n n n n n n b b n n b b i i b b b b b b b b b i i a _ P.kXnXvX@X`.H.8.:.J Z n w 0 1 1 0 q w n S J U ",
"=X=X=XqXqXqXqXqXqXqXqXqXqXqXwXwXwXwXwXqX=X=XoXoX.X.X[.^.!.!.m.x.s.4.<.o.o.Q Q Q Q Q Q Q [ [ [ [ [ [ [ [ X.X.o.o.| | | | | | ^ ^ ~ E E ! ~ ~ ! ~ ~ &.~ ~ ~ ~ ~ J J J J J J J J J J J J J W E W W ~ ~ ^ | >.>.4.s.c.m.!.)..XOX&XyXuXuXuXyXuX6X6X9X9X,X|.|.|.|.|.oXoXoXoXoX|.|.}.}.oXoXoXoXoXoXoXoX|.|.|.|.|.|.|.|.|.|.oXoX>X>X>X>X>X>X>X>X,X,X,X,XpXpX6XU.B.B.B.N.N.U.+XzXNX0X6X6X6X6X6X6X6X6X9X9X9X9X7X9X9X9X9X0X0X0X0X0X0X0X0X0X0X0X0X0X0X0X0X7X4X3X3X3X4X4X4X4X4X4X4X4X4X4X4X4X4X4X4X4X4X4X5XlXzXxXxXxXxXzXlXlXzXxXMXxXMXMXMXbXxXxXxXxXMXbXxX5X0XzXxXxXbXMXMXMXxXxXxXxXMXbXxXxXxXxXxXxXbXbXxXxXxXxXxXzXxXxXxXxXxXxXxXxXxXxXxXxXxXxXzXlXlXzXlXlXlXlXlXzXlXlXlXlXlXlXlX8X$XF.u.u.Z.F.F.G.G.Z.u.#.#.u.u.I.3X8X8X8X7X7X4X3X7X7X7X7X7X7X7X4X4X7X7X7X3X3X3X3X4X4X4X6X3X3X6X6X3X3X3X3X2X6X2X2X2X2X2X2X2X2X$X XY.Y.Y.T.{.Y.Y.Y.{. XY.T.{. X X X X X{. X X X X X XY.U.Y.Y.U.K.l.j.l.K.U.U.U.U.U.U.U.N.N.l.N.N.U.[.].[.[.[.~.~.~.B.B.B.~.~.N.N.N.N.N.N.N.N.N.N.N.N.N.N.N.N.N.N.N.M.M.M.M.M.M.N.N.M.M.M.M.M.M.M.M.M.m.m.m.m.m.m.m.m.m.m.m.m.m.m.m.m.n.n.n.n.x.n.n.n.n.x.x.x.x.x.x.s.s.s.x.a.1.[ T Y Y [ d.d.d.g.N.[.[.{.{.L.f.7.+X@XZ.[ | >.>.>.>.>.>.>.>.*.*.*.*.*.*./ *.&.&.^ / h.&X*XL. .J J W ~ ^ ^ ^ >.*.^ ! ! ! ! ! ! ! ~ G ~ ~ ~ ~ J J ~ } ,.,.} ~ | } J J H H H H H S S S S Z Z Z Z Z Z Z M M M M M n n n m m m n b m m b n b b b b b b m n M M m n n n n n n n n n n n n b i b b b b b b b b b i i i p _ R.cXmXjXP.6. .' J Z n p q 0 ; ; ; 0 r i n n n A ",
"(.=X=X=XqXqXqXqXqXqXqXqXwXwXwXwXwXwXwXwXwXwX=XOXoX.X.X.X^.!.!.m.b.z.4.<.>.o./ / [ [ [ [ [ [ [ [ [ [ [ [ X.X.| | o.o.>.>.| | ^ ^ ~ W E ! E E ! ~ ~ ~ ~ ! ~ ~ ~ J J J J J J J J J J J J J J E E E W W W ~ ^ o.>.3.s.c.m.!.[..XOX6XyXyXyX6X6X6X6X9XyX6XOX|.|.|.oXoX}.}.}.}.}.}.}.}.}.}.}.}.}.oXoXoX|.|.|.|.|.|.|.|.|.|.oXoX>X>X>X>X>X>X:X:X>X>X:X,XiXyX|.B.M.N.k.k.k.k.U.$XbXpX6X6X6X6X6X6X6X6X6X6X6X6X9X9X9X9X9X9X0X0X0X0X7X7X0X0X0X0X0X0X0X0X0X7X3X3X3X3X4X4X4X4X4X4X4X4X4X4X4X4X4X4X4X4X4X4X4X0XzXxXxXzXlXlX5X5X5XzXxXzXxXxXxXxXxXxXxXxXxXbXxX4X4XzXxXxXbXbXMXMXxXxXxXxXbXzXlXzXxXxXxXbXbXxXxXzXxXxXzXxXxXxXxXxXxXxXxXxXxXzXzXxXzXxXlXlXlX8X4X4XlXlXlXzXlXlX4X4X5XlXlX8X4XY.A.Z.L.G.L.L.Z.V.V.#.` u.V.T.7X8X8X7X$X$X2X3X7X7X7X7X7X7X7X4X8X4X8X8X4X3X3X3X6X6X6X3X3X3X2X2X3X3X3X3X2X2X2X2X2X2X2X2X&X&X&X X X X X{.Y.Y.Y.Y.Y.Y.Y.Y.{. X X X X XY.Y.Y.{.$X XU.K.K.U.K.K.K.F.F.U.U.U.U.U.U.U.K.K.D.l.l.N.N.U.].].U.U.[.].~.~.B.B.B.~.B.N.N.N.B.B.N.N.N.N.N.N.N.N.N.N.M.M.M.M.M.M.M.M.M.M.M.M.M.M.M.M.M.M.m.m.m.m.m.m.m.m.m.m.n.n.n.n.m.m.m.m.n.x.x.x.x.x.x.x.x.x.x.x.x.x.x.x.x.s.s.s.s.s.1.5.o.Y [ d.H.K.K.K.).[.{.{.L.O.{ Z.Z.{ | o.>.>.>.>.>.>.*.*.*.*.*.*.*./ / *.&.&.^ >.H.{.H.' S S J W ~ ~ ! ^ ^ ^ ! ! ! ! ! &.:.&.~ H ~ ~ ~ E J J J ,.`.H.} W ~ } W J J J H H S S S S S S Z Z Z Z Z Z Z Z M M M M M n m m m m n b m b n m m m m m m n Z Z Z n n n n n n n n n n n n n b b i b b b b b b b i e e w p ..+XgXR.q.I n n n p i 0 ; = = = ; ; 7 r r i i i n ",
"(.(.=X=X=XqXqXqXwXqXqXqXwXwXwXwXtXtXwXwXwXwXqX>XOXoX.X.X.X^.!.!.m.b.c.s.a.<.<.o.o.o.o.o.o.o.[ [ Q [ [ [ o.o.o.o.o.o.o.o.o.^ ^ ^ ~ ~ ! ! ! E E ~ ~ ~ ~ ~ ~ ~ ~ J J J J J J J S S J J J J J J J J J E E W W ^ | >.<.s.c.N.).[..XOX&X&X&X&X&X6X6X9XyX6X,X|.}.}.}.}.}.}.}.}.}.}.}.}.}.}.}.}.}.}.}.oX|.|.|.|.|.|.|.|.|.|.|.oX>X>X>X>XOXOX>X>X>X>X>X,XiX9X|.N.k.k.l.k.k.k.n.U.7X0X6X6X6X6X6X6X6X6X6X6X6X6X6X6X9X9X9X9X7X7X7X7X7X7X0X0X0X0X0X0X0X0X0X7X3X3X3X3X3X4X4X4X4X4X4X4X4X4X4X4X4X4X4X4X4X4X4X0XzXxXzXlX5X4X4X4X5XlXzXzXzXzXzXzXxXxXxXxXzXxXxXzXzXxXxXxXxXxXxXxXxXxXxXxXzX4XR.5XzXxXbXbXbXxXzXzXzXzXzXxXxXxXxXxXxXxXxXxXzXlXlXlXlXxXlXlXlX4XT.T.4XlXlXlXlXlX4XR.4X5XlXlX8X%XI.G.L.Z.F.G.Z.G.G.#.` u.Y.7X8X8X8X7X3X3X4X4X7X7X8X7X6X7X7X6X4X4X8X8X4X6X3X3X3X3X3X3X2X2X2X2X2X2X2X2X2X2X2X2X2X2X2X$X$X&X&X$X$X$X$X{.{.{.{.{.{.Y.Y.{. X X X X X{.Y.Y.U.U.Y.U.K.K.K.K.K.K.F.K.U.U.U.U.U.U.U.K.D.D.l.N.N.N.U.U.U.U.U.U.[.~.U.U.B.B.B.B.B.B.N.N.B.B.B.B.N.N.N.N.M.M.N.N.M.M.M.M.M.M.M.M.M.M.M.M.M.M.M.M.M.m.m.m.m.m.m.m.m.m.m.m.n.n.n.n.m.m.m.m.n.n.x.n.n.x.x.x.x.x.x.x.x.x.x.x.s.s.s.s.s.s.g.h.+.Q [ f.K.{.K.K.).K.K.K.f.( C [ [ | o.>.>.<.>.>.>.>.*.*.*.*.*.*.*./ / / ^ ^ ^ >.g.7. .' S E W ^ ~ ~ ^ ^ &.^ ! ! ! ! ! &.:.:.~ E ~ ~ ~ H H H J 6.L.7.W H J W J J J J H H S S H H H H S Z S Z Z Z Z Z Z Z Z M M n n b b b n n n n n b m m b b b n M Z M n n n n n n n n n b b n n b b b b b b i b i i e e e q p { r.e...B w q n n n 0 - & @ & = = ; 7 7 r i 0 0 0 ",
"(.(.=X=X=X=XqXqXqXwXqXqXwXwXwXtXtXtXwXwXwXwXwXwX=XoXoX.X.X/./.!.!.!.m.m.n.x.a.a.1.1.1.1.a.1.+.o.[ [ | | o.o.o.o.o.o.o.o.o.o.^ ^ ! ~ W W E ~ E ~ ~ ~ ~ ~ ~ ~ ~ J J J J J J J S S J J J J J J J J J J J J E W | | >.<.s.m.!.).[.XXOXOXOXOX X&X6X0XuXyX6XoX|.}.}.}.|.}.}.}.}.}.}.}.}.}.}.}.}.}.}.oXoX|.|.|.|.|.oXoX|.|.|.oX>X>X>X>XOXOXOX>X>X>X>X,X6X,XU.k.k.k.n.a.a.k.k.N. X6X6X6X6X6X6X6X6X6X6X6X6X6X6X6X6X6X9X9X9X7X7X7X7X7X7X7X0X0X0X0X0X0X0X8X4X4X4X3X4X4X4X4X4X4X4X4X4X4X4X4X4X4X4X4X4X4X8XlXzXzXlX5X4X4X4X4X5XlXzXzXzXzXzXzXxXxXxXxXzXxXxXxXxXxXxXxXxXxXxXxXxXxXxXxXlX$XR.4XzXxXxXxXbXxXxXzXzXzXxXxXxXxXxXxXxXxXxXxXxXzXlXlXlXzXlX8X4XT.F.F.R.5X4X4XlXlX5X4XlXlXlXlXlX8X$XY.G.F.F.G.G.Y.G.u.V.Y.3X8X8X8X8X8X7X4X3X7X7X7X7X7X7X7X7X6X4X4X4X7X7X6X6X3X3X3X3X3X2X2X2X2X2X2X2X2X2X2X2X2X$X$X$X$X$X$X&X&X$X$X XT. X X{.{. X{.{.+X$X{. X X X$X$XY.F.K.U.K.K.U.U.K.K.K.K.U.Y.Y.[.[.U.U.K.D.D.D.l.N.U.U.U.U.U.U.U.U.U.B.U.U.B.U.B.B.B.B.N.N.B.B.B.B.N.N.N.N.M.M.M.M.M.M.M.M.M.M.M.M.M.M.M.M.M.M.M.M.N.N.N.N.m.m.m.m.m.m.m.m.n.n.n.n.m.m.m.n.n.x.x.n.n.x.x.x.x.x.x.x.x.x.x.x.s.s.s.s.s.s.s.s.<.o.+.h.K.K.N.K.j.d.+.X.( C T [ o.>.>.>.>.<.>.>.>.>.*.*.*.*.*./ / / / / ^ ^ ^ o.1.1.1.5.[ Q | ^ ! ! ^ &.&.&.! ! ! ! ^ &.&.! ~ ~ ~ ~ ~ E H H J } ,.,.,.| J J J J H H H H S S H S H H H S S Z Z Z Z Z Z Z Z Z Z M M n n b n n n n n n n m n n n n n M n m n n n n n n n n b n n n b b b b b b i i i i e e e e N  .6.6. .D N n A A N r ; = = = = 9 y y a a p w 0 1 ",
"/.(.(.(.=X=XqXqXqXqXwXwXwXwXwXwXwXwXwXrXwXwXwXwXwX=X=XoX.X/././.!.!.!.!.!.N.n.n.c.l.j.j.l.c.g.s.o.o.o.o.o.o.o./ / *.*.*.*.*.^ ^ ^ ~ ~ ~ W W E E G E ~ ~ E E G H J J J J J J J J J J J J J J D D D D D D T E W | o.>.4.x.m.!.[..XOXOXOX X X X6X8XuXuX9X,X|.|.}.}.}.}.}.}.}.}.}.}.}.}.}.}.}.}.}.oXoXoX|.|.oXoX,X,X>X|.|.|.oXOXoXoXOXOX>X>X>X>X>X,X,XOXU.k.a.k.k.a.a.k.a.k.U.:X6X6X6X6X6X6X6X6X6X6X6X6X6X6X6X6X6X9X7X7X7X7X7X0X0X0X0X0X0X0X0X0X0X0X0X8X8X8X0X0X0X0X7X4X4X4X4X4X0X5X5XlXlX0X0X0XlXlXlXlX5X4X4X4X4X4XlXzXzXzXzXzXzXzXbXbXbXbXxXxXbXbXxXxXxXxXzXzXzXzXxXbXbXbXxX0X5XzXxXxXxXxXxXxXxXxXzXzXzXzXzXzXxXxXxXxXzXzXxXxXzXlXlXlX5X4X4XT.F.F.R.4X4X4X0XlX5X5XlXlXlX8X8X8X4X$XY.G.F.F.A.F.A.A.T.4X8X8X7X7X7X7X4X4X4X7X7X7X4X7X7X7X7X7X4X4X4X6X6X6X3X3X3X3X3X3X3X3X3X2X2X2X2X2X2X2X$X2X2X2X$X2X$X$X$X$X$X X{. X X$X{.{.$X X X X$X$X{.{.{.$X$XU.D.K.U.U.U.{.U.U.K.U.U.Y.{.{.{.U.U.K.D.D.l.l.D.K.U.U.U.U.U.U.U.U.B.B.B.B.B.U.U.B.B.B.N.N.N.B.B.N.N.N.N.M.M.M.N.N.M.M.M.M.M.N.M.M.N.N.N.m.m.m.N.N.m.m.m.m.m.m.m.m.m.m.m.m.m.b.b.b.n.n.n.n.n.n.n.x.x.x.x.x.x.x.x.x.x.x.x.x.z.z.s.s.s.s.p.a.a.4.1.4.g.d.1.o.| o.| Q Q | >.>.>.<.<.<.<.<.>.>.>.>.>.*.*.*.*.*./ ^ ^ ^ ^ ^ ^ >.<.2.,.<.o.o.<.>.! ! &.*.&.&.&.&.&.&.&.&.:.&.&.&.! ~ ~ E G G G ~ } 8.c.,.~ ~ :.} J H H S S S S S S S H H S S S Z Z Z Z Z Z Z Z M M M M M m n m Z A m M m b n b n m m m b n n n n n n n n i b b b e e e e i i b b e e e e e e A  .6.6. .U A D D A N p i r y g K ) { { ....] C f p ",
"/./.(.=XoXoXqXqXqXwXwXwXwXwXwXwXwXwXwXrXrXwXwXwXwX=X=XoXoXoX/./.^.[.[.[.[.[.[.).).K.K.K.K.K.N.n.h.1.o.o.o.o./ / / *.*.*.*.*.^ ^ ^ ^ ~ W W W H H H G G E G G H H H J J J J J J J J J J J J J D D D D D D D E W ^ | >.4.x.m.N.).[.XXXXXX X{. X&X6XuXpXyX,X|.|.}.}.}.}.}.}.}.}.}.}.}.}.}.}.}.}.oXoXoX|.|.|.|.>XrXrX,X|.|.|.OXoXoXoXOXOX>X>X>X>X>X>X>XOX].B.k.k.k.a.a.k.k.k.U.:X6X6X6X6X6X6X6X6X6X6X6X6X6X6X6X6X6X9X9X7X7X7X7X7X7X7X0X0X0X0X0X0X0X0X0X0X0X0X0X0X0X0X5X4X3X4X4X8X5X0XlXlXlXlXlXlXlXzXlX5X4X4X4X4X4X5XlXzXzXzXzXzXzXzXbXbXbXzXzXzXzXzXzXxXxXzXzXzXzXzXxXbXbXbXbXxXxXxXxXxXxXxXxXxXxXxXzXzXzXzXzXzXzXzXzXxXzXzXzXlXlXlXlX5XR.2X5X4XT.T.3X5X5X5X0XlX5X5XlX5X5X5X4X4X8X8X3X$XY.I.I.G.Y.Y.T.8X8X8X7X7X7X7X4X4X7X7X7X7X4X7X7X7X6X7X4X4X4X3X3X3X3X3X3X3X3X3X3X3X3X3X2X2X2X2X2X2X$X2X2X2X$X$X$X$X$X$X$X$X X X$X X+X$X$X+X X X$X&X$X{.Y.Y.U.F.D.U.Y.U.U.Y.{.Y.U.U.Y.Y.Y.{.Y.U.K.D.D.D.D.D.K.U.U.U.U.U.U.U.U.U.B.U.U.B.U.U.U.B.B.B.N.N.N.N.N.N.N.N.N.N.M.M.M.M.M.M.M.M.M.M.M.N.N.N.N.N.m.m.N.N.m.m.m.m.m.m.m.m.m.m.m.m.m.b.b.m.n.n.n.n.n.x.n.n.x.x.x.x.x.x.x.x.x.s.x.x.z.z.s.s.s.s.p.p.p.a.a.<.<.>.>.o.>.5.3.>.>.>.>.>.<.<.<.<.<.>.>.>.*.*.*.*.*.*.*.*.^ ^ ^ ^ ^ ^ ^ | >.^ W | 1.d.g.>.! ! ~ ^ ^ *.2.2.9.9.9.2.2.2.&.&.&.&.! ! ! ! ! ~ ~ } :.~ ~ :.8.,.J H H H S S H H H G G S S S S Z Z Z Z Z Z Z Z M M M M M m n m m m m M m n n n n m m m b n n n n n n n n e e b b b b e e i i b b e e e e e e A } @.6. .D A A A Z N n A P ] @.7.Z.H.H.H.H.Z.@.( A ",
"/././.oXoXoX>XwXwXwXwXwXwXwXwXrXwXrXrXwXrXwXwXwXwXwX=XoXoXoXoX}..X.X.XXXOXOX|. X X{.{.{.{.[.[.).K.l.a.o.o.o.o.o.o.>.>.>.*.*.*.^ ^ ^ ~ ~ W E H H H H H G G H H H H J J J J J J J J J J J J J D D D D D D D T W Q | <.4.x.n.N.).[.[.XX{.{.{.{.&X6XuXpXpX6XOX|.}.}.}.}.}.}.}.}.}.}.}.}.}.}.}.}.}.}.|.|.|.|.oXoX|.|.>X|.|.|.oXoXoXoXoXoXOX>XOXOX>X>XOX>X|.U.l.k.k.k.k.k.k.k.U.:X6X6X6X6X6X6X6X6X6X6X6X6X6X6X6X6X6X9X9X7X7X7X7X7X7X9X7X7X0X0X0X0X0X0X0X0X0X0X0X0X0X5X5X4X3X4X4X8X0X0XlXlXlXlXlXlXlXlX5X4X4X4X4X4X5XlXzXzXzXzXzXzXzXzXxXxXzXzXzXzXzXzXzXzXzXzXzXzXlXzXzXzXzXzXzXzXzXzXxXxXxXxXzXzXxXxXzXzXzXzXzXzXzXzXlXzXzXzXlXlXlXlXlX4XR.3XlX0X7X7X5X5X5X5X0X0X5XlX5X4X4X5X4X4X8X8X8X8X8X4X$XY.Y.Y.T.4X8X8X7X7X7X7X7X7X8X4X4X4X4X6X7X4X4X7X6X3X3X3X3X2X6X4X2X$X$X2X3X3X3X3X2X2X2X2X2X2X2X$X$X2X$X$X$X$X$X$X$X$X$X$X$X X$X$X X+X X$X4X*X{.Y.K.K.K.K.G.Y.Y.U.U.Y.Y.Y.Y.Y.Y.Y.Y.U.U.K.D.D.D.D.D.K.K.K.U.U.U.U.B.B.U.K.N.N.N.N.K.N.K.N.B.N.N.N.N.N.N.N.N.N.N.N.M.M.M.M.M.M.M.M.N.N.N.N.N.N.N.N.m.m.m.N.m.m.n.m.m.m.m.m.m.m.m.m.m.b.n.n.n.n.n.n.n.x.x.n.x.x.x.x.x.x.x.x.x.s.s.s.s.s.s.s.z.s.p.p.p.a.a.3.<.<.<.<.<.4.<.<.<.<.>.>.<.2.<.<.>.>.>.>.*.*.*.*.*.*.*.*.^ ^ ^ ^ ^ ^ ^ ^ ^ E E | >.2.>.^ W ~ | ,.4.4.4.c.9.9.9.:.&.&.&.&.&.&.&.&.&.&.! G J G H H G :.:.} H H H S S H G J J G G S S S S Z Z Z Z Z M M M M M M M M M M n m n n M M n n n n m m b b n n n n n n n n b b b b b b b b i b b b e e e e e n A '  . .] A n p n n N D } ,.6.7.H.H.H.H.).`.K.Z. .' ",
"/./.oXoXoX>XwXwXwXwXwXwXrXrXrXwXwXwXwXwXwXwXwXwXwX=X=XoXoX.X.X.XoXOXOXOXOXOX&X&X&X&X&X&X&XOX{.{.[.K.N.g.1.o.o.o.>.>.>.>.*.*.*.^ ^ ^ ~ ~ W E H J H H H H H H H H H J J J J J J J J J J J J J D D D D D D D T E W | <.4.g.c.m.K.).[.[.[.[.[.{. X6X0XpXpXyXOX|.}.}.}.}.}.}.}.}.}.}.}.}.}.}.}.}.}.}.}.}.|.|.|.oX|.|.|.|.|.|.|.|.oXoX|.|.OXoXOXOXOXOX>X>XOX|.[.N.k.k.n.B.N.B. X,X,X:X6X6X6X6X6X6X6X6X6X6X6X6X6X6X6X6X9X7X7X7X7X7X7X7X7X7X7X7X0X0X7X0X0X0X0X0X0X0X0X0X5X4X3X3X4X4X0X5X0X0X0XlXlXlX0X8X4X4X4X4X4X5XlXlXzXzXzXzXzXzXzXzXxXxXzXzXzXzXzXzXzXzXzXzXlXzXlXzXzXzXzXzXzXzXzXzXzXzXlXlXlXlXlXlXzXzXzXzXzXzXzXzXlXzXzXzXlXlXlX5XlX0X4X4X5XlX5X0X5X4X4X8X0X0X0XlX5X4X4X0X8X8X8X8X8X8X7X$X$X$X$XR.$X4X7X7X7X7X7X7X4X4X4X4X3X3X4X6X4X3X3X4X3X3X3X3X3X2X7X8X$XY. X2X3X3X3X2X$X$X2X2X$X2X2XT.Y.$X$X$X$X$X$X$X$X$X$X$X$X$X$X$X X$X$X$X4X$X$XT.Y.U.F.U.Y.Y.Y.Y.Y.Y.U.U.U.U.U.U.Y.U.K.D.D.D.D.D.D.K.D.D.D.N.N.l.l.l.l.l.l.l.n.n.N.N.N.N.N.N.N.N.N.N.N.N.N.N.N.N.M.M.M.M.M.M.M.M.m.m.m.m.N.N.N.N.m.m.m.m.m.m.n.n.m.m.m.m.m.m.m.m.m.m.n.n.n.n.n.n.n.x.x.x.x.z.z.x.x.x.x.x.s.s.s.s.s.s.s.s.z.s.p.p.a.a.3.3.3.3.3.<.3.<.<.<.>.<.>.>.2.2.<.<.>.>.>.>.*.*.*.*./ *.*.*.^ ^ ^ ^ ^ ^ ^ ^ ~ W W ^ ^ ^ ~ ~ W  .Z.{.XX).z.9.9.2.&.&.G G G G $.&.&.&.:.&.&.G G G G H H J ~ J H H H S S H H H H H S S S S S Z Z Z Z Z M M M M M M M M M n m m M n n n n n n n m m b b n n n n n n n n b b b b b b b b i i b b e e e e p n A A P P P A n e e p N S }  .,.5.6.8.8.8.j.K.`.H...( ",
"/./.oXoXwXwXwXwXwX9XyXyXyXyX9X9X9X9X9XyXyXyXwXwXwX=XOXoXoX.X.XoXOXOXOXyX6XyXuXuXuXuXuX8X6X&X&X X{.{.).K.c.<.>.>.*.*.*.*.^ *.^ ^ ^ ~ ~ ~ ~ W E H H H H H H H H H H H H S S S S S J J J J J D D D D D D D D D W Q | <.1.g.j.N.N.).[.[.{.[.[.{. X&X8XuXpXyX,X|.}.}.}.}.}.}.}.}.}.}.}.}.}.}.}.}.}.}.}.}.}.|.|.|.|.|.|.|.|.|.|.|.|.|.oXOXoX|.OXOXOXOX>X>XOXOX X|.U.B.U.U.|. X:X,X:X:X6X6X6X6X6X6X6X6X6X6X6X6X6X6X6X6X6X7X6X7X9X6X7X7X7X7X7X7X7X0X0X0X0X0X0X0X0X0X0X0X0X4X3X3X4X4X0X5X0X0X0X0X0X0X8X4X4X4X4X4X4X4X5XlXlXzXzXzXzXzXzXzXzXzXzXzXzXzXzXzXzXzXzXzXzXzXlXlXlXzXzXzXzXzXzXzXlXlXlXlXlXlXlXzXzXzXzXzXzXzXzXzXzXxXxXxXlX5X5XlXlXlX8X7X0XlX0X0X8X3X4X8X0X0X5XlX0X4X8X8X8X8X8X8X8X8X8X3X8X7X7X8X4X8X7X7X4X4X7X4X4X4X3X3X$X$X2X4X3X3X6X6X3X3X3X3X2X4X8X3XY.Y. X2X2X2X2X2X2X2X2X2X$X$X$XI.F.Y.$X$X$X$X$X$X$X$X$X$X$X$X$X X X$X%X%X$XY.T.{.$X{.K.U.Y.Y.{.Y.{.{.U.U.U.U.U.U.U.K.l.l.D.D.D.D.D.D.l.l.l.l.l.l.l.k.l.l.l.l.l.k.l.N.N.N.N.N.N.l.n.n.n.M.M.M.M.M.M.M.M.m.m.m.m.m.m.m.m.m.m.m.m.m.n.n.n.n.n.n.n.n.n.n.n.n.m.m.m.n.n.n.n.n.n.n.n.n.x.x.x.x.x.x.x.x.x.x.x.s.z.z.z.s.s.s.s.s.s.p.p.p.a.3.3.3.3.3.3.3.3.<.<.>.>.>.>.>.>.>.>.<.>.>.>.*.*.*.*.*.*.*.*./ ^ ^ ^ ^ ^ ^ ^ ^ ^ ~ ~ ^ ~ ~ W E X.G.jXvXuX{.c.2.2.&.&.G G F G G G G &.&.2.:.&.G G G G H H H G J H H H S S S S G S S S S S S S S Z Z Z Z Z Z Z M M M M M M M n n n n n n n n n n b b b b n n n n n n n n b b b b e e b b b b b b i i i i i n n p i p n B B A A D J W } } ~ ~ | | :.,.5.H.K.H.@.D ",
"/.oXoXOXwXwXyXyX9XyXyXyXiXiXyX9X6XyXyXyXyXyXwXwX=XOXoXoX.X.X.X.XOXOX&XyXuXuXuXuXbXuXuXuX0X7X7X&X&XXX{.[.K.c.3.>.^ ^ ^ ^ ^ ^ ^ ^ ^ ~ ~ ~ ~ W E H J J H H H H H H H S S S S S S S S S S S S S D D D D D D D D W Q | <.1.g.c.c.N.K.).[.[.[.U.[. X$X7XuXpXpX6X|.].}.}.}.}.}.}.}.}.}.}.}.}.}.}.}.}.}.^.^.}.|.|.|.|.|.|.|.|.|.|.|.|.|.|.|.|.|.OXOXOXOXOXOXOXOX XOXOX X XOXOX:X:X:X,X,X:X:X6X6X6X6X6X6X6X6X6X6X6X6X6X6X6X6X6X6X6X6X7X7X7X7X7X7X7X7X0X0X7X0X0X0X0X0X0X0X7X4X3X$X4X4X5X5X0X0X0X5X0X5X4X4X4X4X4X4X4X4X4X5XlXlXlXlXlXlXlXlXzXlXlXlXlXzXlXzXzXzXzXzXzXzX0X4XlXzXzXzXzXzXzXzXlXlXlXlXlXlXzXzXzXzXzXzXzXzXzXzXxXzXlXlX4X4X4X5XlXlX0X0X5X0X0X0X5X8X8X5X0X0X5X5X0X5X5X0X8X8X8X8X8X8X8X7X8X8X8X7X7X7X7X7X4X4X4X4X4X4X3X3X3X$X3X3X3X3X3X6X3X3X3X3X$X3X3XY.F.I.$X2X2X2X$X$X$X$X$X$X$X$XY.F.D.G.T.$X$X$X$X$X$X$X$X$X$X X X X X+X$XR.L.F.F.F.Y.{.Y.Y.Y.Y.Y.Y.{.{.U.U.Y.Y.{.U.U.K.l.l.l.l.l.D.l.l.l.l.l.l.l.l.l.l.l.l.l.j.l.k.n.N.N.N.N.N.l.c.c.k.n.n.N.M.M.M.M.M.m.m.m.m.m.m.m.m.m.m.m.m.m.m.n.n.n.n.n.n.n.n.n.n.n.n.n.n.n.n.n.n.n.n.x.x.x.x.x.x.x.x.x.x.x.x.x.x.z.z.z.z.z.s.s.s.s.s.p.p.p.a.3.3.3.3.<.<.<.<.<.<.<.>.>.>.>.>.>.>.<.<.>.>.*.*.*.*.*.*.*.*./ ^ ^ ^ ^ ^ ^ ^ ^ ^ ^ ^ ^ ^ ~ ~ W @.R.vXCXvX*X).c.2.&.&.G S Z Z Z Z F G G &.:.2.&.&.G G G G H H H H H H H H S S S S S S S S S S S Z Z Z Z M Z Z Z M M M M M M M n n n n n n n n n n b b b b n n n n n n n n e b b b e e b e b b b b i i i i i e w 0 1 0 e n D ' | ,.5.6.6.5.,.| :.>.2.,.4.7.H.6.P p ",
"/..XOXwXwXyXyXyXpXuXpXpXpXpXuXyX9XyXyXyXyXyX6XOXOXOXoX.X.X.X.X.XOXOX&XyXuXuXuXbXbXbXbXbXuXuX8X7X&X&XXX{.).K.c.<.| ^ ^ ^ ^ ^ ^ ~ ~ ~ ~ ~ ~ W E H J J J H H H H H S S S H S S S S S S S S S S S S A A A A D D W [ | <.5.g.c.c.c.N.K.).[.[.U.U.{.$X3XuXuXpX6XOX].].}.}.}.}.}.}.}.}.}.}.}.}.}.}.}.}.}.}.}.|.|.|.|.|.|.|.|.|.|.|.|.|.|.|.|.|.|.|.|.|.OXOX>XOX X XOXOXOXOX:X:X,X,X,X,X:X:X6X,X:X6X6X6X6X6X6X6X6X6X6X6X6X6X6X6X6X6X7X7X7X7X7X7X7X7X7X0X0X0X0X0X0X0X0X0X7X4X3X$X3X4X5X0X0X0X0X0X4X4X4X4X4X4X4X4X4X4X4X4X4X5XlXlXlXlXlXlXlXlXlXlXlXlX0X5XlXlXlXlXlXzXlX5XlXzXzXzXzXzXzXzXlXlXlXlXzXzXzXzXzXzXzXzXlXzXlXzXzX5X4X5X5X4X4XlX5X5XlXlX0X0X5X5X5X4X5X5X5X0X8X4X8X8X0X0X8X8X8X8X7X7X7X7X7X7X7X7X7X7X7X4X4X4X4X4X4X4X3X$X$X3X3X3X3X3X3X3X3X3X3X3X3X3X$XY.I.Y.T.$X2X$X$X$X$X$X$X$X$X$XY.F.F.I.T.$X$X$X$X$X$X$X$X$X$X X X X$X$X$XY.A.f.u.u.D.K.U.Y.Y.Y.Y.Y.{.{.[.U.{.{.{.{.U.K.D.D.D.D.D.l.l.l.l.l.l.l.l.l.l.l.l.l.l.l.l.l.l.N.N.N.N.n.h.h.h.g.n.n.m.M.M.M.M.M.M.M.m.m.m.m.m.m.m.m.N.m.N.N.n.m.n.n.n.n.n.n.n.n.n.n.n.n.n.n.n.n.n.n.x.x.x.x.x.x.x.x.x.x.x.x.z.x.z.z.z.z.z.z.s.s.s.s.p.p.a.a.3.3.3.3.<.<.<.3.<.<.<.<.<.>.>.>.>.>.>.>.>.>.*.*.*./ *.*.*.*.^ ^ ^ ^ ^ ^ ^ ^ ^ ^ ^ ^ ^ ! ~ ^ @.P.nXFXvX*X{.c.4.:.G G S Z m m m M Z S G G &.&.:.&.&.G G G H H H H H H H H S S S S S S S S S S S Z Z Z Z M Z Z Z M M M M M M M M b b b b M M M n M m m m m n n n n n n n n e b b b e e e e i i b b i i i i i e 0 4 1 0 p A ' } ,.6.H.).`.H.H.h.8.8.,. .' ' U B p 0 ",
"}.oXOXwX9XyXyXpXpXpXbXbXbXbXbXuX0X8XuXuXuXyX6XOXOXOXoX.X.X.X.X|.OXOX&XyXuXuXpXbXbXbXbXbXbXuXuX8X7X&X&XXX{.).N.g.>.>.^ ^ ^ ! ! ~ ~ ~ ~ ~ ~ W E J J J J J H H H H H S H H S S S S S Z Z Z Z Z N N B B A V D D W [ o.<.5.g.c.c.l.N.K.K.[.[.U.U.{.$X3X0XuXpX9X X|.|.|. X].].].}.}.}.}.}.^.}.}.}.}.}.}.}.}.}.|.|.}.}.|.|.|.|.|.|.|.|.|.|.|.|.|.|.|.|.OX XOX X:X:X:XOXOXOXOX:X:X:X:X:X:X:X,X,X,X:X6X6X6X6X6X6X6X6X6X6X6X6X6X6X7X6X6X7X7X7X7X7X7X7X7X7X0X0X0X0X0X0X0X0X0X4X3X$X3X4X5X0X0X0X0X4X4X4X4X%X4X4X4X4X4X4X4X4X4X4X5XlXlXlXlXlXlXlXlXlXlXlX0X0XlXzXlX5X5XlXlXlXlXlXzXzXlXlXlXlXzXzXlXlXzXzXzXzXlXlXlXzXlXlXlXlX4XR.R.5XlXlXlXlX5X5XlXlX0X5X5X5X4X4X8X0X0X0X8X4X8X8X8X8X8X8X8X8X8X8X8X8X7X7X7X7X4X4X7X4X4X4X4X4X4X4X$XY.T.$X$X$X2X3X3X3X3X3X3X2X3X3X$XY.I.Y.$X$X$X$X$X$X$X$X$X$X$X$X$XY.I.T.$X$X$X$X$X$X$X$X$X$X$X X X$X$X*X$XG.A.j.u.f.D.D.U.Y.Y.Y.Y.Y.{.{.{.{.U.U.U.U.U.U.K.K.K.K.K.K.K.K.D.l.l.l.l.l.l.D.D.N.l.l.l.N.N.N.N.N.l.k.d.h.g.k.n.n.m.M.M.M.m.M.M.M.m.N.N.N.N.N.N.N.N.m.m.m.m.m.n.n.n.n.n.n.n.n.n.n.x.x.n.x.x.x.x.x.x.x.x.x.x.s.s.x.x.x.x.s.z.s.z.z.z.z.z.z.s.s.s.s.p.a.a.3.3.3.3.3.<.<.<.<.<.<.<.<.<.>.>.>.>.>.>.>.>.*.*.*./ / / *.*.^ ^ ^ ^ ^ ^ ^ ^ ^ ^ ^ ^ ^ ^ ! ! O.L.vXmXjX+XK.c.4.:.~ H Z Z n n b n n Z Z Z S G &.&.:.&.~ G G H H H H H H H H S S S S G S S S S S S Z Z Z Z M Z Z Z M M M M M Z M b b n M Z M m M M M m m m m n n n n n n n n e b b b e e e e i i b b i i i i i i i w 0 0 p B D ' :.8.H.`.`.`.H.7.,.} D n p e 0 4 1 1 ",
".XOX,X6X9XuXuXpXbXbXnXnXnXBXBXbXzX0X0XpXpXuX6X6XOXOXOX|.[.[.[.[..XOXOX6XuXuXbXbXbXbXvXvXbXbXbXuX8X6X&XXX{.).K.c.4.>.! W E W W W W ~ ~ ~ W W W W W J J J J J J J H H H H H H H S S Z Z N N N N N N B N V D D W | | <.1.5.g.h.c.c.K.K.K.[.[.[.{. X6X8XpXpX7X$X$X6X0X0X8X$X X].].}.}.}.}.}.}.}.}.}.}.}.}.}.}.}.|.|.}.|.|.OX X X|.|.|.|.|.OX|.|.|.OXOX XOXOX XOXOXOX:X:X:X:X:X:X:X:X:X:X,X,X:X:X6X6X6X6X6X6X6X6X6X2X6X7X6X6X7X7X7X7X7X7X7X7X7X7X7X7X0X0X0X0X0X0X0X0X0X4X3X2X3X4X5X0X0X5X4X4X4X4X4X4X4X5X5X5X4X4XE.E.4X4X5XlXlXlXlXlXlXlXlXlXlXlXlXlXlXlXlX0XlXlXlXlXlXlXlXlXlXlXlXlXlXzXlXzXzXlXlXlXlXlXxXxXxXlXlX8X$XT.4X5XlXlXlXlXlX5X5X5X5X5X5X8X4X4X5X0X8X8X8X8X5X5X8X8X8X8X4X7X8X8X8X8X7X4X4X4X8X4X7X4X3X4X4X4X4X4X$XY.I.T.I.Y.$X3X3X2X2X2X$X2X3X3X$X$XT.T.$X$X$X$X$X$X$X$X$X$X$X$X$X+X$X$X$XT. X X#X#X$X$X$X$X$X X$X$X$X$XY.D.D.F.F.A.D.K.Y.Y.{.{.{.{.Y.Y.{.Y.U.Y.U.U.U.U.U.U.U.U.U.U.U.K.K.D.l.l.l.l.N.N.N.N.N.N.N.K.N.N.N.n.k.k.h.k.k.k.n.n.n.N.N.n.n.n.N.n.n.n.n.n.n.n.n.n.m.m.m.m.n.n.n.n.n.n.n.n.n.n.n.n.n.n.n.n.x.x.x.x.x.x.x.x.x.s.s.s.z.z.s.s.s.s.s.s.s.s.s.s.p.p.p.p.p.4.3.3.3.3.<.<.<.<.<.<.<.>.>.>.>.>.>.>.>.>.>.>.*.*.*.*.*.*.*.*.^ ^ ^ ^ ^ ^ ^ ^ ^ ^ ^ ! ^ ^ ^ | >.H.*XnX*XS... .,.} W S N n p p e p n n N Z Z Z S G &.:.:.&.J G H H H H H S H H H S H H H H S S S S Z Z M M M M M M M M M M M M M n n m A J A n n n n n b m b b n n n n p e b b i i b b b i i i i i b b e e e e i e e w w 0 e p N S } ,.6.e.r.6...U A n i 0 0 0 0 4 4 i ",
"|.OX,X6X9XuXpXbXbXbXnXnXBXVXVXBXnXxXlXbXbXbXpX6X6XOXOX|.[.[.[.[..XXXOX&X6XuXbXbXbXvXvXvXbXbXbXbXuXuX&X&X{.).K.h.4.>.! E J E E E W J J J J J J J J J J J J J J H H H H H H H H S S Z Z N N N N f N N N N D D T Q | o.1.4.5.g.c.l.N.K.U.[.[.{.{. X&X7X0XuX0X0XpXpXuXbXBXBX0X X].].}.^.}.^.^.}.}.}.}.}.}.}.}.|.|.|.|.2X9XpXpXpX7X$X X|.|.|.|.|.|.OX X X X X XOXOXOXOXOX:X:X:X:X:X:X:X:X:X:X:X:X,X6X:X:X:X6X6X6X6X6X6X7X6X7X6X6X7X7X7X7X7X7X7X7X7X7X0X7X7X0X0X0X0X7X7X4X3X3X3X4X5X0X5X4X4X$X%X4X4X4XjXlXlXlXjXjXjXjXjXjXkXkXkXlXlXlXlXlXlXlXlXlXlXlXlXlXlXlXlXlXlXlXlXlX0X0XlXlXlXlXlXlXlXlXlXlXlX0X0XlXlXxXxXlX4XR.Y.R.5X5XlXlXlXlXlXlX5X5X5X5X5X5X5X5X5X5X8X8X8X8X5X8X8X8X8X8X4X4X8X8X7X8X8X7X4X4X7X7X7X7X4X4X4X4X4X3XT.I.Y.T.I.Y.$X3X3X3X2X2X$X2X2X3X3X2X$X$X$X$X3X4X3X2X$X$X$X$X$X$X$X$X$X$XY.Y.T. X#X#X$X$X$X$X X$X$X$X+XY.F.D.F.K.F.D.l.K.Y.{.{.{.{.{.{.Y.{.Y.Y.Y.Y.U.U.U.U.U.U.U.U.U.U.U.K.D.l.l.l.l.K.U.B.B.N.N.N.K.K.N.l.k.h.k.g.k.c.N.N.n.n.N.n.n.N.N.n.n.n.n.n.n.n.n.n.n.n.n.n.n.n.n.n.n.n.n.n.n.n.n.n.x.n.n.x.x.x.x.x.x.x.x.x.x.x.s.s.s.z.z.s.s.s.s.z.z.s.s.s.s.p.p.p.p.p.3.3.3.<.<.<.<.<.<.<.<.>.>.>.>.>.>.>.>.>.>.>.>.*.*.*.*.*.*.*.*.^ ^ ^ ^ ^ ^ ^ ^ ^ ^ ^ ^ ~ ^ | 8.c.`.8X*XZ.) ' ' W S D N p q y y p p n n N N N N Z H &.2.2.:.J H H H H H H S H H J H H H H H S S S F Z Z M M M M M M M M M M M M n n Z U 6.6.} A n n n n b b b b n n n n e e b b i i i b b i i i i i b b e e e e e e e w w 0 0 w e n N A U P P A m i i i i i i i i i i i ",
"|.OX,X6XyXuXpXbXbXnXnXnXZXZXZXZXVXnXnXbXbXbXbXuX6X&XOX|.[.[.[.[.[.[.XXOX&XuXuXbXbXvXbXbXbXbXbXbXuXuX&X&X{.).K.h.4.o.W S S S S S S S H S S S J J J H H H H H S S S S S S S S S S Z Z N N N N f e f f f N V D T W [ o.<.1.1.g.g.l.K.K.[.{.{.{.{. X$X7X0XpXbXpX6X XU.Y.$X8XBXvX$X[.].}.^.}.}.^.}.}.}.].].}.}.}.|. X8XNXCXCXCXAXZXnX6X X|.|.|.|.|.|.|.|.OXOX X XOXOXOXOX:X:X:X:X:X:X:X:X:X,X:X:X,X,X:X:X:X2X6X6X6X6X6X6X6X7X6X6X6X6X7X7X7X7X7X7X7X7X7X7X7X7X7X7X0X0X7X8X7X4X4X5X5X5X4X3X$X$X$X4X4XjXlXlXlXlXkXcXZXcXcXmXmXZXGXZXnXkXlX0X0XlXlX0X0X0XlX0X0XlX0X0X0X0XlXlX0X0XlXlXlXlXlXlXlXlXlXlX0X0X0XlXlXlXlXlX4XY.I.T.5X5XlXlXlXlXlXjX5X5X5X5X0X0X0X0X5X8X5X8X8X8X5X8X8X8X4X4X4X8X8X8X8X8X8X7X4X4X4X8X7X7X4X4X4X3X3X4X$X$X$X$XT.T.$X3X3X3X2X2X2X2X$X2X3X3X$X$X$X$X$X$X$X$X$X$X$X$X$X$X$X$X%XY.Y.T. X$X$X$X$X$X$X X X X$X$X{.L.A.F.L.F.F.D.D.K.Y.{.{.Y.{.{.Y.Y.{.{.{.Y.{.[.U.U.U.U.U.U.U.U.U.U.K.D.l.j.l.l.K.U.N.N.N.N.N.N.N.l.c.k.h.h.g.c.n.N.N.N.M.n.n.n.N.N.n.n.n.n.n.n.n.n.n.n.n.n.n.n.n.n.n.n.n.n.n.n.n.n.x.x.n.x.x.x.x.x.x.x.x.x.x.x.x.s.s.s.z.s.s.s.z.z.z.z.p.p.p.p.a.p.p.p.4.<.3.3.<.<.<.<.<.<.<.<.>.>.>.>.>.>.>.>.>.>.>.>.*.*.*.*.&.&.&.*.*.^ ^ ^ ^ ^ ^ ^ ^ ^ ^ ^ ^ o.g.H.K.{.*XY.f.1.5.O.D N N N y q y a a p y a f B B N N S ~ 2.2.:.J H H H H H H S H H G H H H S S S Z F Z Z Z Z Z M M M M M M M M M M n n A ,.H.H.} Z n n n m m m b b n n n n e b b b i i b b b b i i i i i b w w e w e e e w w 0 0 0 0 0 e i i i i 0 i i i i i i i i i i i i ",
".XOX,X6XyXpXpXbXnXnXnXZXFXFXFXZXZXVXBXnXnXbXbXuXuX6XOXOX[.[.K.K.).[.[. X X&X8XuXbXbXbXbXbXbXbXbXuX8X&X&X{.).K.h.,.| T S V N V V Z A A A A D D S D D D D D D D D D S S S D D D D S Z N N N f p e y y p f B A D T [ | O.1.1.d.g.j.K.K.{.{.{.{.{. X$X3X8XpXpX7X XD.k.k.n.U.%XnXbX X].}.^.}.}.^.}.}.}.}.}.}.}.|. X0XNXzX4X$X$X%XkXZXBX4X X|.|.|.|.|.|.|.OXOX X X XOXOX XOXOX:X:X:X,X:X:X,X,X:X:X,X,X:X:X:X6X2X2X2X6X6X6X6X7X6X6X6X6X6X6X7X7X7X7X7X7X8X8X8X8X7X7X8X8X7X8X8X8X5X5XjX5X4XE.4X%XR.%X4XlXlXlXlXxXZXGXGXZXmXcXcXZXGXGXGXZXxXlXlX0X0X0X0X0X0X0X0X0X0X0X0X0XlXlX0X0X0X0XlXlXlXlXlXlXlXlXlXlX0XlXlXlXlXlX4XR.I.T.4XjXlXlXlXlXlXjX5X5X5X5X5X5X5X5X5X8X5X8X8X8X8X8X8X8X8X8X8X8X4X3X4X7X8X7X4X4X$X4X4X4X4X8X4X$X$X4X4X$XY.Y.$X2X3X3X3X3X2X2X2X2X$X$X2X$XT.Y.$X$X$XT.T.T.$X$X$X$X$X$X$XT.Y.G.Y.$X$X X X$X$X$X X X X X X XY.K.j.F.G.D.l.D.U.Y.Y.Y.Y.Y.Y.{.{.{.{.{.{.Y.{.U.U.U.U.U.U.U.U.U.U.U.K.D.l.l.l.D.D.K.K.K.N.N.N.N.l.c.g.g.h.h.g.c.l.N.N.N.n.n.n.n.N.n.n.n.n.n.n.n.n.n.n.n.n.n.n.n.n.n.n.n.n.n.n.n.x.n.x.x.x.x.x.x.x.x.x.x.x.x.x.x.x.x.s.s.z.z.s.s.s.z.z.s.p.p.p.p.a.3.3.3.4.<.3.3.<.<.<.<.<.<.<.<.>.>.>.>.>.>.>.>.>.*.*.*.*.*.*.*.&.&.&.*.*.^ ^ ^ ^ ^ ^ ^ ^ ^ ^ ^ ^ 2.H.K.H.`.{.L.K.j.h.O.C N N B f y y y y y y y g C h f N Z W :.2.:.~ H H H H H H H H H J H H H S S S Z Z Z Z M Z M M M M M M M M M M M n n Z U  .} A n n n m n m m n n n n n n b b b b i i b b b b i i i i b b w w e e e e e w w 0 0 0 0 0 0 w i 0 4 0 i i i i i i i i i i i i ",
"].oXOX6X9XuXpXbXnXBXZXZXFXFXFXFXZXZXVXnXnXbXvXuX6X&XOXOX[.[.K.N.N.).[.[.{. X&X7X0XuXbXbXbXbXbXuXuX8X&XXX{.K.j.5.O.T C B N B B B N N N N N N B B A A B B B B A B B D D D D D D D D A B B B f p y y y y f f C A Y ' [ O.1.5.g.j.j.K.K.{.{.{. X X$X$X3X7X8X8X6X{.c.a.a.a.a.K.%XbX8X[.].^.].].}.}.}.}.}.}.}.}.}.6XNX0X{.K.l.l.D.Y.5XVXBX2X|.|.|.|.|.|.|. X|. XOXOXOX XOXOXOX:XOX:X:X:X:X:X:X:X:X,X,X:X:X:X6X6X6X6X2X6X6X6X6X6X6X6X6X6X6X7X7X7X4X7X7X7X7X7X7X7X8X8X8X8X8X8X8XlXkXkXcXcXkXkXkXjX4X5XlXlXlXxXFXGXGXDXnXjXjX4XjXnXZXFXGXFXnXlX0X0X0XlX0X0X5X5X0X0X0X0X0X0X0X0X0XlXlXlXlX0XlX0XlX0X0X0X0XlXlXlXlXlXlXxXjXjXjXlXlXlXlXlXlXlX5X5X5X5X5X5X5X8X8X8X8X8X8X8X8X8X8X8X8X8X8X8X4X$X$X3X7X8X8X8X4X4X4X4X4X4X4X4X3X3X4X4XT.F.I.$X4X3X3X3X3X2X2X2X2X$X$X$X$XY.Y.$X$X$XT.T.$X$X$X$X$X$X$XY.F.D.F.Y.$X$X$X X$X$X$X$X X+X+X X$X{.Y.F.D.U.K.F.U.{.{.{.{.Y.Y.Y.{.{.{.{.{.{.Y.Y.U.U.U.U.U.U.U.U.U.U.U.K.N.l.j.l.D.D.K.N.N.N.N.N.n.l.d.d.d.h.d.g.g.c.l.N.N.n.n.n.n.n.n.n.n.n.n.n.n.n.n.n.n.n.n.n.n.n.n.n.n.n.n.n.n.x.x.x.x.x.x.x.x.x.x.x.x.x.x.x.x.x.x.s.s.z.z.z.z.z.s.s.p.p.p.p.p.a.3.3.3.3.3.3.3.<.<.<.<.>.>.>.>.>.>.>.>.>.o.o.o.>.>.>.*.*.*.*.*.^ ^ &.^ ^ ^ ^ ^ ^ ^ ^ ^ ^ ^ ^ ^ ^ 2.c.).`.`.K.H.c.c.5.[ C A P ( C f y 9 7 y y f h K g y p N J :.,.,.~ H H H H H S S S G H H H H H S S Z M M Z Z M M M M M M M M M M M M n n n Z Z Z Z Z n n n b b b b b b b b b e e e e i i b b b b b i w w w w w w w e e e e e w w w w 0 0 0 0 i i i i i i i i i i i i i i i i ",
"].oXOX,X6X0XpXbXBXVXZXZXFXFXZXFXZXZXBXnXnXbXbXuX6X&X&XOX[.).N.N.m.N.K.K.[.{.{.$X&X7X8XuXuXuXuXuX8X&X+X{.K.H.g.O.( C B f f f f f f f f f f f f N B B B B B B B B B B B A A D D D D D B B B N f y y y y y f B A D ( [ O.5.g.j.j.K.K.{.{.+X$X$X$X$X$X$X3X7X7X&XU.g.a.p.p.a.k.L.4X8X|.].^.].].].].}.].}.}.}.^.|.yXpX Xm.n.k.x.k.k.U.4XMXpX X|.|.|.|.|.|.|.|. X XOXOX X XOXOXOXOX:X:XOX:X:X:X:X:X:X,X:X:X:X6X2X2X2X2X2X6X6X6X6X6X4X4X6X7X7X7X4X4X4X8X4X4X4X4X4X8X5X8X8X0X8XlXBXDXZXZXcXcXcXcXnXkXkXlXlXkXZXGXGXZXlX%XR.Y.Y.+X%X8XjXnXFXSXnXlX0X0XlXlX5X5X5X5X0X0X0X0X0X0X0X0X0X0X0X0X0X0X0X0X0X0X0XlXlXlXlXkXBXZXFXHXHXHXHXZXBXxXlXlXlX5X5X5X5X5X5X5X8X8X8X8X8X8X8X8X8X4X4X8X8X4X4X4X$X$X4X4X4X4X8X4X4X4X4X4X4X4X4X4X4X4X$XY.I.Y.$X3X3X3X3X2X2X2X2X$X$X$X3X$XT.T.$X$X$X$X$X3X4X3X$X$X+XY.G.F.A.F.L.T.$X X$X$X X X$X X+X X X X X{.Y.Y.Y.Y.Y.Y.{.{.{.{.{.$X$X{.{.{.{.{.{.Y.U.U.U.U.U.U.U.U.U.U.U.U.K.N.l.j.l.D.K.K.N.N.N.N.l.l.k.d.y.d.d.d.d.g.g.g.n.n.n.n.n.n.n.n.n.n.n.n.n.n.n.n.n.n.n.n.n.n.n.n.n.n.n.n.n.x.s.s.x.x.x.x.x.x.x.x.x.x.x.x.x.x.x.x.x.s.s.s.s.s.s.s.p.a.p.p.p.p.a.3.3.3.3.3.3.<.<.<.<.*.*.>.>.>.>.>.>.>.o.o.o.o./ / o.*.*.*.*.*.^ ^ ^ ^ ^ ^ ^ ^ ^ ^ ^ ^ ^ ^ ^ ^ ^ >.g.K.).H.h.g.g.h.O.T D D ( ( C f y 9 7 y y d g g f y y N J  .,.:.J H H H H H S S S S S S S S S S Z Z M Z Z Z M M M M M M M M M M M M n n n n n n N Z n n n b b b b b b b b b e e e e i i b b b b i i w w w w w w e e e e e e w w w w 0 0 0 0 i i i i i i i i i i i i i i i i ",
"].|.OXOX6X7XpXbXnXBXZXZXFXFXFXFXZXVXBXnXbXbXuX8X6X&XOXXX[.).N.c.n.n.l.n.N.K.[.{. X$X&X6X8XuX8X&X&X$X{.L.A.h.1.[ C f f f f f f a y y y y e y f f f f f f f f f f f B B B B A D D D D D B B B f f f y y y f g C Y '  .@.d.j.H.K.K.L.{.{.+X$X&X$X$X$X$X$X3X&X XU.x.<.>.>.<.a.l.{.&X|.~.^.^.].].^.^.^.^.}.^.^.|.9X6XU.n.n.x.a.a.s.k.D.$XpX2X|.|.|.|.|.|.|.|.|. X XOX X X XOX X X X XOXOXOX:X:X:X:X:X:X:X6X6X2X2X2X2X2X6X2X2X4X4X7X7X7X7X7X4X5XjXlXlXkXkXkXkXkXlXjXlXlXlXlXnXSXFXnXjX4XjXjXjXkXZXZXnXkXZXGXGXnX8X$XY.L.K.K.U.Y.{.$X$XlXBXVXlXlX5X5X5X5X5X0X0X0X0X5X5X5X5X0X0X5X5X0X0X0X0X5X5X5X5X0X0XlXlXnXFXGXGXGXHXGXFXDXGXFXZXnXlXjX5X5X5X5X8X5X8X5X5X5X5X8X8X4X4X4X4X4X4X8X4X$X4X$X$X$X$X3X4X4X4X4X4X4X4X4X4X4X4X4X3X$X$X$X$X3X3X3X3X$X$X2X2X2X2X$X2X$X$X$X$X$X$X$X$X$X$X3X4X$X+XY.Y.G.F.G.F.I.T.$X$X$X$X$X X$X$X X X X X X X X X X{.T.Y.{.{.{.+X$X&X&X+X{.Y.Y.{.Y.U.U.U.U.U.U.U.U.U.{.K.K.K.K.D.l.l.l.l.K.K.N.N.N.l.l.h.h.d.d.h.d.d.d.g.g.g.g.k.n.n.n.n.n.n.n.n.n.n.n.n.n.n.n.n.n.n.n.n.x.x.x.x.n.n.n.g.a.<.<.s.x.x.x.x.x.x.s.x.s.s.s.s.s.x.x.s.s.s.s.s.s.p.a.a.a.a.a.a.a.a.3.3.3.3.<.<.<.<.*./ *.>.>.>.>.>.>.>./ / / / / / / *.*.*.*.*.^ ^ ^ ^ ^ ^ ^ ^ ^ ^ ^ ^ ^ &.^ ^ ^ ^ ,.h.h.5.4.4.5.5.| T Y ( ) ( g y 9 y y y y y d f y y f B D W } } J H H H H H S S S S S S Z Z Z Z M M M M Z Z M M M M M M M M M M Z M N N n n b b n n n n n b b b b b b b b b e e e e b b b b b b b b w w e w b b e e e e e e w w w w w w 0 0 i i i i i i i i i i i i i i i i ",
"|.OXOXOXOX6X0XpXbXBXVXAXFXFXFXFXVXnXnXbXbXuX8X6X&XOXXXXX[.K.n.c.g.g.g.g.x.n.K.K.[.{.{.+X&X&X&X+X{.{.K.A.f.+.[ Y f f f y y y y y y y y y q y y y a a a a a a a a f f f f B C C C D C C C B g g f f a y y f g C C ' O.5.f.D.H.K.L.Y.{.+X+X$X$X$X$X$X$X$X&X&X XK.a.o.o./ o.o.a.K.[.].~.^.^.].^.^.^.].].}.}.}.|.OX].n.k.a.a.a.a.a.a.a.U.6X6X|.|.|.|.|.|.|.|.|.|. XOX X X X XOXOX X XOXOXOXOX:X:X:X:X:X:X6X2X2X2X2X2X2X2X2X4X4X4X4X4X5XlXkXnXZXZXGXGXGXGXGXGXGXGXZXZXnXlXjXnXBXlX4X%X$X$X+XR.%XjXnXZXZXGXGXnX8X$XY.K.D.D.D.K.K.L.Y.{.$X8XnXBXlX8X5X0X5X5X5X0X0X0X5X5X5X5X5X5X5X5X5X0X0X0X5X5X5X0X0XjXkXZXGXGXFXnXkXjXjXjXjXkXnXVXZXnXlX5X5X5X8X5X8X8X8X5X5X5X8X8X4X4X4X4X4X8X8X4X$X3X$XT.T.$X$X3X4X4X4X4X4X4X4X4X4X4X3X3X3X3X2X2X$X2X3X$X$X$X2X2X2X2X2X$X$X$X$X$X$X$X$X$X$X$X$X$XT.T.Y.Y.I.G.I.I.Y.$X$X$X$X$X X$X$X$X X X X X$X X X X{.{.{.{.Y.{.+X+X{.K.K.K.L.{.L.L.Y.U.U.U.U.U.U.U.U.U.K.l.D.K.K.D.l.l.l.l.D.N.N.N.l.l.h.h.g.g.g.h.k.g.g.d.d.g.d.g.n.n.n.n.n.n.n.n.n.n.n.n.n.n.n.n.n.n.n.n.x.x.x.x.x.m.c.a.+.o./ <.x.x.x.x.x.x.s.s.s.s.a.<.p.s.x.s.s.p.p.p.p.p.a.3.3.3.3.a.a.a.3.3.<.<.<.<.<.<.*./ *.>.>.>.>.>.>.>.>.>.o./ / / / *.*.*.*.*.^ ^ ^ ^ ^ ^ ^ ^ ^ ^ ^ ^ ^ &.^ ^ ^ ^ | >.:.>.1.8.6.5.[ Y D Y Y C f y y y y y s f f f f g B B N S H H S Z H H H H S S S S S S S Z Z Z M M M M Z Z Z Z M Z M M M M M M Z Z N N N n b n b n n n n n b b b b b b b b b b e b b b b b b b b b e w e e b b b e e e e e w w w w w w w 0 i i i i i i i i i i i i i i i i ",
"OX6X6X&XOX2X6X7XpXbXnXCXCXCXCXnXnXbXbXuXuX0X7X6XOXOX X{.[.K.c.c.g.4.1.<.1.s.c.n.K.K.K.[.{.{.{.`.K.K.A.f.@.[ Y h y y y y y y y y y y y y y y y y y y y y y y y y f f f f g g C C K K K C h h g g f f y y f g C Y [ X.5.h.A.F.G.L.L.Y.Y.{.+X+X$X+X{.{.$X$X$X{.K.a.+.o./ +.a.a.k.N.].^.^.^.].].].].].].}.}.].].].N.a.i.p.a.a.a.a.a.a.K. XOX X|.|.|.|.|.|.|.|.|.|.|.|. X|.OXOXOXOXOXOXOXOXOX:X:X:X:X:X:X:X2X2X2X2X2X2X2X2X2X4X4X4XkXcXGXKXLXLXPXPXPXPXPXPXPXPXPXPXLXGXZXnXnXkX%X$X$X+X{.Y.L.L.R.%XnXFXGXBX8X$XY.K.D.j.f.h.j.D.K.K.K.U. X8XnXzX5X5X7X8X8X0X0X5X0X0X0X0X0X0X0X0X0X0X0X0X0X0X0XlXjXjXlXZXGXGXZXjX%X$X+XT.Y.+X+X%X8XnXVXbXlX5X5X5X5X8X8X8X8X8X8X8X8X4X4X4X4X4X4X4X4X4X3X$XT.T.$X$X3X4X4X4X4X4X3X3X3X3X3X3X3X3X3X$X$X3X3X2X2X2X2X2X2X2X2X$X$X$X$X$X$X$X$X$X$X$X$X+XT.I.Y.T.Y.Y.Y.T.T.$X$X$X$X$X$X$X$X X X$X X X$X$X X X{.{.{. X{.Y.+X+XY.F.f.f.f.Z.K.L.Y.{.U.U.U.U.U.U.U.L.K.K.K.U.K.K.D.l.l.l.l.D.K.N.l.l.h.h.h.g.k.k.l.l.l.n.h.d.a.a.g.g.c.l.n.n.n.n.n.n.n.n.n.n.n.n.n.n.n.n.n.n.n.n.x.x.n.g.4.<.o./ o.s.x.x.s.s.s.s.s.s.p.3.<.p.s.s.s.p.p.p.p.p.p.p.a.3.3.3.3.3.3.3.3.3.<.<.<.<.>.>.>.>.>.>.>.2.<.5.Z.H.h.4.>.>.*.*.*.*.*.*.*.^ ^ ^ ^ ^ ^ ^ ^ ^ ^ ! ! ^ ^ ^ ^ ~ ~ ~ ! ~ | ,.5.5.,.[ E T Y D A C f f f h h h h C K C C C A N Z Z Z Z Z H H H S S S S S Z Z Z Z Z M M M M M M Z H S Z n M M M M n M n n n n b b b m n n n n n n n n n b b b b i b b b b b b b b b b i i i i i i e e e e w w w w w w w w i i i i i i i i i i i i i i i i 4 3 3 3 ",
"OX6X6X6XOXOX,X6X6X0XuXbXbXvXbXbXbXbXuXuXuX8X6X6XOXOX X{.[.K.c.g.s.<.<.o.>.<.4.s.h.j.j.K.K.K.K.A.h.5.@.{ ( C h y y y y y y y y y y y y y y y y f y y f f y y y y y y y f g g h h l l l h h g g d f f y y f g C C ( { #.f.Z.F.F.G.G.L.L.Y.Y.Y.Y.Y.Y.Y.{.{. X{.U.l.a.a.o.+.a.g.x.N.~.^.^.^.].].].].].].].}.].].].N.a.i.a.s.<.+.o.o.a.n.[. X|.|.|.|.|.|.|.|.|.|.|.|.|.|.|.|.OXOXOXOX XOXOXOX:X:X:X:X:X:X:X2X2X2X2X2X2X2X3X4XjXkXcXGXLXPXPXPXIXIXIXIXIXIXIXIXIXIXIXPXPXLXLXGXZXkX4X%X+XY.L.F.Z.F.I.jXZXZXjX+XY.K.j.d.d.d.f.f.f.j.A.j.l.U. X0XbX0X7X7X7X8X8X8X8X0X0X0X0X0X0X0X0X0X5X0X8X8X0X8XlXjXjXnXGXGXZX8X$X{.Y.L.K.K.K.K.L.{.*XjXbXbXlX5X5X5X5X8X8X8X8X8X8X8X4X4X4X4X4X4X4X4X4X4X3XT.T.$X4X4X4X4X4X3X3X3X2X2X3X3X3X3X3X3X$X$X3X3X2X2X2X2X2X2X2X2X$X$X$X$X$X$X$X$X$X$X$X$X$X$XY.Y.T.T.Y.T.T.+X$X$X$X$X$X$X$X$X$X+X+X X&X$X X X X{.{.Y.Y.$X$X{.K.A.A.f.f.#.#.A.K.L.U.U.{.Y.U.U.U.U.K.K.K.K.K.K.K.K.N.N.D.K.K.K.U.l.h.h.h.h.h.k.n.N.N.N.n.k.g.a.d.a.d.h.l.n.n.n.n.n.n.n.n.n.n.n.n.n.n.n.n.n.n.n.n.x.x.s.s.s.<./ / >.s.x.x.x.s.s.s.s.s.p.3.3.p.p.p.p.p.p.p.p.p.a.4.4.3.3.3.3.3.3.3.3.3.<.<.<.<.<.>.>.>.>.>.2.1.A.+X&XXXK.d.>./ / *.*.*.*.*.^ ^ ^ ^ ^ ^ ^ ^ ^ ^ ^ ! ! ^ ^ ^ ^ ~ ~ ~ ~ ~ ~ } | ,.,.O.| [ ' T C C C C ( [ [ ) ) { { ) ( C A N Z Z S S S H H S H S S S S Z Z Z Z M M M M M M M Z H H Z M M M M M n M M M n n b n m m n n n n n n n n b b i b i i b b b b i i b b b b i i i i i i e e e e w w w w w w w w i i i i i i i i 4 i i i i i i i 3 3 3 3 ",
"[. X6X6XOX XOX&X6X6X6XuXuXuXuXuXuXuXuXuXuX6X6X&XOXOXXX{.[.).c.g.4.<.o./ / / >.>.<.<.1.d.g.g.d.1.+.[ ( Y V f y y q y y y y y y y y y y y y y f f f y g g y f y y f f f f g g g h h h h h h g g d f y y f f g h C ( [ @.f.Z.Z.Z.F.F.F.F.G.G.G.G.L.L.L.U.{.{.{.[.K.n.a.a.+.a.k.N.~.~.~.^.^.^.].^.^.].^.].].].].}.~.k.k.k.k.a.o./ / <.c.K.[.|.|.|.|.|.|.|.|.|.|.|.|.|.|.|.|.|.|.OXOX XOXOXOX:X:X:X:XOXOX:X:X2X2X2X2X2X4XjXnXZXLXLXPXPXPXIXIXIXIXIXIXIXIXIXIXIXPXPXPXPXPXPXPXLXGXGXZXkXjX+XG.Z.u.F.R.kXkX%XY.K.A.u.+.#.#.#.#.#.u.f.u.u.j.U.$XlXlX4X7X7X8X8X8X8X8X8X5X5X5X0X5X8X8X8X8X5X5X8X5X5XjXlXZXGXZX8X+XU.K.K.K.A.A.A.A.A.F.L.+X8XbXzX5X5XjX5X5X5X5X4X4X4X4X4X4X4X4X4X4X4X4X4X4X3X$X$X3X4X4X4X3X3X3X3X3X2X2X2X2X$X2X3X3X3X$X3X3X2X2X2X2X2X2X2X2X$X$X$X$X$X$X$X$X$X$X$X$X$X+XY.T.T.T.T.T.T.T.+X$X$X$X&X&X&X&X+X&X&X&X&X&X+X X X{.{.Y.{.$X+XG.f.u.f.A.f.f.y.f.A.K.K.K.U.Y.Y.U.U.U.K.K.K.l.l.K.K.K.K.U.U.l.l.K.K.h.h.h.h.h.k.l.n.N.N.N.n.l.c.d.d.d.d.g.c.n.n.n.n.n.n.n.n.n.n.n.n.n.n.n.n.n.x.x.x.x.s.s.4.<.=./ >.<.s.x.x.s.s.s.s.s.s.p.p.p.p.p.p.p.p.p.p.p.a.3.3.3.3.3.3.3.3.<.<.3.3.<.<.<.2.2.2.>.>.>.>.>.g.XX*X+XZ.1.o.o./ ^ *.*.*.*.^ ^ ^ ^ ^ ^ ^ ^ ^ ^ ^ ^ ! ! ~ ^ ^ ^ ~ ~ ~ ~ ^ W J W | ,.4.1.<.| W Y Y C ( @.h.f.7.7.f.7.#.{ ( D S S S H H H H H H H S S S Z Z Z Z M M M M M M M M M Z Z Z Z M M M M M M M M n n n n m m m n n n m m n b b b i i i i i i b b i i i i b i i i p p i i e e e e 0 0 w w w w 0 w i i i i i i i i i i i i i i i 4 r 3 3 3 ",
"U.Y. X X X X XOXOXOX6X6X6XyXuXyXyXyXyXyXuX6X6X&XOXOX X.X).N.c.g.<.>.o.^ ^ ^ ^ / ^ o.o.>.o.o.o.[ T Y V f f y q q y y y y y y y y y y y y y f d g g a g g g g u d d d d d d g g g g g g g h g g d u f y f f g h C Y [ X.#.u.Z.Z.Z.Z.A.Z.F.F.G.G.F.G.K.K.U.[.[.[.[.N.k.x.a.k.n.B.~.~.^.~.~.^.^.^.^.~.^.^.^.].].].].M.n.n.N.c.a.a.+.o.a.N.[.|.|.|.|.|.|.|.|.|.|.|.|.|.|.|.|.|.|.OXOX X XOXOXOX:X:X:XOXOX:X:X:X2X2X$X4XkXZXLXLXPXPXIXIXIXIXIXPXPXPXPXPXPXPXPXPXPXPXPXPXPXPXPXLXLXLXLXLXGXmXgXP.V.V.R.jXjXR.K.A.u.y.X.X.#.#.#.X.X.#.#.#.f.F.Y.4X5X4X4X8X8X8X8X7X7X7X8X8X8X8X8X8X8X8X8X8X8X8X5X5XjXnXFXFXjX+XK.K.K.D.j.h.f.f.f.f.j.A.K.$X8XbXlXjXlXkXxXxXxX5X4X4X4X4X4X4X4X4X4X4X4X4X4X3X$X3X4X4X4X4X3X3X3X3X3X2X2X2X2X$X2X3X3X2X2X2X3X2X$X2X2X2X$X2X2X$X$X$X$X$X$X$X$X$X$X$X$X$X$X+X X+X+X+X+X+XT.R.$X&X&X&X&X&X{.{.{.{.{.XX&X+X{.$X$X X{.$X&XL.f.#.#.#.f.#.f.f.f.j.K.K.K.L.U.Y.U.U.L.U.[.[.K.l.K.K.U.U.U.K.l.D.l.j.h.d.h.h.h.l.l.N.N.n.n.n.l.j.h.d.a.d.d.g.n.n.n.n.c.k.n.n.n.n.k.k.k.x.x.x.x.x.x.x.x.s.s.a.<.<.<.a.s.s.x.s.s.s.s.s.s.p.s.p.p.p.3.3.3.p.p.a.3.3.4.4.4.3.3.3.3.<.<.<.3.3.<.<.<.2.2.2.>.>.>.>.<.g.K.J.5.[ W W E W ^ ^ ^ *.^ ^ ^ ^ ^ ^ ^ ^ ^ ^ ^ ^ ^ ! ! ~ ^ ^ ~ ~ E E ~ ~ E S H } ,.4.5.| Q W W T [ +.A.L.`.L.L.K.H.7.@. . .} J H H H H H H H S S S Z Z Z Z M M M Z M M M M M M b b n M M M M M M M M M n n n n m m m n n n m n n b b b i i i i i i b b i i i i b b i i p p i i e e e e 0 w w w w 0 0 w i i i i i i i i i i i i i i i 4 i 3 3 r ",
"lX8X$X$X{.[.[.|.OXOXOXOX,X6X6X6XyXyXyXyXyX6X&XOXOXXX{.[.).c.x.4.<.>.o.^ ^ ^ ! ! ! ^ | | ^ Q Q Q Y C f f f y y q y y y y y y y y y y y s d d d g g g g g g g g g d d d d d d d d d d d d d d d d d g g d d g g h K ) { ` #.#.u.u.V.Z.A.F.F.G.G.G.G.K.K.K.U.[.[.[.B.N.N.N.N.B.~.~.~.~.~.~.~.~.^.^.].].].].].].].].].N.N.N.c.g.k.a.a.l.[.].].].].|.|.|.|.|.|.|.|.|.|.|.|.|.|.|.|. X X X X X XOX:XOX X X:X:X:X2X2X4XkXGXLXPXPXPXPXIXIXIXPXPXPXLXLXLXLXLXGXGXGXGXLXLXLXLXLXLXGXGXGXGXLXLXLXGXcXR.G.R.lX4XT.F.u.#.X.X.#.` ` ` ` ` ` ` #.u.A.F.R.4X%X4X7X7X8X8X7X7X7X7X8X8X8X8X7X7X7X7X8X8X8X8X5XlXVXFXvX$XL.K.K.j.f.f.f.f.#.#.5.f.h.A.L.$XlXbXVXVXVXVXVXVXnXlX8X4X4X4X4X4X4X4X4X4X4X4X4X4X4X4X3X3X3X3X3X2X2X2X2X2X2X2X$X$X2X2X2X2X2X2X2X2X2X2X$X$X$X$X$X$X$X$X$X$X$X$X$X$X$X$X$X$X$X$X$X$X+XR.R.R.+X*X&X{.{.{.).K.K.K.K.H.K.).{.{.&X&X X{.&X{.K.f.Z.#.#.#.@.f.f.f.D.L.U.Y.Y.U.U.U.U.U.U.{.XX{.K.K.K.K.K.K.K.K.l.h.d.d.h.h.h.h.l.N.N.N.N.N.N.n.l.h.d.a.d.d.c.n.n.n.n.c.k.c.n.n.n.k.k.k.x.x.x.x.x.x.x.x.x.x.s.s.s.s.s.s.s.s.s.s.s.s.s.s.p.p.p.p.p.p.p.a.p.a.3.3.3.3.3.3.3.3.3.3.3.3.3.<.<.<.2.2.2.2.<.<.>.>.>.4.h.5. .[ T T D S E ^ ^ ^ *.^ ^ ^ ^ ^ ^ ^ ^ ^ ^ ^ ! ! ! ! ~ ~ ~ ~ W ~ ~ ~ W S Z N S '  .| W T [ O.5.5.j.K.{.XXXX{.`.H.f.5.7.h.,.W H H H S S S S S S Z Z Z Z Z Z M Z M M M M M M M Z Z M M M M M M M M M n b b b n n n n n n n n n e e b b i i i b i i i i b b b i e e w w e e e e e e e e w w w w 0 0 w w i i i i i i i i i i i i i i i i i r 3 3 ",
"FXFXAXBX8X{.[.[.|.OXOXOXOX,X,XwX9XyXyXyXyX6XOXOXXXXX[.).N.c.s.4.<.>.>.o.^ ^ ^ ! ~ ~ Q Q ~ Q E T Y C h f f y y y y q y y y y y y y y s s f d d g g g l l g g g g d d d d d d d d d d d d d d d d d d d d d d g h l ) ) ` ` #.#.#.V.Z.F.G.L.L.G.L.G.K.D.D.K.K.U.U.~.B.B.B.~.~.~.~.~.~.~.~.~.~.~.~.].~.~.~.].].].].].].U.N.l.n.k.k.m.U.].].].].|.|.].].].].|.|.|.|.|.|.|.|.|.|.|.|. X X X X X X X XOXOXOX:X2X2X4XkXGXPXPXPXPXPXPXPXPXPXLXLXGXFXFXFXZXCXCXCXCXZXFXFXFXFXFXFXFXFXFXFXGXGXLXLXLXZXkXjXlX4XY.F.u.#.X.#.#.` ` ` ` ` ` ` ` u.Z.F.R.4X$X$X4X7X7X7X4X4X4X4X7X8X7X8X7X7X7X7X8X8X8X8X5XxXFXBX%XY.K.K.A.f.#.#.#.#.#.#.#.7.f.j.K.{.8XVXAXnXlXlXjXvXbXnXbX8X4X4X4X4X4X4X3X3X3X3X4X4X4X4X3X$X3X$X3X2X2X2X2X2X2X2X$X$X2X2X2X2X2X2X$X$X$X$X$X$X$X$X$X$X$X$X$X$X$X$X$X$X$X$X$X$X$X$X$X$X$X$X$X%X%X$X{.{.).K.c.h.c.c.g.g.c.j.j.K.{.{.{.{.{.L.D.A.F.#.X.X.X.5.f.f.D.U.Y.Y.Y.U.U.U.U.U.K.U.{.U.K.K.K.K.D.N.N.l.h.y.y.d.d.d.h.h.l.N.N.N.N.N.n.l.j.g.d.a.d.d.k.n.n.n.n.c.k.k.n.k.k.x.x.x.x.x.x.x.x.x.x.s.x.x.s.s.s.s.s.s.s.s.s.p.p.p.p.p.p.p.p.p.p.a.a.a.a.3.3.3.3.3.3.3.3.<.3.3.3.3.3.<.<.<.2.2.<.<.<.<.>.>.>.4.h.,.O.O.[ Y V W ,.>.*.*.^ ^ ^ ^ ^ ^ ^ ^ ^ ^ ^ ^ ! ^ ! ! ~ ~ ~ ~ W W ~ ~ W S M b b Z D S S E  .8.j.j.H.K.`.`.XXXXXX`.A.Z.H.H. .J H H H S S S S S S Z Z Z Z Z Z M Z Z Z Z M M M M M Z M M M M M M M M n n b b b n n n n n n n n n e e b e i i i b i i i i b b i i e w w w e e e e e e e e w w i w w w e e i i i i i i i i i i i i i i i i i r 3 3 ",
"8XbXCXFXCX7X{.[.[.[.[.|.OXOX,X,X9X9X9XyXyX6XOXOXXX[.).N.c.s.4.3.<.>.<.>.>.o.^ ^ ^ ^ Q Q ~ E E T Y C h f f y y y y y y q q q y y y y s s s d d g g g l l g g g g d d d d d d d d d d d d d d d d d d d d d d l l l l ) ) ` ` #.#.Z.F.G.L.L.L.L.L.G.A.j.h.l.N.N.N.N.B.B.B.~.~.~.~.~.~.~.~.~.~.~.~.].].~.~.~.~.].].].].].].U.B.B.B.].].].].].].].].].].].].].|.|.|.|.|.|.|.|.|.|.|.|. X X X X X X X X X X X$X4XkXGXPXPXPXIXPXPXPXLXLXGXFXVXnXnXbXbXuXuXuXuXuXbXbXbXbXbXnXNXnXnXnXnXCXFXGXGXLXLXGXZXnX%XG.F.F.u.#.#.` ` ` ` ` ` #.V.#.#.Z.F.I.R.R.T.3X4X4X4X7X4X7X7X7X7X4X8X7X7X7X7X4X7X7X4X5XxXZXlX$XL.D.A.f.#.` #.#.#.` X...#.#.f.G.{.%XvXlX%X$XT.{.+X$X8XbXbX8X4X4X4X4X3X3X3X3X3X4X3X4X4X3X$X3X$X3X2X2X2X2X2X2X2X2X2X2X2X$X2X2X2X$X$X$X$X$X$X$X$X$X$X$X$X$X$X$X$X$X$X$X$X$X$X$X$X$X$X$X%XjXjX*X+XL.K.K.H.h.g.5.5.4.4.5.g.d.h.j.K.{.{.{.K.j.f.f.` ) { X.f.j.h.D.U.U.Y.U.U.U.U.U.L.K.K.K.K.K.K.K.K.D.l.l.l.l.d.d.h.h.h.h.h.j.l.l.l.l.l.n.n.g.d.d.d.d.d.k.n.n.n.n.c.c.k.n.k.n.x.x.x.x.x.x.x.x.x.x.x.x.x.s.s.s.s.s.s.p.a.p.a.a.a.a.3.p.p.p.a.a.4.4.4.3.3.3.3.3.3.3.<.<.<.3.3.3.3.3.<.<.<.<.2.<.<.<.<.>.>.>.4.g.O.o.O.O.O.T ' ,.:.>.*.^ ^ ^ ^ ^ ^ ^ ^ ^ ^ ^ ^ ! ! ! ~ ~ ~ ~ ~ E W W W W S N b b n Z S S W ,.c.).).).).).`.XX&X&X`.K.H.Z.5.' S H H H S S S S S S Z Z Z Z Z M Z Z H H Z Z M M M M Z Z M M M M M M n n n b b b n n n n n n n n n b b b e i i b b b b i b b b b b e e w w e e e e e e e e w w w w w w w w i i i i i i i i i i i i i i i i i r r r ",
"N.[.$X8XbXbXuX X[.K.).[..XoXOX,XwXwXyXyXyX6X,XOXXX[.K.n.x.4.3.2.<.<.<.<.<.>.>.>.| ^ ^ Q W E T T D C h f f f f f y y y y y q y y y s s d s d d d d d l l g g g d d d d d d d u u u u u s s s u d d d d d l l l l l ) ) ) _ ` #.V.Z.F.L.L.Y.L.L.L.F.j.d.d.h.l.N.N.N.N.B.B.~.~.~.~.~.~.~.~.~.~.~.~.~.~.~.~.~.~.~.~.].].].].].].].].].].].|.].].].].].].].].].].|.|.|.|.|.|.|.|.|.|.|. X X X X X X X X X X$X4XkXGXLXPXPXPXPXPXLXGXFXFXMXbXuXuXuX6X6X6X6X6X6X6X6XyX6X8X0XpXpXpXpXpXbXbXbXnXFXGXLXLXLXZX4XG.F.G.u.#.#.` ` ` ` ` ` q.V.u.u.Z.F.F.T.T.T.$X3X4X4X4X4X4X4X7X7X4X7X4X4X7X4X4X4X4X4X4XbXBX8X$XY.A.u.#.` ` ` ` ` ) ) { ` ` #.G.Y.+X*X{.L.F.D.A.F.L.Y.*XbX8X$X$X$X3X4X3X3X3X3X3X3X3X3X3X$X3X3X3X2X2X2X2X2X2X2X2X2X2X2X$X$X2X2X$X$X$X$X$X$X$X$X$X$X$X$X$X$X$X$X$X$X$X$X$X$X$X$X$X$X$XvXnX*X@X+XF.D.g.d.5.5.5.,.+.<.1.1.1.1.1.d.K.{.{.{.j.j.f.#.` #.#.f.j.j.K.U.Y.Y.U.U.U.U.U.K.K.K.K.K.K.K.K.K.D.l.l.l.K.K.K.K.j.d.d.h.c.l.l.l.l.n.n.c.h.a.d.d.a.g.k.n.n.n.k.c.c.k.k.k.n.x.x.x.x.x.x.g.x.x.x.x.x.s.s.s.s.s.s.p.a.a.a.a.a.a.3.3.p.p.p.a.a.a.4.4.3.3.3.3.<.3.3.<.3.3.3.3.<.<.<.<.<.<.<.2.<.<.<.<.>.>.>.>.o.E [ ,.h.h.5.| } | ^ ^ ^ ^ ^ ^ ^ ^ ^ ^ ^ ~ ~ ~ ~ ~ ~ ~ ~ ~ ~ ~ W W W W W J S Z b Z J E J W :.c.)._.{.XXXX&X&X&XXX`.j.7.O.' S S H H H S S S S S S Z Z Z Z Z M Z Z S H Z Z Z M M M Z Z M M M M M M n n n b n n n n n n n n n n n b b e e i i b b b b b b b b b b e e w w e e e e e e e e w w w w w w w w i i i i i i i i i i i i i i i i i r r r ",
"z.x.m.N.[.&XpXpX6X[.N.~.[..XOX,XwXwXyXyXyX6X,XOXXX[.N.c.s.4.<.3.3.3.3.4.4.4.3.>.o.o.| Q W E T D C C C f f f g g f f f f f y y y y y s s d d d d d d d d d d d d d d d u s s s u s s s 8 8 8 s s u d d d l l l l l z ) ) _ ` #.V.S.G.L.Y.Y.Y.L.G.A.f.d.d.x.n.N.N.B.B.B.~.~.~.~.~.~.~.~.~.~.~.~.~.~.~.~.~.].].].].].].~.].].].].].].].].].].].].].].].].].].].|.|.|.|. X X|.|.|.|. X X X X X X X X X X$X4XnXGXLXPXPXPXPXLXGXFXVXbXuXuX6X6X&XOXOXOXOXOXOXOXOXOXOXOXOX&X6X6XuXyXyXuXuXuXuXnXVXFXGXGXGXcX%XL.F.Z.u.#.) ` ` ` ` #.#.u.u.u.u.F.G.T.R.T.T.$X4X4X4X4X4X4X7X7X7X7X7X7X7X4X4X4X4X4X4XbXbX4X$XL.Z.V.` { ` ` ` ` ) ` ` ` ` #.Z.L.{.{.F.f.u.u.u.u.f.D.Y.%X8XT.Y.$X3X3X3X3X3X3X$X$X4X4X4X4X4X3X3X2X2X2X2X2X2X2X$X$X$X$X$X$X$X$X$X$X$X$X$X$X$X$X$X$X$X$X$X$X$X$X$X%X%X$X$X%X%X%X$X%XjXVXjX+XY.L.A.g.5.5.5.+.O.O.[ [ [ O.O.O.+.1.d.K.{.{.K.h.A.e.#.Z.7.f.h.K.U.Y.Y.Y.U.U.U.U.U.K.K.K.K.K.K.K.K.D.l.j.j.D.Y.{.{.{.j.d.d.d.d.h.c.k.c.c.c.h.d.d.d.a.a.x.n.k.k.x.k.h.g.x.k.k.x.x.x.x.x.x.g.s.s.s.x.s.s.s.s.s.s.p.p.p.p.p.p.p.a.a.a.3.p.a.3.3.3.3.3.3.4.1.<.<.<.<.<.<.<.<.<.<.<.<.>.>.>.>.>.>.>.>.>.>.>.>.>.>.| W Q 4.H.H.7.| ^ | ^ ^ ^ ^ ^ ^ ! ! ! ! ~ ~ ~ ~ ~ ~ W W W W W ~ W W W W ~ W J H Z Z J W J W :.c.).XXXX&X&X-X&XXX`.8. .' J S S Z S S S S S S S S S Z Z Z Z Z M M Z Z Z Z Z Z Z Z M M M M n n n n n n n n n n n n n n m n n n n n n n b b i i b b i i i i e e e e e e e e e e e e e e e e i i i i w w w w i i i i i i i i i i i i 3 3 r r 3 3 3 3 ",
"p.p.p.z.x.N.[.6XpX6X[.!.^..XoXOXwXwXwXyXyXyX6XOXOX[.N.c.s.3.<.3.4.4.4.4.s.s.4.4.<.o.| | W W T D C C C f f f h C C C C h g f f y y y s s s d d d d d d d d d d d d d d s s s s u s s 8 8 8 8 8 8 s s s d k l l l l z ) ) _ ` q.V.S.L.L.Y.R.Y.L.F.f.5.1.1.g.n.N.N.B.B.B.B.~.~.~.~.~.~.~.~.~.~.~.~.~.~.~.~.~.~.~.~.].].~.~.~.~.].].].].].].].].].].].].].].].].|.|.|.|.|.|. X X X|. X X X X X X X X X$X4XnXGXLXPXPXPXLXLXGXFXbXuXuX6XOXOXOXXXXX|..X.X.X.X|..X|..X.X.XXXOXOXOXOXOX&X&X6X8XuXlXnXFXGXGXGXnX%XF.Z.Z.#.` ` ` ` #.#.` ` ` ` u.A.F.T.R.R.T.$X3X4X4X4X4X4X4X4X4X4X4X4X4X4X4X4X4X4X4XzXvX8X+XL.Z.V.` ` ` ` ` _ ` #.` ` ` ` Z.L.Y.Y.A.u.#.X.#.X.#.u.A.Y.3X$XT.$X3X3X3X3X3X3X$X$X3X3X3X3X3X3X2X2X2X2X$X$X$X$X$X$X$X#X$X$X$X$X$X$X$X$X$X$X$X$X$X$X$X$X$X3X$X$X$X%X$X$X%X%X8X%X+X4XnXnX%X+XL.F.f.5.5.5.5.@.O.{ { { [ { { { X.O.O.g.).&X`.A.A.e.#.u.#.f.G.{.$X&X&X$X{.{.Y.K.K.K.K.K.K.K.K.K.K.D.l.j.j.D.D.D.K.K.j.d.d.d.d.a.d.g.g.d.d.d.d.d.d.a.a.k.k.g.a.a.d.d.a.g.g.x.x.x.x.x.g.x.g.g.g.g.s.s.s.s.s.s.s.p.a.a.p.p.p.p.a.a.a.a.a.3.3.3.3.3.3.3.4.1.<.<.<.<.<.<.<.<.<.<.<.<.>.>.>.>.>.>.>.>.>.>.>.>.>.>.o.^ ^ ,.8.8.,.} | | ^ ^ ^ ^ ^ ^ ! ! ! ^ ~ ^ ~ ~ ~ ~ W W W W W W W W W W ~ W J J S H H ~ ~ :.8.H.)._.XXXXXXXX`.H.5.' S Z Z H H S H H H S S S S F Z Z Z Z Z Z M M M M M M Z Z M M M M M M n n n n n n b m n n n n n n n n n n n n n n b b b i b b i i i i e e e e e e e e e e e e e e e e i i i i w w w i i i i i i i i i i i i i 3 3 3 3 3 3 3 3 ",
"p.3.-.-.-.-.p.N.OXyXOX!.^./.oXOXwXwXyXyXyXyX6XOXOX[.K.n.g.4.<.3.3.4.s.s.c.c.c.s.4.<.o.| W T D D C C C V V C C C C C C C C C C f f f y f y u d d s s d d s s s s d s s s s s s s s s s s 8 8 8 8 8 8 s s k l l l l z ) ) _ ` q.Z.G.L.Y.R.R.Y.L.A.d.+.+.1.a.n.N.N.B.B.B.B.~.~.~.~.B.B.B.~.~.~.~.~.~.~.~.~.~.~.~.~.~.~.~.~.~.~.].].].].].].].].].].].].].].].|.|.|.|.|.|.|.|.|.|.|. X X X X X X X X X$XkXGXLXPXPXLXLXGXFXCXbXuX6XOXOXXX.X[.[.[.[.[.[.[.[.[.[.[.[.[.[.[.[..X.X.X.X{.XXOX&X&X&XuXvXCXFXGXFXkXL.D.K.A.u.u.#.#.V.u.` ) ` ` ` u.F.Y.R.R.T.T.3X4X4X4X4X4X4X4X4X4X4X4X4X4X4X4X4X4X8XlX8X%X+XG.#.#.#.` ` ` ` ` #.V.` ` ` ` #.G.G.L.f.#.X.X.` ` X.#.u.A.T.4X3X$X3X3X3X3X3X3X$X$X$X$X$X$X$X$X$X$X$X$X$X$X$X$X$X$X#X#X$X$X$X$X$X$X$X$X$X$X$X$X$X$X$X2X8X8X$XY.+XT.Y.Y.Y.Y.+X%X*XjXnXjXR.L.F.A.5.5.+.+.O.{ { { { ) ) { { ) [ { [ 1.K.XXXXL.A.S.G.G.G.L.*XvXvXvXvXuX*X$X{.{.Y.K.K.K.K.K.K.K.K.D.j.h.j.l.d.+.y.d.j.h.d.a.a.d.d.d.d.d.d.d.d.d.d.a.g.g.a.d.y.+.+.+.+.1.a.g.g.x.x.x.g.h.g.j.K.).K.N.c.s.s.s.p.a.a.a.p.p.p.p.a.a.p.p.3.3.3.3.3.3.3.3.1.<.<.<.<.<.<.<.<.<.<.<.<.>.>.>.>.>.>.>.>.>.>.>.>.>.>.>.*.*.^ | >.:.| | | | ^ | ^ ^ ^ ^ ^ ^ ! ^ ^ ^ ^ ^ ~ ~ W W W W W W W W W W ~ W J H J H J ~ } ,.8.c.c.c.c.c.8.8.,.} J Z M Z H H H H H S S S S S F Z Z Z Z Z Z Z M M M M M M m M n n M M M M n n n n n b b n n n n m n n n n n n n n n n b b b b b b b b i i e e e e e e e e e e e e e e e e i i i i w w w i i i i i i 4 i i i i i i 3 3 3 3 3 3 3 3 ",
"s.3.=.=.&.&.*.=.x..XOX[.^.^..XoXOXwXwXyXyXyX6X,XOX[.K.c.g.4.<.3.4.4.s.c.c.c.c.c.g.1.<.o.Q T D D C C V V V C C Y ( ( ( ( ( D C C g g f y y y u s s s s s y y y y s s s s d d u u d s s s s 8 8 8 8 8 s s l l l l z z ) ) _ ` q.Z.G.L.R.+XR.Y.G.Z.#.O.o.1.a.x.N.!.B.B.B.B.~.~.~.~.B.B.B.B.~.~.~.~.~.~.~.~.~.~.~.~.~.~.~.~.~.~.].].].].].].].].].].].].].].].].|.|.].].].].].|.|.|.|.|. X X X X X X X5XFXLXLXPXLXLXGXFXbXpX6XOXOXXX.X.X[.[.).).!.!.).).).).).).).!.!.).).).).).).).).{.XXOXOX&X6XuXCXFXFXFX%XL.K.D.Z.Z.#.u.Z.u.` ` ` #.#.u.G.T.R.T.T.T.3X4X3X4X4X4X4X4X4X4X3X3X3X3X3X4X4X4X4X8X4XR.R.F.` #.#.#.#.#.#.#.#.#.` ` ` ` #.Z.Z.L.Z.#.#.X.` { X.X.#.u.I.$X3X$X$X3X3X3X3X3X$X$X$X$X$X$X$X$X$X$X$X$X$X$X$X$X$X$X#X#X#X$X$X$X$X$X$X$X$X$X$X$X$X$X$X7X8X+XG.F.K.K.K.D.D.A.K.{.*X8X*X+XL.Z.Z.f.5.+.@.O.{ ) ) ) { ] ) ) ) ) ) { O.5.h.K.{.L.L.+XjXjX*X*X*X*X*X&X+X{.+X{.{.{.{.L.K.K.K.K.K.K.K.K.K.K.K.l.g.y.a.g.K.l.h.d.d.d.a.d.d.d.d.1.1.a.d.g.g.a.y.+.+.+.+.+.+.+.1.1.d.g.g.g.g.j.L.&XuXuX-XOX[.N.N.c.s.a.a.a.4.4.4.a.a.a.a.3.3.3.3.3.3.3.3.3.<.<.<.<.<.<.<.<.<.<.<.<.<.<.>.>.>.>.>.>.>.>.>.>.>.>.>.>.*./ / ^ ^ ^ | ^ ^ | | ^ ^ ^ ^ ^ ^ ^ ^ ! ^ ^ ^ ~ ~ ~ W W W W W W W W W W ~ J J H H H J J W } :.,.:.} } ~ J H H S Z Z Z S H H H H S S S S S F Z Z Z Z Z Z Z Z M M M M M M M M n M M M M M n n n n b b b b b m m m n n n n n n n n n n b b b b b b b i i i e e e e e e e e e e e e e e e e i i i i 0 0 w i i i i i i i i i i i i i 3 3 3 3 3 3 3 3 ",
"<.3.*.^ ! ! ! &.=.x.[.oX/.^.}.oXOXwXwXyXyXyX6X6XOXOX[.N.c.4.<.3.4.4.c.c.c.c.c.c.h.5.1.o.[ T D D V V V V C D ( ' ' ' ' ' ' ( D C C g g f f y y s s s s s y s s s s d d d d d d l k k k s s s 8 8 8 8 s d l l l z z z z ) ) ` #.V.S.L.L.R.R.Y.G.Z.#.O.O.+.a.x.N.N.B.B.B.B.B.B.B.B.B.B.B.B.B.B.~.~.~.~.~.~.~.~.~.~.~.~.~.~.~.~.].].].~.].].].].].].].].].].].].].[.].|.].].[.].|.|.|.|.|. X X X X X$XnXGXLXLXLXLXHXCXpXyX6XOXOXXX.X.X.X).!.!.!.!.!.!.!.!.!.N.m.m.m.m.!.).).).N.N.K.).).[..X{.XXXX&XuXCXCXFXvX+XK.D.D.Z.u.u.Z.V.` ` #.V.#.u.I.T.T.T.T.T.$X3X3X3X3X3X4X4X4X4X4X4X4X4X3X4X4X4X4X4X$XG.L.S.#.#.q.Z.V.#.#.#.V.#.` ` ` #.` #.S.L.A.u.X.{ ` ` ` ` X.u.F.$X$X$X$X$X3X3X3X3X$X$X$X$X$X$X$X$X$X$X$X$X$X$X$X$X$X$X$X$X$X#X#X#X$X$X$X$X$X$X$X$X$X$X8X4XT.K.D.D.D.D.D.j.f.f.f.F.+X+XY.G.V.#.#.#.#.@.{ ) ) ( K ) ) ) ) ) ) ) ) ..@.5.5.A.L.L.%XmXFXZXjX+XL.J.H.A.A.h.f.A.L.{.U.K.K.K.K.K.K.K.K.K.K.K.K.N.c.g.a.l.[.K.l.h.d.d.d.d.d.d.d.d.d.d.d.d.d.d.+.+.+.+.+.+.+.+.+.+.+.d.d.d.A.+XjXvXuX-XXX.X[.).).).s.a.a.a.4.a.a.a.3.3.3.3.3.3.3.3.<.<.<.<.<.<.<.<.<.<.<.<.>.>.<.<.<.<.>.>.>.>.>.>.>.>.>.>.>.>.*.*.*./ / / *.*.^ ^ ^ ^ ^ ^ ^ ^ ^ ^ ^ ^ ^ ^ ^ ^ ^ ^ ~ ~ W W W W W W J J J J J J J J J J J J J J J J J H H H S S S S S S H H H H H H S Z Z Z Z Z Z Z M M M M M M M M Z Z M M M n n n M M M M n n n n b b n n n n n n b n b b n n n n b b b n n n b b b b b b e e e e e e e e e e e e e w w w i i i i 0 0 0 i i i i i i i i i i r r r r r r r 3 3 3 3 ",
">.*./ ^ ! E ! ! ! -.N..X.X^.^..XoX,XwXwXyXyX9X6XOXOXXX).c.g.4.3.4.4.c.c.c.c.c.c.h.5.1.o.Q W D D V V V V D Y ( ' [ [ { { [ ' ( ( D A h g f f f f d s d d s s s s d d d d d l l l l k k s s s 8 8 8 8 s k l l l z z z z z ) ) ` #.Z.G.L.R.R.Y.G.Z.#.O.O.+.a.x.m.N.M.M.B.B.B.B.B.B.B.B.B.B.B.B.B.B.~.~.~.~.~.~.~.~.~.~.B.B.~.~.].].].~.].].].].].].].].].].].].].].[.[.|.|.[.[.[.[.].|.|. X X X X X4XFXLXLXLXGXHXCXpXyX,XOXOX.X.X.X[.).!.m.m.m.m.m.c.c.c.c.c.c.c.c.c.m.m.m.c.c.c.c.c.c.!.).).[..XXX&XuXNXCXbX8X$XK.D.Z.u.u.F.F.u.#.Z.V.` V.T.T.T.T.T.T.2X3X3X3X3X3X3X3X4X4X4X4X4X3X3X3X3X3X4X4XT.F.G.G.V.#.V.Z.q.#.V.V.V.#.` ` ` ..` #.Z.G.Z.#.#.` #.#.` ` #.#.F.T.$X$X$X$X3X$X3X3X3X3X$X$X$X$X$X$X#X#X$X$X$X$X$X$X$X$X$X$X#X#X#X#X$X$X$X$X$X$X$X$X$X4X8X+XK.D.D.A.A.A.f.f.d.#.f.L.%X%XL.A.#.` ` X.X.) ( ( ( ( K ) ) ) ) ) _ ) ) ` 7.7.+.7.S.+XnXGXFXjXY.A.f.5.5.5.5.+.+.+.j.K.K.K.K.K.K.K.K.K.K.K.K.K.K.N.j.j.c.j.l.l.K.l.j.h.h.d.d.d.d.d.h.h.d.d.+.+.+.+.1.1.1.1.1.1.+.+.+.+.d.A.@XvXCXvXXXK.c.N.!.N.m.c.s.<.a.a.3.3.3.3.<.<.3.3.3.3.3.3.<.<.<.<.<.<.<.<.<.<.<.<.>.>.<.<.<.<.>.>.>.>.>.>.>.*./ *.*.*.*./ / / / *.&.&.^ ^ ^ ^ ^ ^ ^ ^ ^ ^ ^ ^ ^ ^ | ^ ^ ^ ~ ~ W W W W W W J J J J J J J J J J J J J J H J H H S S S S H S S S S S H H H H Z Z Z Z Z Z Z Z M M M M M M M M Z M M Z M M n n M M M M n n n n b b n n n n n b n n b b b b b b b b b b n n b b b b b b e e e e e e e e e e e e w w w w i i i i 0 0 0 i i i i i i i i i r r r i r r r r 3 3 3 3 ",
">.>.>.^ ^ ! ! R ! a.!..XOX.X^..XoXOX,XwXwX9XyX6X6X&XOX[.N.c.s.3.3.4.s.c.c.c.c.c.g.4.<.o.Q W D D V V V V D T W ' [ |  . . .[ [ ' ( Y C C h h h h h d d d d d d d d d d d l l l l l l k k s s 8 8 8 s k l l z z _ _ _ z z z ) _ ` q.Z.G.L.Y.L.G.Z.#.O.+.1.a.x.m.N.M.M.M.M.M.M.M.M.B.B.B.B.B.B.B.B.~.~.~.~.~.~.~.~.~.~.~.~.~.~.].].U.U.].].].].U.U.].].].].].].].].[.[.U.[.|.[.].].[.].].]. X X X$XxXGXLXLXGXHXNXpX6XOXOXoX.X.X[.).).N.c.c.c.c.c.s.4.4.4.4.c.c.c.c.c.c.c.x.s.4.4.4.s.x.c.c.N.).)..X{.&XuXvXbXbX8X XF.F.A.Z.G.A.u.#.u.u.V.Y.$XT.T.T.T.$X$XT.T.T.T.T.$X$X3X3X3X3X3X3X3X3X3X3X4X4X$XG.F.Z.Z.S.Z.Z.V.Z.Z.Z.S.q.q.q.` ` q.#.Z.G.Z.#.#.Z.V.#.#.#.#.` V.T.$X$X$X$X$X$X$X$X$X$X$X$X$X$X$X$X#X#X$X$X$X$X#X#X#X#X$X$X$X$X$X$X#X#X$X$X$X$X$X$X$X4X%XG.A.Z.Z.f.f.f.u.#.#.#.S.*XjX%XL.D.A.#.) ) ) ) ( h h l ) ) ) ) ) ) _ ) ) ` #.#.#.#.G.kXFXFXjXL.h.5.5.5.1.O.O.@.O.O.5.h.K.L.L.K.K.K.K.K.K.K.K.K.K.K.j.g.d.d.d.d.l.K.l.j.j.g.h.h.h.h.g.h.a.+.+.+.5.1.d.d.a.a.d.d.+.+.+.#.Z.+XnXnXjX`.h.>.>.3.4.x.m.m.x.4.4.<.3.3.3.3.<.<.<.<.<.<.<.<.<.<.<.<.<.<.<.<.<.<.<.<.>.>.>.<.<.<.>.>.>.o.>.>.>.*.*.*./ / / / / / *.&.&.^ ^ ^ ! ^ ^ ^ ^ ^ ! ! ! ! ^ ^ | | ^ ^ ~ ~ W W W W W W H H J H J J J J J J J J H J J H H H H H G G H G S F S S S S S S S Z Z Z Z Z Z Z Z Z M M M M M M Z M M Z M M n n M M M M n n n n n n n n b b b b n n n n n n n n b b b b n n b b i i b b e e e e e e e e e i e e w w w w i i i i 0 0 0 i i i i i 4 i i i 3 3 3 3 r r r r 3 3 3 3 ",
"*.>.<.<.o./ ! ! / n.[.OX,XOX.X/..XoXOXwXwX6XyX6X6XyX&XXX).c.g.4.3.4.s.c.c.c.c.c.s.4.2.o.| W J S D S S S D T T ' | |  . . . .| [ [ T Y Y Y Y Y ( C C C h h h h h d d d h l l l l l l k k s s 8 8 8 s k l l z _ _ _ _ _ z l z ) _ ` q.Z.G.L.L.F.Z.#.O.O.1.g.x.n.N.m.M.M.M.M.M.M.M.M.M.B.B.B.B.B.B.~.~.~.B.~.~.~.~.~.~.~.~.B.~.].].B.B.].U.].].U.U.].].].].].].].].[.[.U.U.[.[.[.].[.[.|.]. X X X8XVXGXGXGXFXbXyX6XOXOX.X.X.X[.).N.c.c.c.x.c.g.s.4.<.>.>.3.4.4.s.s.s.s.s.4.3.2.2.2.<.3.4.s.c.c.K.).{.XX-XuXuXuXbX7XG.u.u.u.u.u.#.#.u.F.T.$X$X$X$X$X$X$XT.T.T.T.T.T.T.T.$X2X3X3X3X3X3X3X3X3X3X$X$XY.A.u.F.G.Z.Z.Z.G.L.G.S.Z.G.S.q.#.Z.V.Z.F.V.#.f.Z.V.#.#.u.#.#.V.T.$X$X$X$XT.Y.T.$X$X$X$X$X$X$X$X$X#X#X#X$X$X$X$X$X#X#X#X$X$X$X$X$X#X#X#X$X$X$X$X$X$X8X$XF.Z.u.f.#.#.#.` X.X.#.L.jX*X+XL.G.L.Z.#.` ` ) ) l h ) ) ) l l ) ) ) ) _ _ ` #.#.V.%XZXZXjXL.f.5.5.,.O.O. .O.7.5.{ X.+.f.K.Y.L.K.K.K.K.K.K.K.K.K.D.j.5.+.+.+.d.j.j.j.l.j.c.c.c.c.c.h.d.d.+.+.+.1.d.g.g.g.g.g.d.+.+.X.#.P.vXnXgXL.5.| ~ ! ^ ^ >.g.N.K.x.4.3.3.3.3.3.<.<.<.<.<.<.<.<.<.<.<.<.<.<.<.<.<.<.<.<.>.>.>.<.<.<.>.>.>.o.o.o.>.>./ / / / / ^ ^ &.&.&.&.^ ^ ^ ! ^ ! ^ ^ ^ ! ! ! ! ^ ^ | | ^ ^ ~ ~ W W W W W W H H H J J J J J J J J J H J H H H H H H H G H H H S F S S S S Z Z Z Z Z Z Z Z Z Z M M M M M M M M M M M M M M M n n n n n n n n n n n n b b b b n n n n n n n n n n b b n n i i i i i i e e e e e e e e e e e e w w w w i i i i 0 0 0 i i i i i 4 i i i 3 3 3 3 3 3 r r 3 3 3 3 ",
"/ >.<.s.s.<.>./ <.p.N.K.|.OX.X^.}.oXOX,XwXwX6X6X6XyX-XOX.X!.c.s.4.3.4.s.c.c.c.s.4.4.<.>.| W E S D S S D S D E W | |  .O.| | | | [ [ [ [ ' ' ' [ [ [ ) ) ) ( ( ( l l h h l l l l l l l d s s s s 8 s k l l z z _ _ _ _ z l l z ) ` #.Z.S.F.F.A.f.+.O.+.1.x.n.N.M.M.M.M.M.M.M.M.M.M.M.M.M.B.B.B.B.B.B.B.B.~.~.~.B.B.B.~.~.B.B.B.B.B.B.~.~.~.~.].].U.U.].].].].].].].].].].[.[.].].[.].|.]. X X3XnXFXGXHXFXNXuXOXOXOX.X.X[.[.).m.c.5.g.g.5.5.1.1.<.>.>.o.o.<.4.4.4.4.4.4.4.4.2.2.,.,.,.1.4.4.g.c.H.).{.&XyX8X8XbXbXT.u.u.u.u.u.u.F.I.R.$X$X$X2X2X3X3XT.T.T.T.T.Y.Y.T.T.T.R.$X3X3X3X3X3X3X$X%X%X%X$XF.u.u.Z.V.F.F.G.G.G.G.L.G.G.G.q.` #.F.G.A.u.f.f.f.u.#.V.#.u.G.$X%X$X$XT.F.u.I.$X$X$X$X$X$X$X$X$X$X$X$X$X$X$X#X#X$X$X$X$X$X#X$X$XT.T.$X$X$X$X$X$X*X8XR.A.#.#.#.#.@.#.X.` ` ` Y.8X+XY.Y.L.G.Z.u.#.#.` ) ) l l z l l l l z ) ) ) ) _ ` ` S.kXFXkXP.Z.5.1.O.[ [ [ [ { 7.#.X.X.@.f.K.`.{.K.K.K.K.K.K.K.K.K.j.5.O.X.X.+.1.g.j.l.l.l.c.c.g.k.g.h.d.y.+.+.+.d.d.d.d.1.d.d.d.d.+.#.G.hXvXgXJ.5.| ~ W W E E E | h.).N.p.3.3.3.3.3.<.<.<.<.<.<.<.<.<.<.<.<.<.<.<.<.>.>.>.>.>.>.>.>.<.>.>.>.>.>.>.1.d.d.d.a.1.<.>.o.^ ^ ^ &.^ ^ ^ ! ! ^ ^ ^ ^ ~ ^ ^ ^ ^ ^ ^ | | ^ ^ ~ ~ W W J J J W J J J J J J J J J J J J H H H H H H H H J } J S S S S S Z Z Z Z Z Z Z Z M M Z Z M M M M M M M M M M n M n n n n n n n n n n n n n n n n b e e n N Z N n N N N N n n n n p i i i i e e e e e e e e w w w e e e e w w 0 0 w i i i r r r r i i i i 3 3 r r 1 1 1 1 0 0 0 0 1 1 1 1 ",
"^ o.>.<.1.<.>.<.s.h.d.N.[..X.X^.^.}.oXOX,XwX6X6X6X6XOXOXXX).m.s.4.<.3.4.s.s.4.s.4.4.2.>.| ^ W E S S S D S D E W W | | o.o.O.O.O.+.O.O. .| |  .O.O.X.X.{ ) ) ) ) ) ) ( K l l l l l l l k s s s s 8 s k l l z _ _ _ _ _ z l l l z ) ` #.Z.Z.Z.f.#.O.o.o.a.x.n.m.m.M.M.m.m.M.M.M.M.M.M.B.B.B.B.B.B.M.M.M.M.B.B.B.B.B.B.B.B.B.B.B.B.B.B.~.~.~.~.].].].].].].].].].].].].].U.[.[.[.[.[.[.Y.].]. X0XCXHXHXFXCXuX-XOXXX.X.X[.).).N.c.d.1.5.5.,.O.O.O.,.,.,.O.| o.o.<.,.,.,.4.4.4.,.,.,.,.O.o.,.,.4.8.h.c.).{.&X&X7XvXCXlXR.G.G.G.G.G.Y.Y.T.+X$X$X$X2X$X$XT.T.T.T.T.T.T.T.T.T.T.$X$X2X2X3X3X$X$X$X$X4X$XR.G.u.u.u.V.V.V.Z.Z.Z.G.S.Z.V.` ` Z.L.L.F.Z.f.u.f.u.#.#.u.V.Y.%X%X%X$XI.u.u.G.$X$X#X$X$X$X$X$X$X#X#X$X$X$X$X#X#X$X$X$X$X#X#X$X$XT.T.$X$X$X$XR.$X*X8XL.#.#...#.....` { { ` #.R.%X+X{.{.L.L.A.Z.#.#.) l l ) ) z l l l z ) ) ` ) ) ) ) ` P.nXnX@XZ.5.O.[ ( Y Y T [ { #.#.#.#.f.A.L.`.{.L.K.K.K.K.K.K.K.D.f.1.+.o.o.+.1.d.j.l.l.n.n.c.g.g.g.g.d.+.+.+.1.a.d.1.+.+.+.1.1.+.+.V.%XkX*XL.5.o.| W T D S S S W 5.).).x.3.3.3.3.3.<.<.<.<.<.<.<.<.<.<.<.<.<.<.<.<.o.o.o.>.>.>.>.>.>.>.1.5.h.J.`.XX&X&XOXOXXX.X).c.5.:.>.*.^ ! ! ! ^ ^ ^ ^ ^ ^ ^ ^ ^ ^ | | | | ^ ^ ~ W W W J J W W J J J J J J J J J J J J H H H H H H H H H H H S Z S S S Z Z Z Z Z Z Z Z M M M M M M M Z M M M M M M n n n n n n n n n n n n n n n n n n n p B P ' } ' D S Z N N N n n n n i i i i e e e e e e e w w w w e e e e w w w 0 i i i i r r i i i i i i 3 3 r 3 1 1 1 1 0 0 1 0 1 1 1 1 ",
"o.o.>.4.4.>.o.d.K.).H.{.{.K.N.M.~./..XOXOXwXwX6XwX6XOXOXXX).m.s.3.<.>.<.4.4.4.4.4.4.>.>.>.^ W E E J J S S J E W W W | | o.+.,.O.,.,.1.5.,.,.5.5.5.@.@.@.{ { { ) ) ) ) ) ) ) ) ) ) l l l d s 8 8 8 s k l z _ _ _ _ _ _ _ z l l l z _ ` #.7.7.#.X.[ [ +.s.x.n.n.n.M.M.M.M.M.M.M.M.M.M.M.M.M.M.M.M.M.M.M.M.B.B.B.B.B.B.B.B.B.B.B.B.B.~.~.~.B.B.].].].].].].].].].].].].].].U.[.[.[.].].U.Y. X2XbXCXHXHXCXuXyXOXOX.X_.).!.).N.j.d.1.+.O.O.O. .O.O.,.,.,.O.O.O.| | | | O.,.,.,.,.,.,.| Q Q | | ,.,.5.5.H.).XX&X&X8XnXCXjX$XT.Y.Y.Y.Y.Y.Y.T.$X$X$X$X$XT.T.T.T.T.T.T.T.T.Y.T.T.T.$X$X3X3X3X3X2X3X3X3X3X$X+XF.u.Z.P.G.V.q.#.#.V.F.u.` ` V.Y.$XY.K.K.D.Z.f.u.#.u.F.G.$X$X$X$X$XI.F.F.R.$X$X#X#X#X$X$X$X#X#X$X$X$X$X$X#X#X$X$X$X$X#X#X$X$X$X$X$X$X$X$X%X*XvXjXR.Z.#.#.#.X...X.X.{ ) #.L.+XY.{.{.L.L.F.#.#.` l h l ) ) l z ) ) ) ) _ _ ) l ) ) ` L.jXjXR.f.@.O.[ ( C ( T Y { #.7.7.Z.K.L.K.L.L.K.K.K.K.K.K.K.D.h.5.+.+.O.o.o.+.d.j.j.j.c.g.c.g.g.h.g.d.+.+.+.1.a.d.1.+.O.O.+.+.+.X.Z.+XP.Z.5.| ' ' T D N B N V D | h.).m.3.3.<.<.<.<.<.<.<.<.<.<.<.<.<.<.<.<.<.<.<.o.o.o.o.o.o.+.<.1.h.K.{.&XuXvXvXpXpXyXyX-X-X-XXX`.H.4.| ^ ~ ~ ~ ^ ^ ! ! ~ ~ ^ ^ ^ ^ | | | | ^ ^ ~ W W W J J J J J J J J J J J J J J J J H H H H H H H H H H H S S Z S S Z Z Z Z Z Z Z Z M M M M M M M Z M M M M M n n n n n n n n n n n n n n n n n n n N P  .6.6.6.6.,.} U D Z N N n n n p p p i i e e e e e e 0 w w w e e e e w w w w i i i i i i i i i i i i 3 3 3 3 1 1 1 1 1 1 1 1 1 1 1 1 ",
">.>.<.1.<.>.1.1.5.d.h.K.{.N.x.b.!.^..XoXOX,X,XwXwXOXOXOXXX[.!.z.3.>.>.>.2.<.3.3.4.2.>.>.>.^ ~ E E E E J J J W W W W Q | O.+.,.1.5.5.5.5.5.5.5.7.7.5.5.@.@...{ { { { _ _ _ ` _ _ ) ) l l k s 8 8 8 s k l l _ _ 0.0.q.0._ z l l l l ) ` #.#.#.X.[ [ [ 1.a.n.n.n.b.M.M.M.M.M.M.M.M.M.M.M.M.M.M.M.M.B.M.M.M.B.B.B.B.B.B.B.B.B.B.B.B.B.B.B.B.B.U.[.].].].U.U.U.U.].[.].].].].U.U.[.[.].].U.Y. X7XCXCXCXCXuXyXOXOXXX[.N.c.c.c.h.d.+.X.o.O.O.O.O.O.O.O.O.O.O.O.O.O.O.[ Q [  .O.,.,.,.O.| Q Q [ [ | O.,.5.h.K.{.&X&X&X8XVXnX4XR.T.Y.Y.Y.Y.Y.T.$X$X$X$X$XT.T.Y.T.T.T.$XT.T.T.Y.T.T.T.$X$X3X3X3X3X3X3X3X3X$X$XR.I.R.jXR.V.q.V.#.u.#.` #.Z.Y.$X$X XY.Y.L.G.A.u.u.A.Y.$X$X$X$X$X$XT.Y.I.T.$X#X#X#X#X$X$X$X$X$X$X$X$X$X#X#X#X$X$X$X$X#X#X$X$X$X$X4X4X8XjXnXnXFXFXvX%XL.Z.u.` ` X.X.X.{ #.L.+XL.Y.{.L.G.Z.#.` ` ) l ) ) ) ) ) ` ) ) _ ` #.` ` ` ` Z.+X%X%XG.#.@.{ ) ( C C Y Y ) ..#.#.7.A.A.A.A.j.K.K.K.K.K.K.H.j.d.+.+.O.+.+.+.1.d.j.j.g.c.c.g.g.g.h.d.d.+.+.+.1.a.a.1.+.+.o.O.O.X.X.f.Z.#.) [ [ T D A B B g B C C T g.).K.4.<.<.<.<.<.<.<.<.<.<.<.<.<.<.<.<.<.<.<.<.+.+.+.o.o.O.+.A.Y.*XbXNXNXpXuX&XOX.X[.).!.).)._.XXXX_.c.2.^ ^ ^ ^ ^ ! ~ ~ ~ ~ ^ ^ | | >.| | ^ ^ ~ W W W J J J J J J J J J J J J J J J H H H H H H H H H H S S S S Z S Z Z Z Z Z Z Z Z Z M M M M M M M Z M M M M M M n n n n n n n n n n n n n n n n n A ] 6.r.H.H.H.H.r.7. .U D N N N n n n p p i i e e e e e e 0 w w w e e e e w w w w i i i i i i i i i i i i 3 3 3 3 1 1 1 1 1 1 1 1 1 1 1 1 ",
"o.o.<.d.d.1.<.>.o.o.1.h.n.x.z.x.b.~.^..XoXOX,X,XOXOXOXXX.X[.!.c.3.>.*./ *.>.2.2.2.2.>.>.*.~ ! ~ E E E E E E E E W W | | O.,.5.5.5.5.f.h.h.h.h.h.f.7.7.5.@.@...{ { { { ` ` ` _ _ _ ) ) l l s 8 8 8 s k l l _ _ 0.q.q.q.q._ ) l l l l ) { { { { [ [ o.1.x.n.n.b.b.m.m.m.m.m.m.M.M.M.M.M.M.M.M.M.M.M.M.M.M.M.M.M.M.N.N.B.N.B.B.B.B.B.B.B.].].].U.].U.U.].].U.U.U.U.U.U.U.].U.].].].[.[.U.Y. XpXCXCXCXdXyXwXOX=X.Xm.s.1.4.1.+.O.[ [ { O.@.@.O.{ { O.O.O.O.O.O.O.O.[ T T ' [  .,.5.5.,.o.| | [ [ O.5.5.h.A.K.{.+X+X$XvXnXjX$X$XT.T.T.T.T.$X$X$X$X$X$XT.T.Y.Y.T.R.$X$X$XT.T.T.T.R.R.R.$X$X$X$X$X$X$X$X$X$X$XR.R.R.S.V.V.V.V.V.u.u.G.Y.$X$X$X$X X+X{.T.Y.I.Y.T.$X$X$X$X$X$X$X$X$XT.T.$X$X$X$X$X$X$X$X$X$X$X$X$X$X$X$X$X$X$XT.T.R.R.$X%X$X$XjXnXnXZXFXCXCXCXCXnXvX8X%XG.u.#.` #.#.#.Z.{.L.L.L.L.Z.#.` ` ) ) ) ) { { { { ` ` #.V.J.+X+XL.S.G.+X$XY.Y.L.H.7.{ ( C K C C ( ) { ..@.7.f.f.f.#.d.j.K.K.K.K.A.j.f.+.O.+.O.+.1.1.1.g.j.j.j.g.g.h.g.h.g.h.d.+.+.+.+.a.d.d.1.+.+.+.+.X.#.Z.A.@.( [ { C f f f f g g g f Y O.c.N.1.<.<.<.<.<.<.<.<.<.<.<.<.<.<.<.<.>.>.>.>.<.<.+.o.+.5.L.4XnXCXCXdXyXOX.X!.Q.z.9.9.9.9.9.9.c.)._..X).4.^ ! ! ! ^ ~ ~ ^ ^ | | | :.>.>.| ^ ^ ~ W J J J J J J H H H H H H H H H H H H H H H H S S S S S S S S S S Z Z Z Z Z Z Z Z Z Z Z Z Z Z M M M M M M M M M M M M n n n n n n n n n b b b b m n U 6.H.H.H.H.H.J.J.H.6.} D Z N N n n n p p i i e e e w w w 0 w w w w w w w w w e e i i 0 0 i i i r i r r r r r r r 1 1 0 1 1 1 1 1 1 1 1 1 ",
"^ ^ ^ o.o./ / / / >.s.c.n.n.b.b.b.!.^./..XoXOXOXOXOXXX.X.X[.!.c.4.>./ ^ ^ *.*.>.>.:.*.*.^ ^ ! ! ~ ! E E E E E E W W ^ | o.<.5.5.5.5.f.h.h.h.h.h.h.f.7.7.7.@.#.....{ { _ ) _ ` _ _ ) ) l l k s 8 8 s k l l _ _ q.q.V.V.q.q._ ) l l l K ) ( ( ( T Q o.a.x.n.m.m.m.m.m.m.m.m.m.m.m.M.M.M.M.M.M.M.M.M.M.M.M.M.M.M.M.N.N.N.N.B.B.B.B.B.].].[.|.[.[.U.U.U.~.~.U.U.U.U.U.U.U.U.].].].].[.[.U. X6XNXCXCXNXyXyX=X=X=X.Xc.<.o.>.+.O.O.{ { O.O.@.O.X.{ { O.@.@.@.5.O.O.O.O.[ T Y T ' O.5.5.5.5.1.O.' ' O.5.5.h.H.K.L.{.{.{.%XvXbX4X$X$X$X$X$X$X$X$X$X$X$X$XT.Y.Y.Y.Y.T.R.$X%XR.R.R.R.R.R.R.$X$X$X$X%X%X$X$X$X$X$X%X%XI.V.Z.G.G.I.I.Y.T.$X$X$X$X$X$X$X$X$X$X$X+X$X$X$X$X$X$X$X$X$X$X$X$X$X$X$X$X$X$X$X$X$X$X$X$X$X$X$X$X$X$X$X$XT.T.R.R.%X4X4XjXnXCXnXvXvX8X*X*X*X8X8XvXnXjX$XF.#.#.#.` Z.L.L.Y.L.L.Z.#.` ` ) ) { { { ` { ` V.G.+X@X*X*X+X{.L.L.{.L.G.+X+X`.f.{ ( ) ) K ( ( ) ..#.7.h.f.f.#.#.#.f.A.D.A.A.A.A.d.X.[ +.+.5.5.g.g.g.j.j.j.c.g.g.g.g.h.h.d.+.+.+.+.1.d.d.d.d.+.+.+.+.+.A.A.#.{ ....g y f f g g h h h C [ h.j.1.<.<.<.<.<.<.<.<.<.<.<.<.<.<.<.<.>.>.>.>.<.<.+.+.Z.R.vXFXHXCXpX-X.X!.Q.W.9.;.=.9.9.9.9.2.;.=.9.Q._._.c.*.^ ! ^ ~ ^ ^ ^ | } | :.:.>.| | ^ ~ W J J J J J J J H H H H H H H H J J J H H S S S S S S S S H H H S Z Z Z Z Z Z Z Z Z Z Z Z Z Z M M M M n n M M M M M M n n n n n n n n n n b b b b Z  .H.J.J.J.J.K.`.J.J.7. .J A N N n n n p p i i e e w w w w w w w w w w w w w e e e i i i 0 i i r r 3 3 r r r r 3 r 1 0 0 1 1 1 1 1 1 1 1 1 ",
"o.o.^ ~ ~ E E ! ^ *.<.s.s.x.b.b.b.b.!.^./..XoXoXoXoX.X.X.X[.!.b.p.<./ ^ ! ^ ^ *.>.*.&.*.&.&.&.! ! ! ! E E E E E ! W Q | o.+.1.5.5.5.f.h.h.h.h.h.h.7.7.5.7.7.@.@.....{ { _ _ _ _ _ _ ) l l k s 8 8 s k l l _ _ q.q.V.S.V.q.` _ l l g h C C C C Y Q +.a.n.n.n.m.m.m.m.m.m.m.m.M.m.M.M.M.M.M.M.M.M.M.M.M.M.B.M.B.B.B.B.N.B.B.B.B.B.U.[.[.[.[.[.].[.U.U.~.~.~.~.U.U.U.U.U.U.U.].].].[.[.U. X7XNXCXNXpXyXOX=X=XXX_.c.2.O.+.O.O.O.O.O.O.X.X.X.X.X.@.5.5.5.5.5.5.O.O.O.[ ( Y Y Y ' [ [ O.5.5.O.T T [ O.1.h.A.L.K.L.{.Y.+XjXnXjX$X$X$X$X$X$X$X$X$X$X$X$XT.T.Y.Y.Y.Y.T.T.%X%XR.R.R.R.R.%X4X4X%X%X%X%XlXlX4X$X%XjXvX%XR.R.$X$X$X$X$X$X$X#X$X$X$X$X$X$X$X$X$X$X$X$X$X#X$X$X$X$X$X$X$X$X$X$X$X$X$X$X$X$X$X$X$X$X$X$X#X#X$X$XT.T.T.T.R.R.4XnXnXnXnXjX*X+X+X{.`.{.{.{.{.XX*XuXvX*XG.#.X.#.f.K.L.Y.Y.L.#.#.#.#.` ` ` X.X.X.#.Z.+XjXvX*X@XY.F.A.A.A.L.L.{.+X`.H.` ) ) _ ) ( ) ) { @.#.#.7.7.7.#.+.+.f.j.j.j.j.j.A.f.X.[ O.1.5.5.d.g.j.j.j.j.g.g.g.g.x.h.g.d.y.+.+.+.+.+.d.d.d.d.d.1.1.5.h.f.#.{ { ) d y d g l g g h h f ( f.D.1.<.<.<.<.<.<.<.<.<.<.<.<.<.<.<.>.>.>.>.>.<.<.+.Z.%XmXGXGXFXNXyX.X^.Q.z.;.;.=.&.&.&.&.&.&.&.&.=.9.Q.!._.c.*.^ ^ ~ ^ ^ ^ | } :.:.:.>.| | ^ ~ W J J J J J J J J H H H H H H H J J J H H S H S S S S H H H H H S Z Z Z Z Z Z Z Z Z Z Z Z Z Z M M M M n n n n M M M n n n n n n n n n n n b n b b J 6.J.`.L.L.`.`.`.`.J.H. .W A N N n n n i i i i e e w w 0 w w w w w w w w w w w e w i r i 0 i i r r 3 r 3 3 r r r r 1 1 1 1 1 1 1 1 1 1 1 1 ",
"c.x.4.>.^ ~ ! ! ^ &.2.>.=.-.z.b.b.b.Q.!.^./.}..XoX.X.X.X[.[.!.m.s.3.*.^ ^ ^ ! ^ ^ &.&.&.*.*.&.&.^ ^ ! ! ! E E E E W ! ^ o.O.<.1.5.5.5.g.g.g.5.7.7.5.5.5.@.@.@.@.....{ { { { _ _ _ ) ) l l k s s 8 s k l l _ _ 0.q.V.V.q.q.q._ l g g g g g V V Y [ 1.x.n.n.n.m.m.m.m.m.m.m.m.M.M.m.m.m.m.M.M.M.M.M.M.M.M.B.M.B.M.B.N.N.N.B.N.N.B.U.U.N.n.k.n.n.N.U.U.~.~.~.].].U.U.U.U.U.U.U.].].[.[.U. XpXCXCXNXuXyXOXOXXXXX).g.<.O.O.5.#.@.X.X.X.X.{ X.@.+.#.+.5.@.@.5.5.O.X.O.[ [ T Y Y T T T T  .O.O.' T W O.d.h.f.h.A.L.{.+X+X8XnXvX$X$X$X$X$X$X XT.Y.T.T.$XR.T.T.T.T.I.I.Y.R.jXkXnXVXnXnXnXVXnXjX%X%X4XjXjX$XG.I.R.$XR.%X$X$X$X$X$X$X$X$X#X$X$X$X$X$X$X$X$X$X$X$X#X#X#X$X$X$X$X$X$X$X$X$X$X$X$X$X$X8X$X$X$X$X$X#X#XT.#X$XT.Y.T.T.R.R.%XkXZXvX%X+XL.F.A.A.j.c.N.H.c.K.K.K.{.&XuX8XK.u.f.f.A.K.L.L.G.f.#.#.#.#.#.#.u.f.u.Z.L.jXvX8X+XL.A.f.u.#.f.A.Y.$X{.A.#.{ ) ) ) l h ( ) { X.#.X.X.X.X.+.#.d.j.j.j.j.j.j.h.d.+.X.o.1.d.+.O.d.g.g.j.j.c.g.g.x.x.g.d.d.d.+.+.+.O.+.+.+.+.+.a.a.d.1.d.d.f.X.( g g l ) ) ) l d d h h ) A.j.1.>.<.<.<.<.<.<.<.<.<.<.<.>.<.>.>.>.>.>.>.o.+.Z.%XZXGXGXFXvXyXOX.XQ.z.;.=.&.&.&.&.~ G G G G &.&.=.;.W.!._.c.*.^ ^ ^ ^ ^ | | >.>.| | | | ^ ~ W W J J J J J J J H H H H H H H H H H H H H S S S S S H H H H S S Z Z Z Z Z Z Z Z Z Z Z Z Z Z M M M M n n M M M M M n n n n n n n n n n b n b b S } H.`.`.`.`.`.`.`.`.J.7. .J D N N n n n i i i i e e w w 0 w w w w w w w 0 w w w e w i i i i i r r r 3 3 3 3 r r r r 1 1 1 1 1 1 1 1 1 1 1 1 ",
"c.c.4.>.^ ! ^ ^ ^ >.>.*.*.-.z.b.b.b.b.Q.^.^././..X}..X.X[.[.!.!.m.x.p.<./ / ^ ^ ^ ^ &.^ *.*.*.&.*.&.&.&.! ! ! ! ~ ~ ~ ^ | o.>.<.,.,.5.5.5.5.5.5.5.5.,.O. .{ { { { { { ) ) ) ) ) ) ) I l l k k s 8 8 s k l z _ 0.q.q.q.q.q.` _ K g f f f f V Y Q o.a.k.N.N.N.N.N.N.M.m.m.b.b.n.n.m.m.m.n.M.M.M.M.M.M.M.M.M.M.M.M.M.M.N.N.N.N.N.N.N.m.k.a.a.a.a.n.N.N.B.U.U.U.U.U.B.B.B.U.U.U.U.].[.[.[.&XbXCXCXpXyXOXOXXXXXXX).1.[ { O.#.#.#.{ { ) { { X.@.X.X.X.O.[ [ [ O.O.O.O.O.{ [ T Y ( [ ' D Y ( ' ' [ [ 5.H.A.d.d.h.K.{.&X$X%XvXnX%X X X$X$X$XT.Y.I.Y.T.T.+X+XT.T.I.I.I.I.R.cXDXDXZXvXkXvXnXCXZXnXjX%X%XR.G.V.F.A.A.G.T.$X$X$X$X$X$X$X$X#X$X$X$X$X$X$X$X$X$X$X$X$X#X#X#X$X$X$X$X$X$X$X$X#X$X$X$X$X4X$XT.T.T.T.T.T.$X$X$XY.F.Y.T.R.%XkXZXnX%XG.Z.Z.#.@.@.5.g.h.h.h.h.j.j.j.K.{.8X$XF.f.f.A.F.F.F.A.Z.A.A.u.u.f.F.L.L.G.L.*XvXuX+XL.K.G.Z.#.#.#.f.L.{.F.7.X.X.` X.) ( ( ( ) ) { ..{ ) ( { #.f.h.j.j.j.j.j.j.d.f.A.f.O.d.h.1.1.g.j.g.g.g.g.x.x.g.g.g.g.d.a.1.+.+.O.O.O.O.O.+.+.1.a.1.1.+.7.{ C f C ) ..@...K K l h h ) 7.5.1.>.>.>.>.<.<.<.<.>.>.>.>.>.>.>.>.>.>.,.<.+.Z.%XZXLXLXGXCXuXOX.X!.z.2.&.&.~ ~ &.~ H S Z Z H J ~ &.&.;.t.Q.!.9.&.^ ~ ~ ~ ~ ~ | ~ ~ ~ ~ ~ W W E E J J J J J J J J H H H H H H H H H S S S S S S S S H H H S S S S Z Z Z Z Z Z Z Z Z Z Z M M n M M M N n n n n n n n n n n n n n n n b M b N Z '  .H.`.`.`.`.`.`.`.).H.6.} J S N N n n p p i e e w w e e e e w w w e w 0 0 0 0 0 0 0 i i i i 0 0 0 0 3 3 3 3 0 1 1 1 3 3 3 3 1 1 1 1 1 1 1 1 ",
"4.<.>.*.^ ^ *.*.*.*.*.=.p.z.b.b.b.b.b.Q.!.^././.}.}..X[.[.[.[.!.!.M.m.c.s.1.1.1.<.2.>.>.*.*.&.*.*.*.*.&.&.&.&.&.&.^ ^ ^ ^ >.o.>.,.,.,.5.1.1.1.+.,.O.O. .[ [ [ [ ) ) ) ( ) ) ) ) ) I I l l k s s 8 8 s s l l l _ _ q.q.q..._ ) K g f f f f V Y ^ +.a.n.N.[.[.[.[.).N.M.M.n.b.n.n.n.n.n.n.m.m.m.m.m.M.M.M.M.N.N.N.N.M.M.N.N.N.N.N.m.n.k.a.a.a.a.a.n.N.B.B.U.U.U.U.U.B.B.U.U.U.U.U.U.[.[.6XNXCXNXuXyXOX.X[.XXXX).1.[ { @.#.#.#.{ { { { { { { [ ) { { [ ( [ [  .O.@.O.O.[ [ ( [ O.O.' T T Y T [ [ O.h.A.f.d.f.A.Y.&X$X%XjXnX8X X X$X$X$XT.Y.I.I.Y.Y.T.+X+XT.Y.I.I.R.kXZXZXkX%X%X+X+X+X%XjXnXnXjXR.G.V.V.F.F.F.I.+X$X$X$X$X$X$X$X$X#X$X$X$X$X X$XY.T.$X$X$X$X#X#X$X$X$X$X$X$X$X$X$X#X$X$X XT.R.T.Y.T.T.T.T.T.T.$X$XI.I.Y.T.R.kXGXZXgXL.A.Z.#.{ { { { 5.5.5.5.5.d.5.d.g.l.{. X{.A.A.H.Z.Z.Z.Z.f.A.Z.u.A.F.L.{.+X%X*XvXvX*XY.Y.L.Y.F.f.#.#.#.F.L.A.#.X.X.#.#.{ { ) ( ( ( { X.) ( ( ) #.f.j.j.j.j.j.j.j.h.h.A.d.1.g.j.g.h.g.j.h.g.h.x.x.g.g.a.a.g.g.d.a.1.+.O.O.O.O.O.O.+.1.1.+.1.O.O.[ Y Y [ { { 7.5.{ #.` ) ) ..X.+.>.>.>.>.>.>.>.>.>.>.>.>.>.>.>.>.>.>.>.,.O.f.%XZXGXGXGXAXuX&X.X!.z.9.:.~ J J J } J Z N b Z J J J H G &.;.Q.!.!.2.&.~ ~ ~ ~ ~ ~ ~ ~ W W W E E W E J J J J J J J J J H H H H H H H H S S S S S S S S S H H S S S S S Z Z Z Z Z Z Z Z Z Z M M n M M M n n n n n n n n n n n n n n n n M N N D J  .,.H.`.`.`.`.`.`.J.H.H.,.' S Z N n b e p e i e e w w e e e e w w w w 0 0 0 0 0 0 0 0 i i r i 0 0 0 0 3 3 3 3 0 0 1 3 3 3 3 3 1 1 1 1 1 1 1 1 ",
"2.>.*.*.^ ^ *.*.=.=.p.z.x.b.b.b.b.b.b.b.Q.!.^./././..X.X].[.[.[.[.[.[.).K.K.K.K.c.h.g.2.*.*.&.*.2.2.=.=.2.2.2.2.>.>.>.>.>.>.>.>.o.o.O.O.+.+.O.+.O.O. .[ [ ( ( ( ( K K K K K K K l l l l l d s 8 8 8 8 8 s k l l _ _ _ _ _ ) K K g f f f V Y Q o.a.n.N.[.{.[.[.N.n.x.n.n.n.n.n.n.n.n.n.n.m.m.m.m.m.m.m.M.N.[.|.|.U.N.N.M.M.N.N.N.M.n.k.a.a.a.a.a.k.m.B.B.B.U.U.U.U.B.U.U.U.U.U.U.U.U.{.6XCXCXpXyXOX[.!.m.)._.K.5.[ { #.7.#.#.X.X.X.{ ) [ ) ) ) X.X.{ [ [ [ { O.@.O.O.O.O.{ [ { { { { { ' Y Y Y ( O.f.h.f.f.A.L.+X+XR.jXnXjX$X X X X XT.Y.I.I.I.Y.Y.T.T.T.T.Y.R.4XkXkX%XR.G.F.A.A.A.G.R.*XvXvX%XG.V.u.V.F.Y.$X$X$X$X$X$X$X$X$X$X$X$X$X$X$X X XT.T. X$X$X$X#X#X$X$X$X$X$X$X$X$X$X$X$XT.T.T.T.T.T.T.T.T.T.T.T.T.T.Y.Y.T.T.jXZXLXmXR.F.H.Z.#.X.[ ) { O.O.O.+.O.+.+.+.1.d.j.K.{.{.+X+XS.#.` X.X.X.#.#.f.F.L.Y.&XnXlXuX8X&X+X{.F.A.Z.f.#.#.#.Z.A.A.#.) { #.#.X.X.X.) ) [ { { { ) ) X.f.h.j.j.j.j.j.j.j.h.f.f.d.g.g.h.g.d.g.j.h.g.g.x.x.g.g.g.a.g.g.g.d.5.1.+.O.o.X.O.o.+.1.1.+.1.X.Y C Y [ 5.7.f.A.H.f.A.q._ l ) O.o.>.>.>.>.>.>.>.>.>.>.>.>.>.>.>.>.>.o.o.o.#.P.ZXGXGXGXCXbX&X[.!.Q.9.>.:.~ H H H J S N e e N H J H Z Z G &.9.Q._.c.:.! ~ ~ ~ ~ ~ ~ ~ W W W J E E E J J J J J J J J J H H H H H H H H S S S S S S S S S H H S S S S Z Z Z Z Z Z N Z Z Z Z Z Z M M M M n n n n n n n n n n n n n n n n N S J }  .,.6.7.J.`.`.`.`.J.H.H.6.' J D Z N b b e i i e w w 0 0 e e e e w w w 0 0 0 0 0 0 0 0 0 r i r i 0 0 0 0 r r 3 3 1 0 1 1 3 3 3 3 1 1 1 1 1 1 1 1 ",
"3.3.=.*.*.*.*.=.-.p.z.b.b.b.b.b.b.b.b.b.b.Q.!.^.^.^./.].^..X.X[..X.X.XXXXX{.{.{.{.).H.g.2.>.*.*.2.2.3.3.3.9.9.9.9.4.4.4.4.<.<.>.>.o.| o.o.o.O.O.O.O.| [ [ Y Y Y C C C h h h h h l l l l d s s 8 8 8 8 8 8 s s l l l l l l l l h f f f f V Y Q <.a.n.K.[.K.N.n.n.n.k.a.s.n.n.n.n.n.m.n.n.n.n.n.m.m.m.N.N.N.[.U.[.U.N.M.M.m.m.N.N.m.m.n.k.a.a.k.l.N.N.B.B.N.K.U.U.U.U.U.U.U.U.U.U.U.U.{.uXCXCXuX&X[.m.s.s.c.).K.5.[ { #.7.#.#.` ` ` { ) ) ) ) X.@.@.X.{ { { { { X.O.O.@.@.{ ( ( ( [ O.@. .( C V C Y O.7.f.f.Z.G.Y.R.+XjXnXnX$X X{.T. XT.Y.I.I.I.I.I.Y.T.T.T.R.R.jXjXR.G.F.Z.f.u.#.#.f.A.L.%XvX8XG.V.V.A.G.T.$X$X$X$X$X$X$X$X$X$X$X$X$X$X X$X$X$X$X#X$X$X$X$X$X$X$X X$X X$X$X$X$X$XT.T.T.T.T.T.T.T.T.T.T.T.T.T.T.T.T.T.%XmXGXGXmXR.G.A.f.#.) ( ) { X.X.X.X.X.{ X.X.O.+.d.g.K.+X*X@XZ.#.{ X.X.X.X.X.u.A.L.Y.+X*X$X$X+X+X+XL.f.#.u.u.#.#.#.u.f.f.+.X.) X.#.7.#.@.#.@.@.X.{ X.{ X.#.f.h.j.j.j.j.j.A.A.f.d.d.h.g.g.g.g.g.h.g.h.g.h.x.g.g.g.g.a.g.g.s.s.d.5.1.+.+.o.o.+.+.1.1.1.1.O.Y V Y O.h.L.`.`.A.A.A.Z.` g ( o.>.<.>.>.>.>.>.>.>.>.>.>.>.>.>.>.>.>.o.o.O.Z.jXGXZXkXgX%X{.[.N.c.4.2.| } J S S S B N n p e N A J S Z Z H ! =.W./._.9.^ ~ ~ ~ ~ W W W W W J J J E E J J J J J J J J J H H H H H H H H S S S S S S S S S H H S S S S Z Z Z Z Z Z Z Z Z Z Z Z Z M M M M n n n n n n n n n n n n n n n N S '  .,.,.6.6.6.H.H.H.H.H.H.6.6.} D D Z N n b e e e e e w w 0 0 e e e e w w w 0 w 0 0 0 0 0 0 0 0 i i i 0 0 0 0 r 3 3 3 1 1 1 1 3 3 3 3 1 1 1 1 1 1 1 1 ",
"z.x.z.z.z.z.z.x.x.x.b.b.b.b.b.b.b.b.b.b.b.b.b.!.!.~.^.^.^..X.X.X.XoXOX&XyXyX&X&XXX{.).c.s.2.2.2.2.3.9.9.9.9.z.z.z.z.z.z.z.s.4.3.<.>.o.| | | o.o.| | [ [ Q T T Y C C A C C h h h g g d d d s s 8 8 8 8 8 8 8 8 s d d d d d d a a y f f V Y Q o.<.x.n.K.K.c.a.1.a.g.j.g.a.x.n.n.n.n.n.n.n.n.n.n.n.m.m.m.N.N.N.n.k.n.m.m.m.m.m.m.m.m.m.m.n.n.k.n.N.U.U.U.U.U.U.N.N.U.U.U.U.U.U.U.U.U.U. XpXCXNXuXOX).n.x.g.g.h.f.O.( [ { ..#.` ` ) ) ( ) ) { { ` #.#...` { { { { { { { @.@.#.{ ) Y ( { @.{ ) Y C f V ( X.7.Z.Z.Z.G.L.+X*XnXnX4X+X XT.T.T.T.Y.U.I.I.I.I.Y.T.T.R.4XjXR.Z.u.#.#.#.#.X.X.@.#.Z.Y.*X*XR.G.G.I.R.$X$X$X$X+X X$X$X$X$X#X$X X XT.T.T.T.$X$X#X#XT.T.$X$X$X$XT.T.$X$X$X$X$X$XT.T.T.T.T.T.T.T.T.T.T.T.T.T.$XR.T.R.jXZXZXFXnXR.A.7.@.) Y ( ) ) { { { ) [ [ { X.X.O.5.d.j.L.*X+XG.A.#.u.A.u.X.X.f.G.L.Y.{.{.Y.Y.K.K.L.F.u.#.f.f.f.u.+.#.f.f.#.X.X.#.f.f.f.f.A.A.7.#.7.f.#.X.#.f.h.j.j.j.j.j.D.j.f.f.h.h.h.h.h.h.h.h.h.h.g.d.g.g.g.g.g.g.s.s.s.s.a.d.d.1.1.1.+.+.1.1.1.1.+.+.X.Y [ f.A.{.+X{.K.H.7.@.) C Y [ o.>.>.>.>.>.>.>.>.>.>.>.>.>.o.>.>.o.o.o.O.P.nXnX%XL.V.#.#.5.1.<.>.| ' ' D N N f f a y y a f N A N n N Z H &.9.Q..X!.>.~ ~ ~ W W W E J J J J J J J J J J J J H H H H S S S S S S S S S S S S S S S S H S S S Z Z Z Z Z J ] U S Z N N Z Z Z Z M M M M n n n n n n n n n m m m n n n S ' }  .,.6.6.6.6.,.,.,.,.6.,. .' D Z N N N n n e e e e e w w 0 0 w w 0 0 w w w w 0 0 0 0 0 0 0 0 0 0 0 0 0 0 0 0 1 1 1 1 0 0 1 1 1 1 1 1 1 1 1 1 1 1 1 1 ",
"b.b.b.b.b.b.b.b.b.b.b.b.b.b.b.b.b.b.b.b.b.b.b.b.b.M.!.~.^.^.[..X.XOXyXyXuXuXyX&X&X{.{.K.c.s.4.2.2.9.9.9.z.z.z.b.Q.Q.Q.Q.c.c.z.s.9.2.>.>.^ ^ ^ | ^ ^ ^ Q Q Q Q Q T T T T D C C C C h h d d s s s 8 8 8 8 s s s s s y y y y y y y f f V Y Q / <.a.n.n.N.n.a.o.Q Q o.o.+.1.x.n.n.n.n.n.n.n.n.n.n.n.m.m.m.m.N.N.n.n.n.n.m.m.m.m.m.m.m.m.m.m.n.n.N.N.K.K.U. X$XT.U.K.U.U.U.U.U.U.U.U.U.U.&XbXCXbXuXOX[.).).).H.5.O.' Y ( ) { X.` ) ) h h ( ) ) ) ) ) { { { { { { { { { { ..#.7.7...) ) { { { ) ( C C V Y ..H.L.S.Z.G.P.+X%XvXnXjX$X XT.T.T.T.T.Y.Y.I.I.I.I.Y.Y.R.8X%XG.u.` #.#.@.#.X.{ X...#.Z.R.$XR.I.I.Y.R.+X+X$X$X X X$X$X$X$X+X+X X X$X XT.T.$X$X#X#XT.T.T.T.$X$XT.T.$X X$X$XT.T.T.T.T.T.T.T.T.T.T.T.T.T.T.T.R.R.R.%XkXcXgX%X*XY.f.X.X.) Y ) ) { [ [ { [ [ [ [ [ {  .+.f.f.A.+XL.L.+XZ.u.F.Z.#.#.Z.K.Y.{.{.{.Y.K.F.K.L.A.#.#.f.A.A.u.X.#.A.A.#.X.O.+.f.A.F.F.F.A.f.f.Z.f.#.#.f.f.h.j.j.j.j.A.j.h.f.h.h.h.h.h.h.h.g.g.g.g.d.d.g.g.a.a.a.a.s.s.s.s.a.a.a.a.1.1.1.1.1.1.1.1.+.+.O.[ ) #.f.F.L.L.F.f.) ( Y ( [ [ o.o.o.o.>.>.o.o.o.o.o.o.o.o.o.o.o.o.o.o.@.L.jXjXG._ h s y C [ [ W D D B y y a a a u y y a f B B N B B B Z ~ ;.W._..X8.~ ~ ~ W W E E J J J J J J J J J J J J S H H H S S S S S S S S S S S S S S S S S H S Z Z Z Z Z J 7.`.7.' Z Z Z Z Z Z M M M M M n n n n n n n n m m m m b n Z J ' }  .,.,.6.6.,.} U D D U D S A A N N n n n p e e e e e w w w w w w 0 w w w w w 0 0 0 0 0 0 0 0 0 0 0 0 0 0 0 0 1 1 1 1 0 0 1 1 1 1 1 1 1 1 1 1 1 1 1 1 ",
"b.b.b.b.b.Q.!.!.!.!.b.b.b.b.b.b.b.b.b.b.b.b.b.b.b.b.b.M.!.^.^.[..XOXyXyXuXuXyX&XXX{.{.K.c.s.4.4.9.9.z.z.z.z.b.Q.Q.Q.Q.!.!.!.b.x.z.p.3.2.*.^ ^ ^ ^ ^ ^ ^ / o.o.o.| o.o.| | [ [ [ [ [ ( ( h h d s y y y y y y s s y y y y y y q p f V Y E / >.a.x.n.n.n.l.a.o.Q Q [ [ [ o.1.x.n.n.n.n.n.n.n.n.n.n.m.b.m.n.n.N.N.N.m.m.n.m.m.m.m.m.N.N.N.N.n.N.N.K.Y.K.K.$XnXnXjX%XY.U.K.K.U.U.U.U.U.[.&XbXNXpXuX&XOXXXOXXX{.D.O.[ ) ) { ` ` ` ) h h h h ( ) l l K ) ) ) ) ) ) { { ] ] ) ..#.7.#.{ ) ] ) ) ( K C C C ( #.L.L.L.F.L.+X+X%X8XjX8X+X{.T.T.T.T.T.T.Y.U.I.I.I.I.I.T.4XR.F.#.` ` ` { { ) ) ) ) { #.G.Y.Y.I.I.Y.T.+X+X+X+X X X$X$X$X$X#X+X X X X XT.T.T.$X#X$X$X+XT.$X$X$XT.T.T.T.T.T.T.T.T.T.T.T.T.T.T.T.T.T.T.T.$X$X%X$XR.4XnXkXR.L.L.Z.#.( ) ) ) ) ) ) ) ( [ ) ( ) ( ( ) { O.7.f.Z.L.L.L.+XF.u.Z.Z.A.A.F.L.Y.{.{.{.Y.L.K.K.K.A.f.f.f.j.j.u.X.u.A.A.f.#.+.#.h.K.`.L.K.K.f.X.X.X.#.7.f.f.h.j.j.j.j.j.h.h.h.h.h.h.h.g.g.g.d.d.d.g.d.d.a.a.s.s.a.a.a.a.a.a.a.a.a.a.1.1.1.1.1.1.+.+.O.+.O.O.[ [ X.O.+.#.O.X.[ | [ [ [ [ o.o.o.o.o.o.o.o.o.o.o.o.o.o.o.o.o.o.o.[ #.+X*X@Xq.h s 8 8 y h B f a y y y y y y y y t y d g g f B ( ] ] U J &.9.Q..X!.:.~ ~ W J E E J J J J J J J J J J J J S S H H S S S S S S S S S S S S S S S S H H S Z Z Z Z S  .`.`.6.J Z Z Z Z Z m M M M M m n n n n n n n n n n m n n n S U } } }  .,.,.,. .U D N Z Z N Z Z N N n n n n p e e e e e w w w w w w w w w w w w 0 0 0 0 0 0 0 0 0 0 0 0 0 0 0 0 1 1 1 1 0 1 1 1 1 1 1 1 1 1 1 1 1 1 1 1 ",
"b.b.b.b.x.b.b.!.!.!.!.b.b.b.b.b.b.b.b.b.b.b.b.b.b.b.b.b.b.!.~.^..XOXOXyXyXyX&XOXXX{.K.c.s.4.3.3.9.9.9.z.z.b.Q.Q.Q.!.!.!.!.!.!.Q.b.z.z.9.3.=.*.&.*.*.*.>.>.>.>.3.3.4.4.4.4.4.g.g.g.5.+.@.{ [ ( C g y y y y y y y y y y q q q q f V V Y ^ / <.s.c.n.c.n.n.a.o.Q Q Q Q Q Q o.a.x.n.n.n.n.n.n.n.n.n.n.n.n.n.n.n.n.n.m.n.n.n.n.m.m.N.l.l.l.l.K.{.{.%XbXjX+X$XnXFXFXFXnX%XY.K.K.K.U.U.U.[.OXuXpXuXuX&XOXOX&X&X{.K.f.@.@.7.Z.#.#.) h h h h h h h d g h ( ) ) ) K ) ) ) ) K K ) ) ....) ) ( ) ( ) ( C K ( ) #.H.L.G.S.L.@X%X%X%X%X%X+X{.T.T.T.T.T.T.T.Y.I.I.I.I.I.Y.%XR.Z.#.{ { ) ) ) ) ) l l ) ` Z.G.I.I.Y.T.T.+X+X+X+X+X X+X$X$X$X$X X X X X XT.T.T.$X X#X+X$XT.$X$X$XT.T.T.T.T.T.T.T.T.T.T.T.T.T.T.T.T.T.T.T.4XxXkX%X%XjXZXnX%XF.#.` ) ( ) ) { { ) ( ( ( ) ) ( ( ) ( ) { ..#.Z.F.L.A.K.L.F.u.#.u.F.L.L.L.Y.Y.L.K.Y.L.K.L.K.D.D.A.f.f.f.#.#.f.A.A.A.#.+.f.A.`.`.L.L.{.A.X.X.#.f.f.h.h.h.j.j.j.A.h.f.j.h.h.h.h.d.5.5.1.1.1.d.d.d.d.d.a.a.a.a.a.a.1.1.1.1.1.a.a.1.1.1.<.+.o.o.[ o.+.1.O.o.[ [ Q Q [ [ o.o.o.| [ [ [ | o.o.o.o.o.o.o.o.o.o.o.o.o.o.o.o.o.o.o.f.+X@XL...l d d l l u y t y y 9 y y 9 9 9 8 8 6 t u y y y h ] P P P :.2.Q..X_.2.~ ~ E J E E J J J J J J J J J J J J S S H H S S S S S S S S S S S S S S S S H S Z Z Z Z Z S ' 7.6. .J S Z Z Z Z M M M m m m n n n n n n n n n n n n m n S U } } } } } } } ' S N n n N N N N N n n n n p e e e e e e w w w w w w w w w w w w 0 0 0 0 0 0 0 0 0 0 0 0 0 0 0 3 1 1 1 1 0 0 1 1 1 1 1 1 1 1 1 1 1 1 1 1 ",
"b.b.b.x.z.z.z.b.b.b.b.b.b.b.b.b.b.b.b.b.b.b.b.b.b.b.b.b.b.b.M.^..X.XOXOXOXOXOXOX.X).m.x.4.<.<.3.2.9.9.z.z.b.Q.Q.Q.!.!.!.!.!.!.!.!.Q.b.z.9.3.2.=.2.2.2.2.2.2.4.4.4.c.c.c.c.c.N.H.K.K.H.A.h.5.@.{ ( C B f y q q q q q q q e e f N D Y ~ / <.a.s.x.n.n.n.n.a.<./ / Q Q Q Q / <.x.n.n.n.n.n.n.n.n.n.n.n.n.n.n.n.n.n.n.n.n.n.n.n.n.n.n.l.l.K.%XnXnXnXAXFXvX8X8XlXvXCXFXZXjXR.K.K.K.K.K.U. X6X6X6X6X&X&XOXXXXX{.K.f.5.7.H.H.Z.` ( h h h h h h d d d l l ) ) l h h l K l l h l l K ) ) K K l K ) ) K ) ) #.e.Z.Z.Z.Z.G.%XgX*X%XY.I.Y.T.T.T.T.Y. X X XT.Y.I.I.G.G.Y.$XY.u.#.` { ) ) ) ) z z l z ` u.G.L.I.Y.R.R.T.T.T.T.+XT.+XT. X X X X XT.T.T. X X X X X X XT. X X X XT.T.T.T.T.T.T.T.T.T.{. X X XT.T.T.T.T.R.4XZXZXkXjXVXmXvX*XJ.#.) ) ) ) ) ) ) ) h h ( _ ) ) ) { ) ) { X.X.f.L.L.A.G.L.F.Z.#.#.Z.G.L.L.{.Y.F.A.K.K.K.K.K.K.A.f.f.f.u.#.u.j.A.A.A.j.j.j.j.K.K.F.{.+XA.d.f.f.j.j.f.f.h.j.j.A.K.A.f.h.h.h.h.d.5.O.O.+.+.1.5.d.d.d.d.a.a.a.a.1.1.1.1.1.1.1.1.1.1.1.1.1.o.o./ [ [ o.+.+.+.o.Q Q [ [ [ O.O.+.o.| | | o.>.o.o.o.o.o.o.o.o.o.o.o.o.o.o.o.o.o.o.A.&X&XL.Z..._ ` ` ..l y d y y 9 8 8 8 9 6 6 6 = 6 8 9 = 9 u l h h L ' >.m..XXX8.~ G H H E E J J J J J J J J H H H H S S S S S S S S S S S S S S S S S S S S S Z Z Z Z Z Z Z Z J ' } } S Z n n n N N n n n n n n n n b b m m m n n n n n Z J } } } } } } U D m m m n n n n n m n b i e e e e i i i i w w w w 0 i i i i i i i i i r r i i i i r r r 3 r r r r 3 3 3 3 3 3 3 3 1 1 1 1 1 1 1 1 1 1 1 1 ",
"b.b.b.x.z.b.b.b.b.b.b.b.b.b.b.b.b.b.b.b.b.b.b.b.M.^.^.^.b.b.b.!.^.^.}..X.X.X.X[.).N.x.s.4.4.<.>.2.2.9.9.z.b.Q.Q.Q.!.!.!.!.!.!.!.!.!.Q.z.z.9.9.9.9.9.2.2.9.9.4.z.c.c.c.c.!.!._._.).{.).).).H.h.5.O.' D B f y q q e e q e e f B D T Q o.<.a.s.x.n.n.n.n.n.a.<.>.o.o.^ o.+.<.s.n.n.x.x.x.x.n.n.n.n.n.n.n.n.n.n.n.n.n.n.n.n.n.n.n.n.n.l.K.$XnXbX%XR.%X*X+XL.K.K.{.*XkXZXZXjXT.K.K.K.K.K.[. X&X&XOXOXOX{.[.).K.f.@.@.7.H.Z.#.) h h h l l l l d d d l l l l h d d d d l d d h l l ) ) ) ) l l L K ) ) ..q.Z.Z.Z.#.#.S.+X*X*X%XG.F.Y.T. XY.Y.Y.{.{.{. XY.Y.I.I.U.Y.+XU.u.` ` ` ..{ _ _ _ ) z ) ` #.F.I.Y.T.R.R.T.T.T.T.+XT.T.T. X X X XT.T.T.T.T.T.T.T. X X XT.T.T.T.T.T.T.T.T.T.T.T.T.T.T.T.T.T.T.T.T.T.R.%X4XkXmXcXjXjXnXjXR.+XJ.#.) ) ) ) ( ( ( ( ( l ) ) ) { #.` ) ( ) ` X.f.A.F.Z.G.G.F.A.A.Z.Z.F.G.L.L.K.K.F.F.F.F.F.D.A.f.+.#.u.u.f.f.A.A.A.A.A.A.A.j.A.A.A.A.F.f.f.j.j.j.j.f.f.f.f.A.A.A.f.f.f.d.h.h.5.O.X.X.[ O.+.1.1.d.d.d.a.a.a.1.1.1.1.1.1.1.1.1.1.1.1.1.1.o.o.Q [ [ [ o.+.+.o.o.[ [ [ [ [ o.o.o.o.o.>.>.o.o.o.o.o.o.| | | | | o.o.o.o.o.o.| [ A.*X*XL.A.Z.Z.e.#.#.K g l l d s s 8 6 = = # # # 6 8 8 6 > 8 l l g g C | c.XX&Xc.~ G E E E E J J J J J J J J H S H H S S S S S S S S S S S S Z Z S S S S S S S Z Z Z Z Z Z Z Z Z Z S S N N n n n n n n n n n n n n n b b m m m n n n n n n A U } } } } U S Z m m n n n n n n n b i e e e e e i i i i w w w w i i i i i i i i i i r r i i i i r r r 3 r r r r 3 3 3 3 3 3 3 3 1 1 1 1 1 1 1 1 1 1 1 1 ",
"b.b.b.b.b.b.b.b.b.b.b.b.b.b.b.b.b.b.b.b.b.b.b.b.b.!.^.^.!.b.b.b.M.!.^.^.!.!.M.M.M.b.x.x.z.s.p.4.2.2.2.3.p.z.z.Q.Q.Q.Q.Q.!.!.!.!.!.Q.Q.b.z.z.9.9.9.9.9.9.9.9.9.z.z.c.c.c.!.!._._.XXXXXXXX{.).H.h.5. .( C f p y e e p p p f N D T Q o.<.a.s.x.x.x.n.n.n.n.k.s.a.<.<.1.1.a.a.n.n.n.n.n.n.n.n.n.n.n.n.n.n.n.n.n.n.n.n.n.n.n.n.n.n.n.n.l.{.bXbX$XD.d.d.f.d.+.o.o.+.D.Y.@XvXnXjXY.K.D.K.K.U.{.{. X X X{.[.K.H.h.@.{ { ..#...) ) ( l l l l l d d d d d d d d d d d d d g l l l l ) _ #.#...) l l l K ) _ ..q.q.q.` ..V.P.@X%X%XG.F.Y.T.Y.Y.Y.Y.Y.Y.{.{.Y.Y.Y.Y.U.Y.{.L.u.X.X.` ` ` ..` _ _ z z ) ` F.G.Y.Y.R.R.$X$X$X$X$XR.R.T.T.T.T.T.T.T.T.T.T.T.T.T. XT.T.T.T.T.T.T.T.T.T.T.T.T.T.T.T.T.T.T.T.T.T.T.T.%XkXnXkXjXR.R.jXvX%XF.Z.Z.#.` ) ) ) l ) ) ) ) ) ( ( ( ` S.Z.` ( ) { { #.#.#.u.f.Z.A.F.A.A.F.F.G.L.L.G.F.F.F.F.A.A.A.f.f.u.f.f.f.j.A.A.A.A.A.A.A.A.A.D.K.A.j.j.f.j.j.j.j.j.f.f.Z.A.A.f.d.d.d.f.h.h.g.5.O.X.[ [ X.O.+.1.d.d.a.a.a.1.1.1.1.1.1.1.1.1.1.1.1.1.1.1.<.o.[ Q [ [ [ o.O.+.+.| [ [ [ [ | o.o.o.o.o.| | | | | | | | ^ ^ ^ ^ ^ ^ | | | o.o.o.A.+X+XF.7.7.@._ ) ) ) ) K g u y 8 6 6 # # # + 6 8 8 8 6 8 k I l l l g D 5.XX-X).} H H H E J J J J J J J J J S S S S S S S S S S S S S S S S Z Z Z Z Z Z S Z S Z Z Z Z Z Z Z N N N N N N N N n n n n n n n n n n n n b b b m n n n n n n n n A U ' U U D Z n b b b b e e e e i i e w e e e e i i i i w w w w i i i i i i i i i i r r i i i i r r 3 3 r r r r 3 3 3 3 3 3 3 3 1 1 1 1 1 1 1 1 1 1 1 1 ",
"b.x.x.b.b.b.Q.b.b.b.b.b.b.b.b.b.b.b.b.b.b.b.b.b.b.b.x.b.b.b.b.b.b.b.b.M.m.b.m.m.m.m.b.m.c.c.c.z.4.<.2.2.3.3.p.z.z.Q.Q.Q.Q.Q.Q.Q.!.Q.b.z.z.z.9.9.9.3.3.9.9.9.4.9.9.z.z.z.c.!.!._..XXXXXXX[.).K.c.5. .( C N f p p f f f M V D T Q o.<.p.s.x.x.x.x.n.n.n.n.k.k.x.s.a.a.x.x.n.n.n.n.n.N.N.N.m.n.n.n.n.n.n.n.n.n.n.n.n.n.n.n.n.n.n.n.n.K.6XbX&XD.a.<.+.o.o./ Q T Q X.+.A.{.8XvX%XK.D.K.K.K.U.{.{. X X{.{.K.A.f.5.#.{ ) ) ) ) ) ) ) l d d d d d d d d l d d d d d d d l l ) ) ) _ _ ..#._ _ l l l l l l ) ) _ _ _ ` q.S.G.P.+XG.A.G.Y.Y.Y.Y.Y.Y.Y.Y.Y.{. XY.Y.Y.Y.Y.D.u.X.X.X.#.#.#.` ` ) ) z z ` F.G.G.I.R.%XjXlX0X8X4X$XR.T.T.T.T.T.T.T.T.T.T.T.T.T.T.T.T.T.T.T.T.T.T.T.T.T.T.T.T.T.T.T.T.T.T.T.T.T.%XjXlX%XR.G.F.I.8X8X+XG.Z.F.Z.#.#.` ` ` ` ) ( ) ) l ) ( ) #.#.) ) ) ) { { X.#.` { ` Z.F.F.F.F.F.F.L.{.L.F.F.A.A.A.A.A.A.Z.f.f.Z.A.A.A.j.A.A.A.A.A.A.A.A.K.A.A.j.j.j.j.f.j.j.j.j.j.A.f.f.f.f.A.H.H.h.5.O.O.O.X.[ o.O.+.1.d.d.a.a.1.1.1.1.1.1.1.1.1.1.1.1.1.1.1.1.1.o.o.Q Q [ [ [ o.O.+.O.[ [ ' ' [ o.o.o.o.| | | | | | | | Q W W ^ ^ ^ ^ | ^ ^ | | +.f.A.A.A.#.) K l K { #.) g y 6 6 6 6 8 8 8 6 6 6 8 8 s k l l l d 8 d y f [ K.&X).} H H H J J J J J J J H S S S S S S S S S S S S S S S S S S Z Z Z Z Z Z Z Z S Z Z Z Z Z Z Z N N N N N N N N n n n n n n n n n n n n b b m m n n n n n n n n n Z A A n n n b b b b b e e e e i e w w e e e e i i i i w w w w i i i i i i i i i i r r i i i i i r 3 3 3 r r r 3 3 3 3 3 3 3 3 1 1 1 1 1 1 1 1 1 1 1 1 ",
"x.x.x.x.b.b.b.b.b.x.b.x.x.b.b.b.b.b.b.b.b.b.b.b.b.x.b.x.b.b.x.b.x.x.b.b.b.b.b.m.m.m.N.N.m.m.m.c.s.<.>.>.=.*.=.;.9.9.z.z.z.z.z.z.z.z.z.z.z.9.9.3.3.2.=.=.2.2.2.2.2.2.2.2.4.z.c.!.).)..X[.[.).K.h.1.[ T A B f f f N N N S Y E ^ o.<.a.s.x.x.x.x.x.x.x.x.x.n.n.n.n.n.n.n.n.n.n.N.N.N.U.[.[.U.N.N.m.n.n.n.n.n.n.n.n.n.n.x.n.n.n.n.n.l.{.uX8XU.k.a.<.o.o.X.X.T Y Y Y Q +.j.Y.&X&XY.K.K.K.D.K.U.{.&X&X&X{.K.j.A.Z.f.` ) ) ) ) { ` ) h d s s s s s d l l l l d l l l l z _ ` _ _ z ) ) ) l l l l k l l _ _ _ z _ _ q.V.V.V.G.R.G.A.G.Y.Y.Y.Y.Y.Y.Y.Y.Y.Y.Y.Y.Y.Y.Y.Y.K.f.#.#.#.#.#.#.` ) ) ) z ) u.F.F.F.I.$XnXvX*X$X$X*X%X$X{.T.T.T.T.T.T.T.T.Y.Y.T.T.T.T.T.T.T.T.T.T.T.T.T.T.T.T.T.T.T.T.T.T.T.T.Y.R.*XjX%XG.u.#.u.F.$X$X@X+XL.G.Z.u.V.#.` #.` ( h ( h h h h h ) ..) ) ` ` ..) { #.#.` #.A.F.F.F.F.F.F.{.{.L.F.G.F.A.D.A.A.A.A.A.A.A.A.A.A.A.A.A.j.j.A.A.A.A.j.j.j.j.h.h.h.f.f.f.f.f.f.h.f.A.F.L.Y.`.L.f.+.O.O.O.O.O.O.+.1.1.d.d.d.d.1.1.a.1.1.1.1.1.1.1.1.1.<.<.<.<.1.+.o.o.Q Q Q [ [ | O.O.[ [ ' W Q o.o.o.| ^ W W Q [ | | Q W E E Q | | ^ | | | | o.1.+.X.h.F.7.K f g K ) ) K d y 6 > # # 8 s 8 8 8 s s s I _ _ l d 8 6 8 s d ( 7.`.H.} J J J J J J J J J H S S S S S S S S S S S S S S Z Z Z S S Z Z H H S S S S S Z Z Z M M M Z N N N N M M N N n n n n n n n n n n n n b b n n n n n n n n n n n n n n b e b e e e e b e e e e e e e e e w w w e e e e 0 0 0 0 i i i i i i i i 0 0 0 0 0 0 0 0 r r r 1 1 1 1 0 3 3 3 3 1 1 1 1 1 1 1 1 1 1 1 1 1 1 1 1 ",
"x.x.x.x.z.z.z.z.z.z.z.z.x.x.x.x.b.b.b.b.b.b.b.b.x.x.b.b.b.b.x.x.z.x.x.x.x.b.b.m.M.N.!.!.!.!.m.m.z.2.>.*.*.&.&.&.=.=.=.=.=.2.2.2.2.2.2.2.3.2.2.>.>.*.*.&.*.^ ^ ^ ^ ^ ^ ^ *.>.<.4.c.N.K.).K.N.h.1.| T C V B f f f N S S E ~ ^ o.<.a.s.x.x.x.x.x.x.x.x.x.x.x.x.n.n.n.n.n.n.n.n.N.N.[.[.|.|.[.[.U.N.N.n.n.n.n.n.n.n.n.n.n.n.n.n.n.n.N. XuX$XN.n.d.o.[ [ ) ) ( Y C Y Y Q +.D.{.&X{.K.K.K.D.D.U.{. X&X XY.K.A.A.Z.#.{ ) K ( ) ) ) l d s s s s s d d k l z l l l l l l ) ` ` ` _ z l l l l l l k d k _ 0.q.` _ _ 0.V.S.q.V.G.+XG.Z.G.Y.Y.Y.Y.Y.Y.Y.Y.Y.U.U.U.Y.Y.Y.Y.K.f.u.Z.f.Z.f.#.) ) ` ) ) ` Z.G.F.F.Y.8X8XR.F.V.Z.G.+X$XT.T.T.T.T.T.T.T.T.Y.Y.T.T.T.T.Y.T.T.T.T.T.Y.Y.Y.Y.Y.Y.Y.T.Y.Y.T.T.T.T.Y.+X%X%XG.u.#.#.#.F.+X+X+X+XY.G.A.A.V.` ` ` ) ( l h h h ) l h h ) ) ) ..Z.Z.#.#.#.#.Z.A.F.F.F.F.F.F.G.L.L.F.G.+XL.F.D.A.A.A.A.A.A.A.j.A.D.K.D.A.j.j.A.A.A.h.f.f.j.j.j.h.j.j.f.f.f.f.f.f.A.+X&XY.F.Z.7.+.O.O.+.O.O.O.O.+.1.5.5.5.1.a.1.1.1.1.1.1.1.1.1.1.1.1.<.<.<.<.1.+.o.o.[ [ Q Q Q [ [ [ [ Q ' Q ^ o.o.o.| Q W T W W Q Q W E E E Q | | | | | | ^ o.g.+.X.h.A.A.( h ) #.#.) ) l y 6 = # 6 8 8 8 8 s s y s l _ _ k 8 6 5 s l z ) { H.H.' H J J J J J J J H S S S S S S S S S S S S S S S S Z Z S S Z S H H Z Z Z Z Z Z Z M M M M Z N N Z Z M M N n n n n n n n n n n n n n b n n n n n n n n n n n b b b b e e e e e e e b e e e e e e e e e w e w e e e e 0 0 0 0 i i i i i i i i 0 0 0 0 0 0 0 0 r r 1 1 1 1 1 1 3 3 3 3 1 1 1 1 1 1 1 1 1 1 1 1 1 1 1 1 ",
"x.x.x.z.z.z.z.z.z.z.z.z.z.x.x.x.z.z.z.z.z.z.z.z.x.x.z.z.x.x.z.z.z.z.x.x.x.b.b.b.!.!.!.!.!.!.m.m.s.<.*.*.*.&.&.^ ^ ! ! ! ! ! ^ ^ ^ ^ *.*.*.*.^ ^ ^ ! W W ! E E E E E E Y Y E W ^ >.2.4.4.4.4.,.| T V V V B V V V D T W Q | >.<.a.s.x.x.x.x.x.x.x.x.s.s.s.x.x.x.x.x.x.x.x.n.M.N.[.[.|.OXOXOX X].U.N.N.n.n.n.n.n.n.n.x.x.x.n.n.n.n.K.6XuX{.K.h.5.+.X.) Y ( ( ( Y Y Y T [ y.K.{.{.K.K.K.D.D.K.{.{.{.{.L.K.A.f.#...) K C h l l h d s s s s s s s s k l l l z z ) z z _ ` q.q.` _ z l l k s k k k l _ 0.q._ _ _ q.G.P.S.V.L.%XG.V.F.U.Y.U.U.U.Y.Y.Y.Y.U.U.Y.Y.Y.Y.Y.U.F.u.A.F.F.Z.#.{ ) ) ` ` V.G.G.G.G.$X4XL.u.X.#.#.u.F.+X{.T.Y.Y.Y.Y.Y.T.T.T.Y.Y.Y.Y.Y.Y.Y.T.T.T.T.T.Y.Y.Y.Y.Y.Y.Y.Y.Y.Y.Y.Y.Y.T.+X$XL.V.u.#.#.#.Z.{.{.Y.Y.T.Y.F.Z.#.` ` ) ) l l l l ) ` ) l ( _ _ ` q.Z.S.S.q.#.V.F.G.F.F.F.F.F.F.F.K.D.A.D.L.L.F.D.A.A.A.A.j.Z.Z.j.A.K.U.K.A.j.j.j.A.K.A.f.f.h.j.j.h.j.j.f.f.f.f.f.A.{.&XL.f.{ [ [ [ X.X.X.O.O.O.O.5.5.5.1.1.1.1.1.1.1.1.1.1.1.1.1.1.1.1.<.<.<.<.+.o.o.o.o.[ [ Q Q W [ [ W W Q Q ^ ^ o.o.| Q W T T T T T T T E E W | | | | ^ ^ ^ O.h.5.{ f.A.f.{ ) ) #.Z.` _ K y 6 6 6 6 8 d s s 8 6 6 8 s k l s 8 6 5 k _ 0._ K 7.7.' H J J J J J J J H S S S S S S S S S S S S S S S S Z Z Z Z Z Z Z Z Z Z Z Z Z Z Z M M M Z M Z Z Z Z M M M n n n n n n n n n n n n n b b n n n n n n n n n n b b b b b b e e e e e e e e e e e e e e w w 0 0 0 0 e e 0 0 0 0 i i i i i i i i 0 0 0 0 0 0 0 0 3 3 1 1 1 1 1 1 3 3 3 3 1 1 1 1 1 1 1 1 1 1 1 1 1 1 1 1 ",
"x.x.x.x.z.z.z.b.m.N.N.n.n.x.z.z.z.z.z.z.z.z.z.z.z.z.z.z.z.z.z.z.z.z.z.x.x.b.x.b.m.M.M.!.!.m.m.c.p.<.*.^ ^ ^ ^ ^ ! ! E E H H H J E E E W ~ ~ E E E E J S S S S S V Z N N M N N S S W ~ } | W W T V V V V C Y Y T E Q ^ o.>.<.a.s.x.x.x.x.x.x.x.x.s.s.s.s.x.x.x.x.x.x.x.x.n.N.[.[.OXOXOXOXOXOX|.[.K.N.N.N.n.n.n.n.n.x.x.x.n.n.n.n.K.6X6X{.j.+.O.X.) Y h l ) { { [ Y Y X.+.D.U.Y.K.K.K.D.D.K.{.{.Y.L.L.L.F.#.) ) ( K K h h h d d s s s s s s s s s d l l z _ _ z ) ` q.q.q.` _ z l l s s s l l l z _ _ _ ` 0.V.P.R.G.S.R.%XY.Z.F.U.U.U.U.U.U.U.U.U.U.U.Y.U.Y.Y.Y.Y.U.F.A.f.A.Z.f.#.` ) ` u.G.Y.Y.I.Y.%X$XZ.` { X.X.X.u.I.T.Y.Y.Y.Y.Y.Y.T.T.Y.Y.Y.Y.Y.Y.Y.Y.T.T.T.T.T.T.T.T.Y.Y.Y.Y.Y.Y.Y.Y.Y.Y.T.Y.U.A.u.u.#.#.` u.L.Y.Y.Y.Y.G.G.Z.` ` ) ) ` ` ` 0.q.q.q.#.` ) #.#.` ` ` #.Z.Z.q.#.Z.G.F.F.F.F.F.F.F.F.A.A.A.F.G.F.D.A.D.K.D.A.Z.Z.f.f.A.D.A.A.j.j.j.j.F.A.h.f.j.j.h.h.f.f.f.f.f.f.f.K.{.L.#.( Y Y Y T [ [ [ [ O.O.+.5.5.5.1.1.1.1.1.1.1.1.1.1.1.1.<.<.1.1.1.<.<.<.>.o.o.o.o.o.| [ [ [ Q W W Q Q Q ^ ^ ^ | | Q W T T T T T T T W W ^ | | | ^ ^ ^ ^ | h.+.( X.5.5.@.{ ) ) ) K l f y 9 8 8 8 s l l d s 8 8 s 8 8 s 8 8 8 8 s _ _ k d {  .J S J J J J J J J S S S S S S Z Z Z S S S S S S S S Z Z Z Z Z Z Z Z Z Z Z Z Z Z Z Z Z Z Z Z Z Z Z Z M M M n n n n n n n n n n n n m b b n n n n n n n n n n b b b b b b b b e e e e e e e w e e e e w w w 0 0 w w e 0 0 0 i i i i i i i i i 0 0 0 0 0 0 0 0 r 3 3 3 1 1 1 1 3 3 3 3 1 1 1 1 1 1 1 1 1 1 1 1 1 1 1 1 ",
"z.z.x.x.z.b.b.~.OXOX&X&X+XU.n.x.z.x.z.z.z.z.z.z.z.z.z.z.z.z.z.z.z.z.z.z.z.x.x.b.b.b.b.b.b.b.x.z.3.>.*.^ ^ ^ ! ~ E E E S S S S S S S S S S S S S S S S S N N M n n n N n n f n n N V V V S S S V V V V Y W [ o.o.o.o.o.<.<.a.s.z.x.x.x.x.x.x.x.x.x.x.x.x.x.x.x.x.x.x.x.x.n.N.[.OXOX&X&XOXOXOX[.[.U.K.N.N.N.n.N.n.n.n.n.n.n.n.n.n.K.&X&X[.g.X.Q Y Y Y Y ( ) ( [ { ( Y X.+.j.L.K.D.D.D.D.K.U.{.{.L.K.K.K.A.X.( ( ) ` ` _ l h d d s s s s s s s k l k l l ) _ _ z ) ` q.q.q._ z l l k k k k l z z z z z z _ ` q.G.R.R.R.%X*X+XA.F.U.U.U.U.U.U.U.Y.Y.Y.Y.Y.Y.Y.Y.Y.Y.Y.Y.L.A.f.u.Z.u.u.u.A.G.U.Y.Y.Y.Y.$XY.u.` ` ` ` ) X.F.Y.Y.Y.Y.Y.Y.Y.Y.Y.Y.Y.Y.Y.Y.Y.Y.Y.Y.T.T.T.T.T.Y.Y.Y.Y.Y.Y.Y.Y.Y.Y.Y.Y.Y.Y.U.A.V.u.#.#.` u.G.Y.Y.Y.L.F.L.Z.` ` z ) q.G.R.%X%X@X+XL.Z.#.#.{ ) ) ) ) ` Z.Z.Z.S.G.G.F.F.F.F.F.F.F.F.F.F.F.F.Z.A.A.L.+XL.A.f.f.f.f.f.A.A.A.A.j.j.f.j.f.f.h.f.j.j.f.f.f.f.f.f.f.h.K.J.#.[ Y Y T Y T [ [ [ X.O.+.5.5.5.5.5.1.1.1.1.1.1.1.1.1.1.1.1.1.1.<.<.<.<.<.>.>.>.o.o.o.o.| [ [ W Q Q Q Q | / o.o.| | | [ W T T T Y Y T W | ^ ^ ^ | | | | ^ | 5.+.( [ O.O.O.{ ( h g y d h d s d d d s d l l d d d d d s 8 8 k s 8 s l k 8 y B P D S J J J J H S S S S S S S S S S S Z Z Z Z Z Z Z Z Z Z Z Z Z Z Z Z Z Z Z Z Z Z N N Z Z Z N N N N n N N N N n n n n n n n n n n n n n n n n n b b b b b b e b b b b b b b b e e e e e i e e 0 w w w w 0 w w i i i i i i i i i i r r r r i i r r r r r r 3 3 1 1 1 1 1 1 1 1 1 1 1 1 1 1 1 1 1 1 1 1 1 1 1 1 ; ; ; 1 ",
"z.z.z.x.x.m.~..XOXOXuXvXbXvX&XK.x.x.z.z.z.z.z.z.z.z.z.z.z.z.z.z.z.z.z.z.z.z.x.x.b.b.b.b.x.x.z.z.3.>.>.*.^ ^ ! ! ! E E E E E S S S Z Z Z S S S Z N N N N N n n n n n n n n n f n N N N N N N N V V Y T Q o.1.1.s.a.a.a.a.s.s.x.x.x.x.x.x.x.x.x.x.x.x.x.x.x.x.x.x.x.x.x.n.N.~.[.OXOXOXOXOXOX.X[.N.K.K.N.N.N.n.n.n.n.n.n.n.n.n.k.k.n.XX{.K.1.Q Y Y Y Y ( ( Y Y Y Y Y [ ) [ f.K.D.j.l.l.D.K.{.XX{.{.K.K.A.#.( C ) #.Z.Z.Z.` l d d s s s s s s k s s k l z _ _ _ z l z _ _ _ l k s k l l k k k l z z z z z z _ _ V.G.R.+X*X*XR.A.F.U.U.U.U.U.U.U.U.Y.U.U.U.U.U.U.U.U.Y.{.$XY.F.Z.A.F.G.L.U.U.U.Y.Y.Y.Y.Y.L.u.{ ) ` X.) X.D.Y.Y.Y.Y.Y.Y.Y.Y.Y.Y.Y.Y.Y.Y.Y.Y.Y.Y.Y.Y.T.Y.Y.Y.Y.Y.Y.Y.Y.Y.Y.Y.Y.Y.Y.Y. XY.A.u.u.#.` ` u.G.Y.L.Y.F.V.S.Z.#._ _ V.R.nXZXZXvXjX*X*X+XL.q.) l ) ) _ q.Z.V.F.G.G.G.F.F.F.F.F.F.A.Z.F.F.Z.A.Z.A.A.F.Y.F.f.u.f.Z.f.f.f.j.A.A.j.h.f.f.f.h.h.h.h.j.f.f.f.f.f.f.f.h.A.f.O.[ T T T T T T [ [ O.O.1.1.5.1.+.+.1.5.1.1.1.1.1.1.1.1.1.1.1.<.<.>.>.<.<.>.>.>.o.o.o.o.o.| [ [ Q Q ^ o.o.o.^ o.| | [ Q W T T T Y Y T W [ | ^ ^ ^ | | | ~ | 5.5.( C Y [ O.X.{ h y g ) #.) d l l d s s d h d d d d d d 8 s l l s 8 8 8 8 y B S J J J J J J S S S S S S S S S S S S Z Z Z Z Z Z Z Z Z Z Z Z Z Z Z Z Z Z Z Z Z N N N Z Z N N N N N n n N N N n n n n n n n n n n n n n n n n n b b b b b b e b b e b e e b b e e e e e e e e w w w w 0 0 w w i i i i i i i i i i r r r r i i r 3 r r r r 3 1 1 1 1 1 1 1 1 1 1 1 1 1 1 1 1 1 1 1 1 1 1 1 1 1 ; 1 ; 1 ",
"z.z.z.x.b.!.^.!.N.N.K.{.8XvXnX8XK.x.z.x.x.z.z.z.z.z.z.z.z.z.z.z.z.z.z.z.z.z.z.z.x.x.x.x.z.z.p.p.3.<.2.>.*.*.^ ^ ! ! ! ! ! ! ! ! E S S S S S S S M M M M M M N N N N N N N N N N N V V V V D T W [ o.o.+.d.h.j.c.c.x.a.x.s.s.x.x.s.s.s.s.x.x.x.x.x.x.x.x.x.x.x.x.x.x.x.n.N.K.[.|.OXOXOXXX.X[.N.N.N.N.N.N.n.n.n.n.n.x.n.x.k.k.k.k.n.K.N.1.[ Q T Y Y Y Y C Y Y Y Y ( Y Y ) A.K.D.j.l.l.l.D.{.{.{.Y.K.K.h.X.C C ) #.H.J.H.#.l h d d s s s s s s k k s l z _ ` _ z l l l l l k s s k l z l l l l z _ 0.0.q.0._ z ` V.G.+X%X+XL.A.F.U.U.U.U.U.U.U.U.U.U.U.U.U.U.U.U.U.Y.+XY.K.F.F.F.U.Y.Y.Y.Y.U.U.Y.Y.Y.Y.K.u.+.#.u.#.` y.F.Y.Y.Y.Y.Y.Y.Y.Y.Y.Y.Y.Y.Y.Y.Y.Y.Y.Y.Y.Y.Y.Y.Y.Y.Y.Y.Y.Y.Y.Y.Y.Y.Y.Y.Y.Y.T.U.D.u.u.#.` ` V.G.Y.L.F.A.#.V.V.` ` S.gXZXGXnX8X+X{.+X@X@X@XL.q.) ) _ q.G.S.V.Z.G.G.F.F.F.F.F.F.A.Z.A.L.L.A.A.A.A.A.F.A.f.f.f.Z.Z.Z.f.f.j.j.A.j.f.f.h.h.h.h.h.h.f.f.f.f.f.f.f.f.h.A.5.{ [ [ [ [ T T T [ +.+.1.5.1.1.+.O.+.1.1.1.1.1.1.1.1.1.1.1.1.<.<.<.o.o.o.o.>.o.>.>.o.o.o.o.o.| | ^ | o.o.o.o.o.| | | Q T T T T Y Y Y T T ' | | } } | ^ | | | | ' A f f Y [ O.{ K g K ] #.( h K ) ) K ) ` X.{ ) ) h d s s 8 l l s 8 8 l k l P D J J J J J J S S S S S S S S S S S S Z Z Z Z Z Z Z Z Z Z Z Z Z Z Z Z Z Z Z Z Z N N N Z Z Z Z N N N N n n N n n n n n n n n n n n n n n n n n n b b b b b e e b b e e b e e e e e e e e e e e w w w w w w w w i i i i i i i i i i i r i i i r 3 3 3 3 r r 1 1 1 1 1 1 1 1 1 1 1 1 1 1 1 1 1 1 1 1 1 1 ; ; 1 1 1 1 1 1 ",
"z.z.x.b.!.^.!.x.p.p.3.s.D.{.*XuXXXn.z.z.z.z.z.z.z.z.z.z.z.z.z.z.z.z.z.z.z.z.i.z.z.z.z.z.z.z.p.p.p.3.3.3.2.>.=.*.*.*.*.*.*.*./ ^ ! ! E H S S S S S S S S V S S S S Y Y Y S S S S S S D D Y Q 1.h.l.g.g.s.c.l.N.K.N.n.k.x.x.s.s.s.s.s.s.x.s.s.s.s.x.x.x.x.x.x.x.x.x.x.x.x.n.N.B.[.[..X[.[.K.N.N.n.N.N.N.n.n.n.n.n.x.x.x.x.x.x.x.k.n.n.c.o.Q [ [ Y Y Y Y Y h h Y ( { ( V ( j.K.D.l.l.l.l.D.K.{.{.K.K.K.h.[ C C ( { #.Z.e...l h h h d d d s s s s s s l l _ _ _ z l s l l l l l l z z z z l z z z 0.V.S.P.V._ z z ` Z.P.R.L.Z.A.K.U.U.U.U.U.U.U.U.U.U.U.U.U.U.U.U.U.Y.Y.D.j.F.K.G.U.Y.U.U.Y.U.U.Y.Y.Y.U.K.D.j.D.U.F.u.A.U.Y.Y.Y.Y.Y.Y.Y.Y.Y.Y.Y.Y.Y.Y.Y.Y.Y.Y.Y.Y.Y.Y.Y.Y.Y.Y.Y.Y.Y.Y.Y.Y.Y.Y.Y.Y.Y.U.F.j.j.u.#.u.Z.F.G.G.A.u.#.#.#.` V.gXZXFXkX+XF.K.K.L.{.@X@X@XL.#._ ` V.S.S.q.Z.L.F.F.F.F.F.F.F.Z.Z.A.L.+XF.Z.Z.A.F.G.Z.f.D.K.Z.f.f.f.f.f.A.F.D.f.f.h.h.h.h.h.f.f.f.f.f.f.f.f.f.f.f.5.O.[ [ [ ( Q T [ X.5.5.5.5.1.1.+.+.+.1.1.1.1.1.1.1.1.1.1.1.1.1.1.<.o.o.o.o.>.>.>.>.o.o.o.o.o.o.o.^ ^ ^ ^ | o.o.| | Q T T Y T T T T T Y T W W | } } ~ ~ ^ ^ W W D f q e B [ +.X.( B C ( ) ( [ [ @.f.f.A.J.A.F.F.Z.#._ ) l l l l s 8 l 0._ ] ] J J J J J J J S S S S S S S S S S S S Z Z Z Z Z Z Z Z Z M M Z Z Z Z Z Z Z Z Z N N N N Z Z Z Z N N n N n n N n n n n n n n n n n n n n n n n n n b b b b b e b b b b e b b e e e e e e e e e e w w w w w w w w i i i i i i i i i i i i i i i i 3 3 3 3 r r 1 1 0 0 1 1 1 1 1 1 1 1 1 1 1 1 1 1 1 1 1 1 ; ; 1 1 1 1 1 1 ",
"z.z.z.b.!.!.b.p.=.=.<.>.1.d.A.K.K.x.x.x.z.z.z.z.z.z.z.z.z.z.z.z.z.z.i.z.z.z.z.i.p.p.z.z.z.z.z.p.z.p.3.3.3.3.3.3.<.3.3.3.3.3.<.<.*.^ ! ! E E E E Y S S S S Y E E ~ ! ! ! ! ! W W W W W E ^ >.c.)..X[.).c.n.n.N.K.N.n.k.x.x.s.s.s.x.x.x.x.s.s.s.s.x.x.x.x.s.s.s.x.x.x.x.x.x.n.n.N.N.N.N.N.n.n.n.n.k.n.n.n.n.k.k.k.x.x.x.x.x.x.x.k.n.n.l.1.X.+.[ Q [ [ X.( Y Y Y Y ( ) Y Y +.l.l.l.l.l.l.l.K.K.K.j.D.H.A.O.Y C Y [ ..#.#...) l l l l l l l d l l l l l l l l l l l s s l l z z z _ z z l l z _ z _ q.S.S.0.z l z _ q.S.S.V.u.D.U.U.U.U.U.U.U.U.U.U.U.U.U.U.U.U.U.U.Y.L.A.u.K.U.U.U.U.U.U.U.U.U.U.U.U.Y.U.U.K.G.Y.Y.L.L.U.Y.Y.Y.Y.Y.Y.Y.Y.Y.Y.Y.Y.Y.Y.Y.Y.Y.Y.Y.Y.Y.Y.Y.Y.Y.Y.Y.Y.Y.Y.Y.Y.Y.Y.Y.Y.U.U.K.K.D.u.u.A.F.A.A.A.V.u.Z.#.#.V.+XnXFXjXR.Z.@.#.h.A.L.{.L.L.L.Z.q.` #.#.#.#.Z.G.F.F.F.F.F.F.F.A.Z.Z.F.G.Z.Z.Z.A.G.F.f.f.G.L.Z.f.f.f.f.f.f.A.j.h.f.f.f.f.f.f.f.f.f.d.d.f.f.d.d.5.5.5.O.[ [ [ ( [ [ [ O.5.5.5.5.1.1.+.+.5.5.1.1.1.1.1.1.1.1.1.<.1.1.1.1.o.o.o.o.o.o.o.o.o.o.o.o.o.| | | | ^ ^ | | | | Q W T Y Y T T T T T D D E W W ~ ~ ^ ^ ^ ^ W W D C a q f { 5. .D A A ( ( @.A.5.d.j.H.`.{.{.{.{.L.F.Z.q._ l l s k k z _ I ..] J J J J J J S H H S S S S S S Z Z Z Z Z Z Z Z Z Z Z Z Z Z Z Z Z Z Z Z M M Z Z n n N N N N n n n n n n b b b n n n b n b b b b n n n n n n n n b b b b b b b b e e b b b b e e e e e e e e e e i i i i 0 0 0 0 i i i i i i i i i i i i 3 3 3 3 r r r r 1 1 1 1 1 1 1 1 1 1 1 1 1 1 1 1 1 1 1 1 1 1 1 1 ; 1 1 1 1 1 1 1 ",
"z.z.z.b.m.b.p.-.=.<.<.4.3.<.s.s.s.s.s.s.z.z.z.z.z.z.z.z.z.z.z.z.z.z.z.i.z.z.z.z.z.z.z.z.z.z.z.p.z.z.z.z.p.p.p.3.3.p.p.z.p.p.3.3.3.>.*./ ^ ! ! ! ! E E E E W ~ ^ / *.*.*.>.>.^ ^ ^ ^ ^ / o.1.n.).[.[.).N.n.n.n.n.l.k.a.a.s.s.a.x.x.x.p.p.s.s.s.x.x.x.x.x.s.s.s.s.s.s.x.k.x.x.k.n.n.n.n.n.n.k.x.x.x.k.k.k.k.k.k.k.x.x.x.x.x.x.x.x.x.x.j.d.+.+.o.[ X.O.+.X.X.T Y Y ( ( Y ) +.d.h.j.l.l.l.l.l.l.j.d.d.j.h.+.[ ( [ @.@.@.#.#.{ ) l l l ) ) ) ) ) _ _ z l l l s s s s s k l l z z z z z z k k l z z l z 0.0._ z k k z q.q.#.` #.A.U.U.U.U.U.U.U.U.U.U.U.U.U.U.U.U.U.U.Y.U.D.D.U.U.U.U.U.U.U.U.U.U.U.U.U.U.U.U.Y.U.U.Y.Y.U.U.U.U.Y.Y.Y.U.U.U.U.Y.Y.Y.Y.Y.Y.Y.Y.Y.Y.Y.Y.Y.Y.Y.Y.Y.Y.Y.Y.Y.Y.Y.Y.Y.U.U.U.U.U.U.K.l.j.F.F.F.D.Z.u.#.F.Z.u.G.*XvXjX+XZ.` { #.#.#.Z.A.A.#.Z.G.S.#.` _ ` #.Z.S.Z.F.F.F.Z.Z.Z.F.A.A.Z.Z.Z.S.Z.A.Z.Z.Z.f.A.Z.f.f.f.f.j.f.f.f.f.h.f.f.f.f.d.d.d.d.f.f.d.5.5.5.5.5.5.5.O.[ { { [ O.O.O.O.5.5.5.5.1.1.+.+.5.5.1.1.1.1.1.1.1.<.+.+.1.<.<.>.o.o.o.o.o.o.o.o.o.o.o.o.o.^ ^ | | | | | | | Q E T Y Y Y T W W W E D D W W W ~ } ^ ^ ~ ~ W W ( ] B q y B P A B V D Y Y X.A.d.d.j.{.XX&X&X&XXX`.A.#.` ) l l _ _ z z z _ @.' D J J J J S S H H H S S S S S Z Z Z Z Z Z Z Z Z Z Z Z Z Z Z Z Z Z Z Z M M M Z M n N N N N n n n n n n b b b n n b b n b b m m n n n n n n n n b b b b b b b b e e e e b b e e e e e e e e e e i i i i 0 0 0 0 i i i i i i i i i i i i 3 3 3 3 r r r r 1 1 1 1 1 1 1 1 1 1 1 1 1 1 1 1 1 1 1 1 1 1 1 1 ; ; 1 1 1 ; 1 1 ",
"z.z.z.i.z.z.p.p.<.>.>.>.>.>.4.m.m.n.s.p.z.z.z.z.z.z.z.z.z.z.z.p.z.z.z.i.z.z.z.z.z.z.z.z.z.z.z.z.z.z.z.z.z.z.p.p.p.s.z.z.z.z.p.p.3.3.<.=.*.*./ ^ ^ ! ^ ^ ! ^ / *.>.<.3.3.<.<.>.>.>.>.>.=.<.a.x.n.m.n.n.n.n.n.n.N.D.D.j.h.d.a.s.a.x.x.x.x.s.x.x.x.p.p.p.p.s.s.s.s.s.s.s.s.s.a.k.k.s.x.x.x.x.n.N.N.j.a.a.g.g.g.x.x.x.x.x.x.x.x.x.x.x.g.g.1.o.+.o.X.X.X.X.+.+.X.[ [ ) ) [ y.d.+.h.j.j.j.j.j.l.l.g.+.O.+.O.O.[ [ 5.f.7.@.@.#.#.) ) ) ) ` #.#.#.#.#.#._ l l d s s s s k l l l l z z z z z l k k k k k z _ 0.0._ z l z #.#.) ) #.j.F.K.U.U.K.K.K.K.U.U.U.U.U.U.U.U.U.U.Y.U.F.K.U.U.U.U.U.U.U.U.U.U.U.U.U.U.U.U.U.Y.Y.Y.U.U.U.U.U.U.I.U.U.U.U.U.Y.Y.Y.Y.U.U.U.U.U.U.U.U.U.U.U.U.U.U.U.U.U.Y.Y.Y.U.U.U.U.U.U.U.G.K.F.G.K.G.G.A.#.` #.Z.Z.R.*X%XR.S.#.{ ) { ) ) ` Z.Z.#.Z.G.L.Z.` _ #.Z.F.F.A.F.F.F.F.F.F.L.L.Z.Z.Z.L.Y.L.A.f.A.A.A.f.f.f.f.f.j.j.A.f.f.f.h.h.f.f.f.d.d.d.d.h.j.f.5.5.5.5.5.5.5.O.O.+.O.O.+.O.5.+.5.5.5.5.1.1.1.+.5.1.1.1.1.1.1.1.+.+.1.1.1.o.o.o.o.o.o.o.o.o.o.o.o.| o.o.^ ^ ^ ^ | | | | | Q W T Y Y Y Y W Q ^ ~ W E E W W ~ ~ ~ ^ ^ ~ ~ W W ( P g q q e f C D D ' ' T ( d.j.d.d.K.{.&X&XXX X[.A.#.) ) l _ P.P.0.z _ q.] P D J J J D S D H H S S S S S S Z Z Z Z Z Z Z Z Z Z Z Z Z Z Z Z Z Z Z Z M M M Z M n n N N N N n n n n n n n b b n n n n m m m m n n n n n n n n b b b b b b b b e b b e b e b b e e e e e e e e i i i i w 0 0 0 i i i i i i i i i i i i r r 3 3 r r r r 1 1 1 1 1 1 1 1 1 1 1 1 1 1 1 1 1 1 1 1 1 1 1 1 1 1 1 1 ; ; ; ; ",
"z.z.i.i.i.p.p.p.3.3.<.>.o./ / 4.x.x.x.s.p.p.p.p.z.z.z.z.z.z.p.p.z.z.i.i.z.z.z.z.p.p.z.z.z.z.z.z.z.z.z.z.z.z.z.p.p.p.z.z.z.z.z.p.p.p.3.3.<.<.<.*.*./ / / *.*.>.>.3.3.3.3.3.3.<.<.<.<.=.-.p.p.s.x.x.s.s.x.n.K.{.&X8X8X4X%XR.Y.D.h.a.x.x.x.x.x.x.x.p.p.p.p.s.s.s.x.x.s.s.s.s.a.a.a.a.s.a.a.l.[.XX&X{.K.a.a.a.g.x.x.x.x.s.s.a.a.a.a.x.s.a.a.1.1.1.O.+.+.#.f.j.f.X.X.y.X.X.d.d.d.d.h.j.j.j.j.l.j.g.+.X.[ Q T T [ O.5.5.O.X.#.#...) ) X.#.Z.Z.Z.#.#.#.) l l l l l l l z z _ _ _ _ _ z z z l k k k k l z 0.V.S.V.` z _ q.` ) ) u.D.K.K.K.K.K.K.K.K.K.K.K.K.K.K.K.K.U.U.U.U.U.U.U.U.U.U.U.U.U.U.U.U.U.U.U.U.U.U.U.U.Y.Y.U.U.U.U.U.U.U.U.U.U.U.U.U.Y.Y.Y.U.U.U.U.U.U.U.U.U.U.U.U.U.U.U.U.U.U.U.Y.Y.U.U.U.U.U.U.U.G.G.U.G.L.G.F.u.` ` #.Z.+X*X+XG.Z.#.{ ) ) ) ) ) ` #.` #.Z.G.Z.#.` V.Z.S.Z.A.Z.Z.Z.A.Z.L.L.G.Z.f.Z.G.L.F.A.f.f.Z.Z.f.Z.f.f.f.f.A.L.F.f.f.f.h.h.f.f.d.d.d.f.A.f.#.5.f.d.f.5.5.5.5.f.f.5.5.5.O.+.5.5.5.5.5.1.1.5.5.5.1.1.1.1.1.1.+.+.+.1.1.>.>.>.o.o.o.o.o.o.o.o.o.| o.o.^ ^ ^ ^ ^ | | | | ^ E T T Y Y T T W | | | ~ ~ W W ~ ~ ~ ~ ^ ~ ~ ~ W E T D f q q f D ' [  .5.O.[ T O.j.g.h.K.).{.{.[.OX{.L.H.q...` P.gXR.q.l l I P D H J J J D S S H H S S S S S S Z Z Z Z Z Z Z Z Z Z Z Z Z Z Z Z Z Z Z Z M M M Z n n n N N N n n n n n n n n n n n n n n m m m m n n n n n n n n e b b e b b b b e b e e e e b b e e e e e e e i i i i i w 0 0 i i i i i i i i r i i i i r 3 3 3 r r r r 1 1 0 0 1 1 1 1 1 1 1 1 1 1 1 1 1 1 1 1 1 1 1 1 1 1 1 1 ; ; ; ; ",
"i.i.z.i.z.z.z.z.x.z.a.1.1.+.o.<.a.s.s.s.p.x.x.x.x.z.p.p.z.z.p.p.z.z.z.p.p.p.p.p.p.p.p.p.p.p.p.p.p.z.p.p.p.p.p.p.p.z.z.z.z.z.z.z.z.p.p.p.3.3.3.<.<.<.<.<.=.<.3.3.3.p.p.s.p.p.p.3.3.3.-.3.p.s.z.z.x.s.x.x.n.[.&XvXCXFXFXZXZXnX8X{.N.s.s.s.p.x.p.p.x.s.s.s.s.s.p.p.p.s.s.s.a.a.x.x.a.a.a.g.N.K.N.K.{.U.k.a.a.a.x.s.a.s.s.s.s.s.s.x.a.a.a.a.a.g.d.1.h.f.d.j.h.+.[ X.+.[ Q +.d.d.h.h.h.c.j.j.l.j.h.d.+.O.[ T W W [ [ X.[ [ X...{ ) [ X.#.7.7.#.#.#.` ) z ) ) ) ) ) _ ` ` q.q.0.0.0._ z z k k k l z z 0.V.S.P.S.0._ ` q.#.) ` A.K.K.K.K.K.K.K.U.K.K.K.U.U.U.U.U.U.U.U.U.U.U.U.U.U.U.U.U.U.U.U.U.U.U.U.U.U.U.U.U.U.U.U.U.U.U.U.U.U.U.U.U.U.U.U.U.U.U.U.U.U.Y.U.U.U.U.U.U.U.U.U.U.U.U.U.U.U.U.U.U.U.U.U.U.U.U.U.U.L.L.G.L.L.G.Z.` ) ` Z.+X+XL.S.Z.Z.#.` X.` ) ) #.#.` V.S.L.Z.#.` V.S.F.F.A.F.F.F.A.F.G.F.Z.F.Z.Z.A.A.A.L.A.f.f.f.f.Z.Z.Z.Z.Z.A.K.A.f.f.f.f.f.j.h.d.d.d.A.K.f.+.5.5.d.5.5.5.5.5.5.5.5.5.5.5.5.5.5.5.5.5.5.5.5.1.1.1.1.5.1.+.+.1.+.>.>.o.<.<.>.>.>.o.o.o.o.o.o.| | | ^ ^ ^ ^ ^ ^ | | | | W E T T T T W W ^ ^ ^ ^ ~ ~ ~ ~ ~ ~ ~ ~ W W W W W W W E D p q L { { [ O.5.d.1.+.o.j.K.K.K.K.K.K.K.{.).{.{.J.` S.gXgXP.z 8 y B A D J H J J J J J H H S S S S S S S S S Z Z Z Z Z Z Z Z Z M M Z Z Z Z N N N N M M N n n n n n n n n n n n m m m n n n b b b b n n n n n p e e e e b b b b b b b b w e e e w w w w e w w w w w e e i i i i i i i i i i r r 3 3 3 3 r r r i r r 3 r 1 1 1 0 1 0 0 0 1 1 1 1 1 1 1 1 1 1 1 1 1 1 1 1 1 1 1 1 1 1 1 1 ; ; 1 1 ",
"i.i.i.i.z.z.z.z.p.3.>.o.o.o.>.=.<.a.a.s.n.[.OX&X+XL.j.a.a.s.p.p.p.z.z.p.p.p.p.p.p.p.p.p.p.p.p.p.p.p.p.p.p.p.p.p.p.p.p.z.z.z.z.z.p.p.p.p.p.p.3.3.3.3.3.3.3.3.3.3.3.p.p.p.p.p.p.p.3.p.3.p.p.z.s.s.x.m.N.N.n.N.{.&XjXkXkXkXnXnXvXuX{.c.s.s.p.x.x.p.s.s.s.s.s.s.p.s.s.a.a.g.D.{. X X{.L.l.h.j.h.a.d.h.D.j.a.a.a.s.s.s.s.s.s.s.s.s.x.a.a.a.a.x.a.a.1.g.h.h.j.+.[ Y Y Y Y X.d.h.g.g.g.g.h.c.j.j.j.j.g.h.g.1.| [ | o.O.O.X.[ [ [ ( ( ) { @.#.@.....#.#.` _ _ _ _ _ ` _ ` #.q.V.V.q.q.` _ z l l z z z z 0.q.V.V.q.0.` 0.q...) #.D.K.K.K.K.K.K.K.K.K.K.K.K.U.U.U.U.U.U.U.U.U.U.U.U.U.U.U.U.U.U.U.U.U.U.U.U.U.U.F.K.U.U.U.U.U.U.U.U.U.U.U.U.U.U.U.U.U.U.U.U.U.U.U.U.U.U.U.U.U.U.U.U.U.U.U.U.U.U.U.U.U.U.U.U.G.U.U.U.L.L.G.L.Y.Y.F.#.` #.Z.+X+XG.F.Z.#.#.Z.F.F.V.#.Z.Z.#.Z.G.L.S.q.V.Z.Z.F.F.F.F.F.F.Z.F.G.G.F.L.A.A.f.j.K.L.A.f.f.f.f.Z.Z.Z.Z.A.Z.Z.#.f.H.F.j.F.K.j.d.5.+.f.A.j.f.5.5.5.5.5.5.5.5.5.5.5.5.5.5.5.5.5.5.5.h.H.h.5.O.O.O.+.+.O.O.1.<.<.>.o.o.>.>.>.>.o.o.o.o.o.o.| | | | ^ ^ ^ ^ ^ ^ | | ^ Q W E D D E W W Q ^ ^ ~ ~ ~ ~ ~ ~ ~ ~ ~ ~ W W W W E W W W D N e f P P D  .g.j.c.N.c.).XXXX{.h.g.K.[.{.K.L.G.q._ q.+XP._ y y N A S J J H J J J J J J J S S S S S S S S Z Z Z Z Z Z Z Z Z Z M M Z M N Z N N N N M N N n n n n n n n n n n n m m n n n n n b b b n n n n p p e e e e b b b b b b b b w e e b w w w w 0 w w w w w e w i i i i i i i i i i r r 3 3 3 3 r r r r r r 3 3 1 1 1 0 1 1 0 0 1 1 1 1 1 1 1 1 1 1 1 1 1 1 1 1 1 1 1 1 1 1 1 1 ; ; ; ; ",
"i.i.i.i.z.z.z.z.p.3.=.=.=.<.>.=.<.p.p.n.[.&XuXVXVXnX*XL.g.a.a.p.p.p.p.p.p.p.p.p.p.p.p.p.p.p.p.z.p.p.p.p.p.p.p.p.p.p.p.p.p.p.p.p.p.p.p.p.p.p.p.p.p.p.p.p.p.p.p.p.p.p.p.p.p.p.p.p.p.p.p.p.p.p.p.a.s.n.K.N.n.k.n.K.K.L.L.L.Y.+X$X{.K.x.a.p.x.x.x.p.p.p.p.p.s.p.p.s.s.s.h.Y.8XbXbXbXbXvX%XK.j.d.d.y.h.Y.{.D.a.s.x.s.s.s.s.s.s.s.s.x.a.a.a.a.s.a.a.a.a.1.1.+.O.[ [ / Q +.a.h.h.g.g.g.g.h.g.g.j.j.g.g.h.g.,.| | o.,.5.d.5.O.{ ( Y Y ) O.7.7.@.{ ..#.#...#.#.#.` ` ` ` ` #.q.q.q.q.` _ _ z l z z _ z z z 0.0._ z _ ` ` _ ` ` #.A.K.K.K.K.K.K.K.K.K.K.K.K.K.K.K.K.K.K.K.K.K.K.K.U.K.K.K.K.K.U.K.U.U.U.U.K.U.U.F.F.U.U.U.U.U.U.U.U.U.U.U.U.U.U.U.U.I.I.U.U.U.U.U.U.U.U.U.U.U.U.U.U.U.U.U.G.U.U.U.L.L.G.G.G.U.Y.Y.U.L.L.G.G.U.U.F.Z.u.#.Z.+X+XJ.Z.Z.#.#.G.%X%XR.R.+XL.F.Z.G.G.G.S.Z.Z.F.S.S.G.L.+X+XL.L.Y.G.Z.Z.Z.Z.Z.A.A.A.f.f.f.f.f.h.A.A.L.L.S.S.Z.Z.F.J.A.K.A.#.5.f.+.+.5.h.A.h.5.5.5.5.5.5.5.5.5.5.5.5.5.5.5.5.5.f.L.`.f.[ ( ( [ [ [ X.O.1.,.<.o.o.o.>.o.>.>.o.o.o.o.o.| | | | ^ ^ ^ ^ ^ ^ ^ ^ ^ ^ ^ Q W T E W W W ~ ~ ~ ~ ~ ~ ~ ~ ~ ~ ~ ~ ~ W W W W W W W W W D N e B P B ( 7.c.K.).{.XX&XXXK.j.K.XX&XOX{.H.#.q.q.Z.J.S.l y f B S H J J J J J J J J J J H H S S Z Z S Z Z Z Z Z Z Z Z Z Z Z M M M M N N N N M M M N n n n n n n n n n n n n n n n n n n b b n n m n n n n n e e e e i i b b b b i i w w b b e e w w 0 0 w w w w e w i i i i i i i i i i i r r r 3 3 r r 3 3 r 1 1 3 1 1 1 1 1 1 1 1 1 1 1 1 1 1 1 1 1 1 1 1 1 1 1 1 1 1 ; ; ; ; ; 1 ; ; ; ; ",
"i.i.i.i.i.z.z.z.z.p.p.z.p.p.x.x.x.p.x.N.).).{.%XjXnXVXvX+Xg.a.p.p.p.p.p.p.p.p.p.p.p.p.p.z.p.p.p.p.p.p.p.p.p.p.p.p.p.p.p.p.p.p.p.p.p.p.p.p.p.p.p.p.p.p.p.p.p.p.p.p.p.p.p.p.p.p.p.p.3.p.p.s.s.a.a.s.s.x.n.x.x.x.n.N.K.K.K.c.j.j.g.s.a.a.a.p.p.p.p.p.p.p.p.p.s.p.s.s.g.{.uXuX$XY.Y.+X8XbX8X{.h.1.a.D.&X8XL.a.s.s.x.s.s.s.s.s.s.s.x.a.a.a.a.a.a.a.a.a.s.a.d.g.g.a.a.a.a.a.g.g.g.g.g.x.x.g.g.g.g.g.g.d.+.[ W Q o.,.5.g.d.5.O.[ ( T [ O.5.@.{ ) { ..#...#.#.#.#.#.` ` ` #.#.` ` _ _ z l l k l z l l l z z z z l l _ z l ( { u.D.D.K.K.K.D.K.K.K.K.K.K.K.K.K.K.K.K.K.K.K.K.K.K.K.K.K.K.K.K.K.K.U.U.U.U.K.U.U.U.U.U.U.U.U.U.U.U.U.U.U.U.U.U.U.U.G.G.G.G.U.U.G.U.U.U.U.U.L.L.L.U.U.U.U.U.G.G.G.G.G.G.G.G.U.{.{.F.A.F.G.L.L.L.G.F.A.A.u.Z.Y.L.Z.#.u.Z.L.*XnXnXvX*X%XY.G.F.G.G.Y.L.Z.Z.Z.F.G.R.*X*XL.Z.V.Z.Z.Z.Z.Z.Z.A.A.f.f.Z.f.f.f.f.h.A.J.@X+XS.L.L.Z.Z.f.f.#.#.{ X.+.+.O.O.f.A.f.5.5.5.5.f.5.5.5.+.O.O.O.O.O.O.O.O.f.K.H.{ Y Y Y T Y ( [ O.O.+.+.O.o.o.o.o.o.>.o.o.o.o.| | | | ^ ^ ^ ^ ^ ^ ^ | | | | | ^ W W W W W W W ~ W W ~ ~ ~ ~ ~ W ~ ~ ~ W W W W W W W W W W D D ( @.P D O.K.[.XXOXOXOXXX{.{.OX&X&XXX`.A.#.S.q.` e.#.K B B A S H J J J J J J J J J J J S S Z Z Z Z Z Z Z Z Z Z Z Z Z Z Z M M M M Z Z N N M M M N n n n n n n n n n n n n n n n n n n b b n n m n n n n n e e e e i b b b b b i i w w b b b e w w w w w w w w e e i i i i i i i i i i i r r r r 3 3 3 3 3 1 1 1 3 1 1 1 1 1 1 1 1 1 1 1 1 1 1 1 1 1 1 1 1 1 1 1 1 1 1 ; ; ; ; ; 1 1 ; ; ; ",
"p.p.i.i.p.p.p.p.p.p.p.z.z.p.s.s.p.p.x.n.n.g.s.h.F.+X8XvX8XK.1.p.p.p.p.p.p.p.p.p.p.p.p.p.p.p.p.p.p.p.p.p.p.p.p.p.p.p.p.p.p.p.z.p.p.p.p.p.p.p.p.p.p.p.p.p.p.p.p.a.p.p.p.p.p.p.p.p.3.p.p.N.{.XXL.g.a.a.s.s.x.s.s.n.).{.{.K.c.s.d.d.1.<.<.a.a.p.p.p.p.p.s.s.p.a.a.a.a.K.6X6XY.d.<.>.1.K.+XuXuXL.a.a.g.K.K.g.s.s.s.s.s.s.s.s.a.a.s.x.s.s.x.x.x.x.g.a.g.g.g.g.g.g.g.g.g.a.g.g.g.g.x.x.g.g.g.g.h.h.h.g.d.o.E Y W | <.1.5.5.1.O.O.[ ' ' { { [ ( ( ) { { ....#.#.#.#.#.#.#.e.q.#._ _ _ l l k k k k k k k l z z l l l l l d Y X.h.D.D.D.D.K.K.K.D.K.K.K.K.K.K.K.K.D.D.D.D.K.K.K.K.U.U.K.K.K.K.U.U.K.K.K.K.K.K.U.U.U.U.U.U.U.U.U.U.K.K.K.K.U.U.U.U.U.U.U.U.U.U.U.U.U.U.U.G.G.G.K.K.U.U.U.U.U.U.U.U.L.G.G.G.U.T.F.u.u.j.F.K.Y.Y.K.F.D.A.A.F.L.F.u.#.u.S.@XvXnXjX%XL.G.F.F.G.G.L.Y.F.Z.Z.Z.S.L.@X+XG.#.` ` #.Z.Z.Z.Z.Z.Z.f.f.f.f.f.f.f.f.Z.H.+X+XZ.#.H.Z.e.Z.f.#.#.{ ( { @.+.+.+.+.5.5.5.5.5.h.K.f.5.5.,.O.O.{ [ [ [ X.X.O.5.{ Y C D Y Y Y Y T [ O.O.O.O.o.o.o.| o.o.<.,.o.| | | | | | [ [ [ | | | | Q ^ ^ ^ ^ ^ ^ ^ ^ ^ ^ ~ ~ W ~ ~ W W W W W W W W W W W W E E E E E E W T ' ] ' S ' h.[.OX&X&XXXOXOX&X&XXX).K.H.Z.] I l l L K B D D S H H H J J J J J J J S S S S S Z Z Z Z Z Z Z Z Z Z Z Z Z Z M M M M M M M M M M M M N n n n n n n n n n n n n m m n n n n n n b b b b e e e e e e e e i i b b b b i i w w w v e e e e w w w w 0 w w w i i i i i i i i i i i i r r r r r r r 3 1 1 1 1 1 1 1 1 1 1 1 1 1 1 1 1 0 1 1 1 1 1 1 1 ; 1 1 1 1 1 1 ; ; ; 1 1 1 1 ; ; ",
"i.i.i.i.i.i.z.p.p.i.i.p.n.L.L.K.g.a.a.a.4.3.=.*./ 1.A.L.{.K.a.p.p.p.p.p.p.p.p.p.p.p.p.p.p.p.p.p.p.p.p.p.p.p.p.p.p.p.p.p.p.p.p.p.p.p.p.p.p.p.p.p.p.p.p.p.p.p.p.3.3.3.3.3.p.p.p.p.p.p.x.[.&XuX&XK.s.p.p.s.s.s.a.a.h.j.j.d.4.c.).{.K.a.<.<.a.a.a.p.a.a.p.p.a.a.a.a.g.[.&XY.d.Q ! ! ! / 1.L.&X{.g.s.s.a.a.s.s.a.a.a.a.a.s.s.a.s.s.x.x.x.x.x.c.g.x.g.g.g.g.a.a.d.d.d.a.a.g.g.g.g.g.g.g.g.g.g.h.h.h.h.g.1.Q Y E | 1.1.+.+.o.o.| [ ' [ [ [ [ ' ( ( ( ) ) ..#.#.7.e.7.#.q.Z.Z.V.q.q._ _ z l l l k k k k l _ _ _ l l l l h ( #.l.D.D.D.D.D.F.D.K.K.K.K.K.K.K.K.K.D.D.K.K.K.K.K.K.K.K.K.K.K.K.K.K.K.K.K.K.K.K.U.U.U.U.U.U.K.U.U.U.K.K.K.K.G.G.U.U.U.U.U.U.G.G.G.G.U.U.K.F.F.F.F.F.K.U.U.U.U.U.U.U.G.G.K.K.U.G.u.y.u.u.D.G.Y.T.K.F.F.D.A.F.F.A.#.#.Z.L.@X*X%XY.Z.V.#.V.G.L.G.G.G.Z.A.A.A.G.+X+XZ.#.{ ` ` #.Z.L.S.Z.Z.Z.f.f.f.f.f.f.f.f.A.L.L.Z.{ { @.#.#.#.` #.Z.X.) #.f.f.5.+.@.@.5.5.5.5.h.A.5.1.5.5.5.[ [ ( T ( [ O.{ [ Y C C D Y Y Y Y Y ( [ O.O.O.o.o.| | ,.,.o.| | | | | | ^ | | [ [ | | | | Q ^ ^ ^ ~ ~ ~ ~ ~ ~ ~ ~ W W W W W W W W W W W W W W E E E E E E E E E E D D S S [ j.).{.XX&X&X&X&X&X{.K.g.O.{ ( g y a f B D D D S H H H H H H J J J J J S S S S Z Z Z Z Z Z Z Z Z Z Z Z Z Z M M M M M M M M M M M N M N n n n n n n n n n n n n m m n n n n n n b b b b e e e e e e e e i i b b b b i i w w e e e e e b w w w w 0 0 0 w i i i i i i i i i i i i r r r r r r r r 1 1 1 1 1 1 0 0 1 1 1 1 1 1 1 1 1 1 1 1 1 1 1 1 ; ; 1 1 1 1 1 ; ; ; ; 1 1 1 ; ; ",
"i.i.p.p.p.p.p.z.x.z.i.n.&XvXnXjX$XK.s.<.4.4.3.=./ / o.+.5.s.<.i.p.p.i.i.p.p.p.p.i.i.i.i.p.p.p.p.p.p.p.p.p.p.p.p.p.p.p.p.p.p.p.p.p.p.p.p.p.p.p.p.p.p.3.3.p.3.-.3.-.i.i.i.-.-.-.i.i.p.x.n.K.).K.x.p.p.p.s.p.a.a.a.1.1.a.1.s.K.&X&X{.j.<.<.a.a.a.s.p.a.p.a.p.a.p.a.a.l.K.d.o.Q E R E ! ^ +.D.).c.s.a.a.a.a.a.a.a.a.a.p.s.s.a.s.x.x.a.x.g.n.l.j.g.g.g.g.g.a.a.a.a.a.a.a.g.g.g.g.g.g.g.g.g.g.g.g.h.h.g.d.o.Q E o.5.1.1.o.| [ [ [ [ | O.O.,.5. .[ ' ( ) ) ..#.7.e.Z.e.Z.S.S.S.Z.V.q.0._ z z l l k k k z _ 0._ l l l l ( X.h.D.D.D.D.D.D.D.D.D.D.D.K.K.K.K.K.K.K.K.K.K.D.D.K.K.K.K.K.K.K.F.F.K.K.K.K.K.K.K.K.U.U.U.U.K.K.K.U.U.U.U.K.K.G.G.G.G.U.U.U.U.G.G.G.G.U.K.F.F.A.Z.Z.F.K.I.I.U.K.K.U.U.K.K.K.K.K.D.h.u.j.A.D.G.L.L.G.U.K.D.D.K.F.Z.#.` #.G.L.+XF.u.#.#.V.S.L.L.F.A.F.F.F.A.A.L.+XZ.#.` ` X.` X.#.Z.Z.Z.Z.Z.f.f.f.f.f.f.f.f.A.F.#.) ) ) ) ) ) ) ( ) #.) { A.H.A.f.5.+.+.5.5.5.5.5.5.O.5.+.+.O.[ T T Y T [ O.[ ( Y D D D Y Y Y Y Y T [  .O.O.o.o.| ,.7.6.| | | | | [ ^ ^ ^ ^ [ [ ^ ^ W W Q Q ^ ^ ~ ~ ~ ~ ~ W W W W W W W W W W W W W W W W W W E E E E E E E E E J D S S E | ,.5.7.Z.H.H.H.H.7.{ P B p y y N A D D D S S H H H H H S S S S S S S S S S S Z Z Z Z Z Z Z Z Z Z Z Z Z Z Z Z M M M M N N M M N N N N n n n n n n n n n n n n m m m n n n n n b b b b e e e e e e e e i i i b b i i i e e e e e e e e 0 w w w w 0 0 0 i i i i i i i i i i i i 3 1 r r r r r r 1 1 1 1 1 0 0 0 1 1 1 1 1 1 1 1 1 1 1 1 1 1 1 1 1 1 1 1 1 1 1 1 ; ; 1 1 ; 1 1 ; ",
"i.i.i.i.p.i.z.z.b.b.z.x.{.uXnXnXnX+Xc.a.a.<.>./ / / / <.3.p.p.p.p.i.i.i.-.i.i.i.i.i.i.i.i.i.i.i.i.i.i.i.i.i.i.i.p.p.p.p.-.-.-.-.3.3.3.3.3.3.3.3.3.3.3.3.-.-.-.3.i.i.i.i.-.-.-.-.-.p.p.p.3.3.3.3.3.3.p.p.p.a.a.a.a.s.n.x.n.[.&X&X{.c.<.<.a.a.a.s.a.a.p.a.a.a.a.a.a.a.a./ / Q ! R E E Q Q o.s.a.a.p.p.a.a.<.a.a.p.a.a.s.s.a.x.x.x.s.x.n.l.l.l.g.g.a.a.a.a.s.a.s.a.a.a.g.g.g.g.g.g.g.g.g.g.g.g.h.h.g.g.1.o.Q Q +.1.1.o.| Q Q Q | o.<.5.j.H.h.f.5.{ [ [ { @.#.7.Z.Z.Z.S.J.J.Z.V.q.q._ _ z z l k k l z z z l l l K ) ) y.j.D.D.D.D.D.D.D.D.D.D.D.D.D.D.D.K.K.K.K.K.K.D.D.D.D.K.K.D.D.K.F.F.F.K.K.K.K.K.K.K.K.K.K.K.K.K.K.U.U.U.K.K.K.K.K.K.K.K.K.K.K.K.K.K.K.K.F.F.A.A.Z.Z.A.F.K.K.K.K.K.K.K.K.K.K.K.F.F.F.F.F.F.F.F.F.F.F.K.K.D.K.G.F.A.u.#.#.Z.S.S.u.#.#.Z.Z.S.G.G.A.A.D.F.F.A.A.L.G.u.#.#.X.X.X.X.#.#.u.Z.Z.f.f.f.f.f.f.f.f.f.#.#.[ ( ( ) ( C h K h h K ( ..S.H.f.5.5.5.5.5.5.+.+.1.+.5.5.O.[ [ X.[ T T [ @.O.{ ( Y D D D D D D D D Y [ [  .O.o.o.o.,.6.5.| | | | | Q [ | [ [ [ [ W W W W Q Q ^ ~ W W W W W W W W W W W W W W W W W W W W W W W W W W E E E E E E J J J J S S D D D P P P L P ' A B B n N N D D D D S S S H S H H H S S S S S S S S S S S Z Z Z Z Z Z Z Z Z Z Z Z Z Z Z Z M M M M N N M M N N N N n n n n n n n n n n n n m m n n b b n n b b b b e e e e e e e e i i i b b b i i e e e e e e e i 0 w e w w e 0 i i i i i i i i i i i i i 3 1 1 3 r r r r 0 1 1 1 1 1 0 0 1 1 1 1 1 1 1 1 1 1 ; 1 1 1 1 1 1 1 1 1 1 1 1 1 1 1 1 1 1 1 1 ; ",
"i.i.p.p.p.p.p.p.x.x.z.p.g.K.L.{.{.K.n.s.a.<.o./ / / >.<.p.p.p.p.p.i.i.i.i.i.i.i.i.i.p.p.i.i.i.i.p.3.p.p.p.p.3.p.-.-.-.-.-.-.-.-.-.-.-.-.-.-.3.3.3.3.-.-.-.-.-.-.-.-.-.-.-.-.-.-.-.-.3.<.3.-.-.3.-.3.p.p.p.p.p.a.p.s.m.n.g.l.K.K.N.s.<.<.<.<.a.a.a.a.a.a.a.p.p.a.a.a.<./ / Q ! E Q Q o./ / <.<.a.a.a.a.a.a.a.p.p.a.a.p.s.x.x.x.x.x.g.h.g.x.x.s.a.s.s.s.a.a.a.a.a.a.a.a.a.a.a.a.a.a.g.g.g.g.g.h.h.g.g.d.1.| E Q o.<.<.+.+.o.| | o.1.h.H.K.`.`.H.h.5.5.Z.A.f.7.A.H.L.L.J.Z.q.#.` _ _ _ _ z z z _ q.q.0.l l l g K ) #.h.l.l.D.D.D.D.D.D.D.D.D.D.D.D.D.D.D.D.D.D.K.D.D.K.K.K.K.K.K.D.K.K.D.F.K.G.K.K.K.K.K.K.K.K.K.K.K.K.U.U.U.U.U.U.U.U.U.U.U.K.K.K.K.K.K.K.F.A.Z.D.Z.Z.Z.Z.D.F.D.F.F.F.K.K.K.K.K.F.F.F.F.K.K.K.F.F.F.F.F.F.F.K.K.K.F.D.A.f.#.#.Z.Z.Z.A.A.A.A.A.F.Z.A.A.A.A.A.A.A.F.A.#.#.#.X.` { X.X.` u.Z.Z.Z.f.f.f.f.f.f.f.f.f.X.( Y ( ( C h ) { ) ) ) K K _ _ ..@.O.5.5.5.+.+.+.+.+.5.5.O.[ [ 7.O.T [ 5.5.[ ( Y C C C C C C D D D Y ' | | o.o.o.| | ,.,.| | | | ^ [ O.5. .[ [ ^ ^ ~ ~ ~ ~ ~ ~ ~ W W W W W W W W W W W W W W W W W W W W J J J J J J W W E J J J J J J J J D D S S S S A A D D D D D D D S D S S D S S S Z S S S S S S S S S S S S S S Z Z Z Z Z Z N N N N N N N N Z Z Z M M N M N n N N n n n n n n n n n n n n n n n n n n n n n n n n n n n n b b b b b b b i i i e e e e e e w w w w w w w w i i i i i i i i i i i i i i i i 3 3 r r r r r r 3 3 3 3 3 3 3 3 1 1 1 1 1 1 1 1 1 1 1 1 1 1 1 1 1 1 1 1 1 1 ; ; ; ; ; ; ; ; 1 1 ; - - - ",
"i.i.i.i.i.i.p.p.p.p.p.p.p.3.3.a.a.a.a.a.<.>./ / >.x.).c.p.3.3.p.i.i.i.i.i.i.i.i.i.i.i.i.i.i.i.i.p.3.3.p.p.p.p.3.-.-.-.-.-.-.-.-.-.-.-.-.-.-.3.3.-.-.-.-.-.-.-.-.-.-.-.-.-.-.-.-.-.-.-.-.-.-.-.-.-.-.-.3.-.-.3.3.3.3.s.a.1.1.a.a.1.<.<.<.<.<.3.3.3.3.p.3.3.3.3.3.<.s.s.>./ / ^ / Q Q E ^ >.<.<.p.<.a.<.3.p.p.p.p.p.a.a.s.x.n.n.x.g.g.g.a.s.a.s.a.a.a.a.a.a.a.a.<.a.s.a.a.a.a.a.a.g.g.g.g.g.g.g.g.g.g.h.d.<.o.Q o.<.1.1.5.1.<.<.5.h.H.).).{.XX{.K.H.L.{.{.L.A.H.L.L.+XJ.#._ _ _ _ _ ) l _ q.G.R.gX@XS._ l d g ( X.d.j.l.D.D.D.D.D.l.l.D.D.D.D.D.D.D.D.D.D.D.D.D.D.D.D.D.D.D.D.D.D.D.D.D.G.Y. X{.U.K.K.K.K.K.K.K.K.F.F.K.K.K.K.K.K.K.K.K.K.K.K.K.K.K.K.K.D.A.Z.V.V.D.Z.V.Z.V.D.D.F.F.F.F.F.K.K.K.F.F.D.F.F.F.K.F.F.F.F.F.F.L.Y.K.F.D.F.D.D.Z.#.u.f.Z.G.F.A.A.A.A.f.Z.A.A.A.A.A.A.A.A.#.#.#.` X.X.#.#.#.f.Z.f.f.f.f.f.f.f.f.7.Z.H.@.{ ( ( ( C ( ..#.#.#...K l l K ( ] { 5.f.5.+.+.+.+.+.5.5.O.[ [ O.X.[ O.h.5.[ Y Y C C C C C C C D Y T [ | | | o.o.| | | | o.| | ^ ^ | f.7.{ [ [ Q ~ ~ ~ ~ W W ~ ~ W W W W W W W W W W W W W W W W W W W W J J J J J J J J J J J J J J J J J J J J J J J J J J J J H H J H S D S S D S S S Z Z Z Z S S S S S S S S S S S Z Z Z Z Z Z N N N N N N N N Z Z Z M N M M n N N N n n n n n n n n n n n n n n n n n n n n n n n n n n n n b b b b b b b e i e e e e e e e w w w w w w w w i i i i i i i r i i i i i i i i 3 3 r 3 r r r r 3 3 3 3 3 3 3 3 1 1 1 1 1 1 1 1 1 1 1 1 1 1 1 1 1 1 1 1 1 1 ; ; ; 1 ; ; ; ; 1 1 ; - - - ",
"i.i.i.i.i.i.p.p.p.p.p.p.p.p.p.3.-.-.<.<.=.=.=.=.4.).XX).z.3.3.p.i.i.i.i.i.i.i.i.-.-.-.-.-.-.-.-.-.-.-.-.i.i.3.3.-.-.-.-.3.3.-.-.-.-.-.-.-.-.-.-.3.-.-.-.-.-.-.-.-.-.-.-.-.-.-.-.-.-.-.-.-.-.-.-.-.3.3.-.-.-.-.-.3.3.3.<.<.<.<.<.>.<.<.<.<.<.<.<.-.-.<.<.<.<.<.<.<.a.a.=./ / / o.^ Q Y E / >.=.<.<.<.<.<.p.p.p.p.p.a.a.a.s.x.x.x.s.s.s.a.a.a.a.a.a.a.a.a.a.<.<.a.a.a.s.a.a.a.a.a.a.a.a.a.a.g.g.g.g.g.g.g.d.1.+.1.<.<.1.d.d.5.g.c.K.).).`.XX&X&X`.K.`.{.XX`.H.Z.Z.H.G.Z.#._ ) ` #._ l l _ G.%XjXvXgXS.l d f h { #.j.l.D.D.D.D.D.D.l.D.D.D.D.D.D.D.l.l.D.D.D.D.D.D.D.D.D.D.D.D.D.D.D.D.F.{.$XY.K.Y.U.K.K.K.K.K.K.K.F.F.F.F.F.F.K.K.K.K.K.K.K.K.K.K.K.F.F.D.Z.u.u.V.Z.Z.V.V.V.u.u.D.F.F.F.F.F.F.F.F.D.D.D.D.F.F.F.F.F.F.F.K.{.Y.A.D.D.D.D.F.F.A.A.Z.Z.F.F.F.A.f.#.f.Z.A.A.A.A.A.A.A.Z.u.#.#.#.#.#.f.u.#.u.f.f.f.f.f.f.f.f.f.7.f.7.{ ) C C h h l _ Z.Z.#.) K K h L ) ) [ @.f.5.+.+.+.+.+.+.1.O.[ [ [ X.O.O.+.X.T Y Y C C D D C C C D T ' [ | | | | | | | | | 2.| | Q Q [ 5.@.O.| W W ~ ~ ~ ~ W W W W W W W W W W W W W W W W W W W W W W W W J J E E J J J J J J J J J J J J J J J J J J J J J J J J H H H J S S S S D S S S Z Z Z Z S S S S S S S S S Z S S Z Z Z Z Z N N N N N Z Z N N Z Z N N N N n N N N n n n n n n n n n n n n n n n n n n n n n n n n n n n n b b b b b b b e i e e e e e e e w w w w 0 w w w i i r r r r r r i i i i i i i i 3 3 3 3 1 1 r r 3 3 3 3 3 3 3 3 1 1 1 1 1 1 1 1 1 1 1 1 1 1 1 1 1 1 1 1 1 1 ; ; 1 1 1 ; ; 1 1 1 ; - - - ",
"i.i.i.i.i.i.p.p.p.i.i.i.3.p.p.p.p.3.3.3.-.<.<.<.p.!.).m.p.p.p.p.i.i.i.i.i.i.i.i.-.-.-.-.-.-.-.-.-.-.-.-.i.i.3.3.-.-.-.-.3.-.-.-.-.-.-.-.-.-.-.-.-.-.-.-.-.-.-.-.-.-.-.-.-.-.-.-.-.-.-.-.-.<.<.-.-.-.3.3.-.<.3.-.3.3.3.<.<.<.<.<.<.<.<.<.<.<.<.<.-.<.<.<.<.<.<.<.<.<.<.>.>.<.<.>./ / / / o.>.>.<.<.<.<.<.<.<.<.<.<.<.a.a.p.s.s.s.a.a.1.1.a.a.a.a.a.a.a.a.<.<.a.a.a.a.a.s.s.s.a.a.a.a.a.a.a.a.g.g.d.g.g.g.g.d.d.d.1.<.<.4.h.h.c.K.).{.[.{.&X-X-X&X`.).K.K.H.7.{ ) _ ` #.#._ _ #.#.) l l l q.R.gX%XP.0.l d h ) #.j.j.D.D.D.D.D.D.D.D.D.D.l.l.D.D.D.l.l.l.l.D.D.D.D.D.D.D.D.D.D.D.D.D.D.K.+XY.u.#.l.K.K.D.K.D.D.D.D.F.F.F.F.D.D.D.D.D.D.D.D.D.D.D.K.F.F.A.j.j.j.j.Z.Z.Z.Z.Z.u.u.u.j.D.F.F.F.F.F.F.F.D.D.D.D.F.F.F.F.F.F.F.F.K.A.f.D.F.F.D.D.F.F.D.D.F.F.Z.A.f.` X.f.Z.Z.A.A.j.j.A.f.Z.f.#.#.#.Z.#.Z.A.f.f.f.f.f.f.f.f.f.f.f.7.7.X.) C h h h h K _ e.#.) K K l h K ) ) ) X.5.5.+.+.+.+.+.+.O.O.O.O.O.O.O.O.O.[ T Y Y Y D D D C C D T ' [  . .| | | | | | | | ,.| | W W [ O.5.5.| W W W ~ ~ W W W W W W W W W W W W W W W W W W W W W J W W W J J E J J J J J J J J J J J J J J J J J J S S S J J J J H S H J S S S S D S Z S Z Z Z Z S S S S S S S S Z Z Z Z Z Z Z Z N N N N N N N Z N N Z Z M M M N N n N N n n n n n n n n n n n n n n n n n n n n n n n n n n n b b b b b b b b e e e e e e e e e i w w w 0 w w w i i r r r r i i i i i i 4 i 4 4 3 3 3 3 3 3 r r 3 3 3 3 3 3 3 3 1 1 1 1 1 1 1 1 1 1 1 1 1 1 1 1 1 1 1 1 1 ; ; ; 1 1 1 1 ; ; 1 1 ; - - - ",
"i.i.i.i.i.i.i.i.p.-.3.3.3.p.i.p.3.-.3.-.-.3.3.3.3.s.s.p.3.i.i.i.i.i.i.i.-.-.-.-.-.-.-.-.i.i.i.i.-.-.-.-.-.-.-.-.-.=.=.=.-.-.-.-.-.-.-.-.-.-.-.-.-.-.-.-.-.-.-.-.=.3.3.3.3.3.3.3.=.<.<.<.<.<.<.3.3.3.<.<.<.<.<.<.3.3.3.<.<.<.1.+.+.+.+.1.1.1.<.<.<.<.<.<.<.<.<.<.<.<.<.<.<.s.s.1.>.>.o.o.>.<.<.<.<.<.<.<.<.<.<.<.<.<.<.<.<.p.a.a.<.<.<.1.a.a.a.a.a.a.a.a.a.a.a.a.a.a.a.a.a.a.a.a.s.s.s.s.a.a.s.s.s.s.s.g.g.g.g.g.5.<.>.1.g.h.c.K.).[.{.[.XX&XuX-X&XXX{.L.f.) K K l l ) ) l l ) ) l d d l z _ q.q._ l h h ) #.f.A.j.j.j.l.l.l.j.l.l.l.D.D.D.D.D.D.D.D.D.D.D.l.l.D.D.D.D.D.D.D.D.D.D.D.K.Y.A.+.X.y.D.K.F.F.K.K.K.K.F.F.F.K.F.F.F.F.D.K.K.D.K.K.K.F.F.D.j.u.u.j.j.D.F.F.F.D.A.f.f.f.j.A.D.D.D.K.K.K.D.F.F.F.D.D.D.D.F.K.D.D.j.f.D.D.D.D.D.F.F.F.F.G.{.G.u.#.) ( X.f.Z.A.A.f.h.h.h.h.f.f.#.#.f.#.@.#.f.f.f.f.f.f.f.f.7.f.7.7.f.7.X.) C h h h h h K ) ) K g K K K K ) ( ( { +.5.+.O.+.+.+.O.O.+.+.O.O.O.O.O.O.X.[ [ ( Y ( D D C D ( [ [ |  .| | | | | | | ^ ^ | | | ^ | | [ | | ' W W W W W W W W W W W W W W W W W W E E E E E E E E J J J J J J J J J J J J J J J J J J J J J J J S S S S S H H S S S S S S S S S S S S S S Z Z Z Z Z Z Z Z Z Z Z Z Z Z Z Z M M N N Z Z N N N N Z Z M M N N b b M M N N N N N N N n n n n n n n n n n n n n p p p p p p p p n p e e b e e e e e b e e e e e e e e e e e w w 0 0 0 0 i r r r 0 0 0 0 3 3 3 3 1 3 1 1 1 1 1 1 1 1 1 1 3 3 3 3 1 1 1 1 1 1 1 1 1 1 1 1 1 1 1 1 1 1 1 1 1 1 1 1 ; ; ; ; ; ; ; 1 1 1 ; ; ; ; ; ; ",
"i.i.i.i.i.i.i.i.-.-.-.3.-.-.-.-.3.3.3.3.-.-.3.-.3.3.3.-.-.-.-.-.-.-.-.-.-.-.-.-.-.-.-.-.-.-.-.-.-.-.-.-.-.-.-.-.-.=.=.=.-.-.-.-.-.-.-.-.-.-.-.-.-.-.-.-.-.-.-.-.=.3.3.=.3.3.3.3.=.=.<.<.<.<.<.<.=.<.<.<.<.<.<.<.<.<.<.<.1.1.f.Z.Z.Z.Z.Z.u.#.+.1.<.<.<.<.<.<.<.<.<.<.<.<.<.1.1.<.>.>.o.o.<.<.<.<.<.<.<.<.<.<.<.<.<.<.<.<.<.<.<.<.<.<.<.1.s.s.s.s.a.a.a.a.a.a.a.<.a.a.1.1.a.1.a.1.a.a.s.s.a.a.s.s.a.a.s.s.s.s.d.d.d.1.<.o.O.<.,.j.).{.{.{.`.{.&XuX-X&X&X{.Z.) g h g g g g g g h h h g g g h l l l h h h ( X.f.j.j.j.j.j.j.l.l.j.j.l.l.l.l.l.l.l.l.l.l.l.l.D.D.l.l.D.D.D.D.D.D.D.D.D.D.D.D.f.y.+.y.D.D.D.D.D.D.D.D.F.F.F.F.F.F.F.F.D.D.D.D.K.K.F.D.D.u.u.u.u.f.D.D.F.F.F.F.D.A.f.f.f.j.A.D.D.F.D.D.D.F.F.D.D.D.D.D.K.K.D.D.D.D.D.D.A.A.A.A.A.A.F.L.+XF.#.{ ) ) #.f.Z.Z.Z.f.h.h.h.h.f.Z.A.Z.#.#.#.#.f.f.f.f.f.f.f.f.f.f.7.7.7.#.X.) h h h h g g g g g g l L K K K K ( { X.5.5.+.+.O.+.O.O.O.O.O.O.O.O.O.O.O.O.O.[ [ [ ' ( ( ( ( ) { { [ [ | | | | | | | | | ^ ^ ^ } | | W W W W W W W W W W W W W W W W W W W W E E E E E E E E E E J J J J J J J J J J J J J J J J J J J J J J J H S S S S H H S S S S S S S S S S Z Z Z Z Z Z Z Z Z Z Z Z Z Z Z Z Z Z Z Z M M N N Z Z N N N N Z Z M M M M b b b b N N N N N N n n n n n n n n n n n n n n p n p p p p p p p e e e e e e p e e e e e e e e i i i i i i i i w w w w i i i i i i i r 3 3 3 3 1 1 1 3 1 1 1 1 1 1 1 1 3 3 3 3 1 1 1 1 1 1 1 1 1 1 1 1 1 1 1 1 1 1 1 1 1 1 1 1 ; ; ; ; ; ; ; 1 1 1 ; ; ; ; ; ; ",
"i.i.i.i.-.-.-.-.-.-.-.-.-.-.-.-.i.i.i.i.-.-.-.-.-.-.-.-.-.-.-.-.-.-.-.-.-.-.-.-.-.-.-.-.-.-.-.-.-.-.-.-.-.-.-.-.-.-.=.=.-.-.-.-.=.=.-.-.-.-.-.-.-.-.-.-.-.=.=.=.=.=.=.=.=.=.=.=.=.=.=.=.<.<.<.3.p.x.x.4.<.<.<.<.<.<.<.1.j.Y.%XjXjXjXjXgX%XR.G.Z.1.>.<.<.<.<.<.<.<.<.>.<.<.<.<.>.<.>.>.<.<.<.<.<.<.<.<.<.<.<.<.<.<.<.<.<.<.<.<.<.<.<.<.a.s.s.s.s.1.<.<.<.<.<.<.<.<.1.1.1.1.1.a.a.1.1.1.4.4.s.s.s.a.a.a.a.a.a.s.s.d.d.5.<.o.| o.j.).[.XXXX{.).{.XX&XXXXX`.7.( g g g g l l h h h ( ( K h h h l h h h l ) #.f.j.j.j.j.j.j.j.j.j.j.j.l.l.l.l.l.l.l.l.l.l.l.l.l.l.l.l.l.l.l.l.D.D.D.D.l.D.D.D.h.d.d.h.D.D.D.D.D.D.D.D.D.D.D.D.D.D.D.D.D.D.D.D.D.D.D.l.u.u.u.u.u.j.F.D.D.D.D.F.D.D.j.u.u.u.j.D.D.D.D.D.D.F.D.D.D.D.F.D.D.D.D.D.D.D.D.D.A.A.A.A.A.A.A.F.G.f.#.#.X.X.f.f.Z.Z.Z.Z.j.h.f.f.f.G.Y.F.#.#.f.f.f.f.f.f.5.5.5.f.A.A.7.#.#.@.#.) ( K h l ) ) g g g g l l l l h h ( { X.@.+.O.+.+.+.+.O.O.O.O.O.O.O.X.O.O.O.O.O. .{ { ) ( ( ( ( [ [ [ [ | | | | | | | | | ^ ^ ^ } } } ~ W W W W ~ W W W W W W W W W W W W E E E E J J J J E E E E J J J J J J J J J J J J J J J J J J J J J J J H H S S S H H S S S S S S S S S S Z Z Z Z Z Z Z Z Z Z Z Z Z Z Z Z Z Z Z Z M M M M Z Z Z N N N N Z M M N M n n b n n n n n n n n n n n n n n b n n n n n n n p p p p p p e e p p N B D ( ] ] ] ( D N n n e e e e i i i i i e w w w i i i i i i r r r 3 3 3 1 1 0 0 1 1 1 1 0 0 1 1 3 3 3 3 1 1 1 1 1 1 1 1 1 1 1 1 1 1 1 1 1 1 1 1 1 1 1 1 ; ; ; ; ; ; 1 1 1 1 ; ; - ; ; - ",
"3.3.-.i.-.-.-.-.-.-.-.-.-.-.-.-.-.-.i.i.-.-.-.-.-.-.-.-.-.-.-.-.-.-.-.-.-.-.=.=.3.3.3.<.=.=.-.-.=.=.=.=.=.-.-.-.-.-.=.=.=.=.=.3.<.<.=.<.-.=.=.=.=.=.-.-.=.=.=.=.=.=.=.=.=.=.=.=.=.=.=.=.<.<.<.p.).XXXXN.4.<.<.>.>.<.d.K.&XvXFXGXGXGXGXGXGXGXnXgXL.5.o.>.<.<.<.<.<.<.<.<.<.<.<.<.>.<.<.<.<.<.<.<.<.<.<.<.<.<.<.<.<.<.<.<.<.<.<.<.<.<.a.s.s.g.g.s.<.<.<.<.<.<.<.<.<.<.1.1.1.1.a.a.1.a.1.1.1.1.a.a.a.a.a.a.a.a.a.s.s.d.5.1.<.o.o.g.j.c.).{.`.H.j.H.H.H.A.f.{ C g h l K _ ) ) ) ) ) ) ) ) ) ) ` ) ( ) ` #.f.h.j.j.j.j.j.j.j.j.j.j.j.l.l.l.l.l.l.l.l.l.l.l.l.l.l.l.l.l.l.l.l.l.D.D.D.l.l.D.D.l.l.l.l.D.D.D.D.D.D.D.D.D.D.D.D.D.D.D.D.D.D.D.D.D.l.j.u.u.u.u.u.u.A.F.D.D.D.D.D.F.F.j.u.u.u.j.D.D.D.D.D.D.F.D.D.D.D.F.D.D.D.D.D.D.A.A.A.A.A.A.A.A.A.A.A.A.f.A.A.u.u.f.f.Z.Z.Z.Z.j.f.f.f.f.A.F.A.#.5.f.f.f.f.f.f.5.5.f.f.A.A.7.#.#.@.X.{ ..) l ) q.q.K d g g l K K l h h C ) ) { O.O.O.O.o.o.O.O.X.X.X.X.X.{ X.o.o.O.O. .{ { ( D D C D ( [  .| | | | | | | | | | ^ ^ ^ ~ W ~ ~ ~ W W W W W W W W W W W W W W E E E E E W J J J J J J E E E J J J J J J J J J J J J J J J J J J J J J J H H S S S S S S S S S S S S S S S Z Z Z Z N N Z Z Z Z Z Z Z Z Z Z Z Z Z Z M M M N Z Z Z N N N Z Z N n n n n n n n n n n n n n n n n n n n b b n n n n n p p p p e e e p g l _ #.Z.G.Y.{.XXXXXX{.`.H.7.,.U A m b b b i i i 0 0 w w i i i i i i r r r 3 3 3 0 0 0 0 0 1 1 1 1 0 1 1 3 3 3 3 1 1 1 1 1 1 1 1 1 1 1 1 1 1 1 1 1 1 1 1 1 1 1 1 1 ; ; ; ; ; ; ; ; ; ; ; - - - - ",
"9.3.3.-.-.-.-.-.-.-.-.-.-.-.-.-.-.-.-.-.-.-.-.-.-.-.-.-.-.-.-.-.-.-.-.-.<.<.<.<.3.<.<.<.<.<.<.<.<.<.3.3.3.<.=.=.=.<.<.=.=.<.<.<.<.<.<.<.3.3.3.3.=.=.=.=.=.=.=.=.=.<.<.<.<.<.<.<.<.<.<.<.<.<.<.3.c.).).).4.<.<.<.>.1.K.&XvXCXFXGXHXFXZXFXFXGXGXGXnXR.Z.+.+.<.<.<.<.<.>.>.>.>.>.>.>.>.<.<.<.<.<.<.<.<.<.<.<.<.<.<.<.<.<.<.<.<.<.<.>.<.a.s.s.g.s.s.a.3.<.<.<.<.<.<.<.<.<.<.1.1.1.1.<.<.<.<.a.1.1.a.a.a.a.1.1.1.a.a.a.s.s.4.1.1.>.o.o.O.5.5.f.5.1.O.O.O.{ ] K C C ( ) ) #.#.{ { { ) ) ) ..#.` #.` ` u.u.f.h.h.h.h.h.j.j.j.j.j.j.j.j.j.j.l.l.l.l.l.l.l.l.l.l.l.l.l.l.D.D.D.l.D.D.D.l.l.l.l.D.D.D.D.D.D.D.D.D.D.D.D.D.D.D.D.D.D.D.D.D.l.l.D.D.D.j.u.u.u.V.V.u.V.F.F.F.D.D.D.D.D.D.j.f.u.u.u.j.D.D.D.D.D.D.D.D.D.D.D.A.D.A.D.D.A.D.D.A.A.A.A.A.F.F.A.f.f.A.D.A.f.f.f.f.f.f.f.Z.f.f.f.f.f.f.f.A.H.f.f.f.f.f.f.5.5.f.h.h.A.f.#.#.#.#.X.{ ` ) ) ) q...l g l K K ) K h g h h C Y [ X.o.o.o.o.O.O.O.| | | |  . . .{  . .o.[ [ ( C C D C D T [  . .| | | | | | | | ^ | W W W W W W ~ ~ ~ W W W W W W E J J J E E E E J J J J J J J J J J J J J J J J J J J J H H J J J J J J S S D D S S S S S S S S S S S S S Z Z Z Z Z Z Z Z Z Z Z Z Z Z Z Z Z Z Z Z Z Z Z Z Z Z N N Z Z Z N N n n N N N N N n n n n n n n n n n n n n n n n n n n n n n n n n p p p p y y g I 0.V.L.+X8XvXbXNXdXpXuXuXuX-X-X-XXX_.8.:.G m v b i i i i i i i i i i i i r r r r 3 3 3 3 3 3 3 3 3 3 3 3 3 3 3 3 3 1 1 1 1 1 1 1 1 1 1 1 1 1 1 1 1 1 1 1 1 1 ; ; ; ; ; ; ; ; - - ; ; ; ; ; ; - - - - ",
"9.3.3.3.-.-.-.-.-.-.-.-.-.-.-.-.-.-.-.9.p.3.-.-.-.-.-.-.-.-.-.-.-.-.=.=.<.<.+.1.1.1.+.5.5.+.+.1.1.1.<.<.<.<.<.>.>.>.>.>.1.d.d.5.+.>.<.<.<.<.<.<.3.3.3.=.3.=.3.3.=.=.<.<.<.<.<.<.<.<.<.<.>.<.3.x.j.c.d.4.<.>.>.<.<.g.K.&XuXvXvXvXjX*X+X+X%XjXmXFXGXZX*XS.+.+.+.>.>.>.>.>.>.>.>.>.>.>.<.<.>.<.>.>.>.>.>.>.<.<.<.<.<.<.<.<.<.<.<.>.<.<.a.s.g.g.s.s.a.3.<.<.<.<.<.<.<.<.1.<.1.1.1.1.<.<.<.<.a.a.1.1.a.a.a.1.1.1.a.a.a.a.a.s.g.s.4.<.+.o.[ [ [ [ [ ( Y P ( P ( ) { ..#.#.f.#.{ ) ) ( ( ( ) ) ) ` f.f.f.f.h.h.h.h.h.h.j.j.j.j.j.j.j.j.j.j.j.j.l.j.j.j.l.l.l.l.l.l.l.l.l.D.l.l.l.l.j.l.l.D.l.D.D.F.F.D.l.l.D.D.D.D.D.D.D.D.D.D.D.D.D.l.l.l.D.D.j.u.u.u.V.V.V.V.S.G.G.G.G.G.F.F.D.D.j.f.u.u.f.j.D.D.D.D.D.D.D.D.D.D.A.A.A.A.D.A.j.j.j.j.j.j.j.D.K.F.A.f.f.Z.f.f.f.f.f.f.f.f.f.Z.j.f.f.f.f.f.f.F.L.f.f.f.f.7.5.5.5.h.A.f.7.#.#.#.#.@.{ ) ) ) .._ ) l l l ) ) K ) K h h h h h ( [ X.o.o.o.O.O.O.O.| | | |  . . . . . .[ [ ( D C C C C D ( [  .| | | | | | | | ~ ~ ' W W W W W W W W | ~ W W W W W J J J E E E E E J J J J J J J J J J J J J J J J J J J J H H J J J J J J S S D D S S S S S S S S S S S S S S Z Z Z Z Z Z Z Z Z Z Z Z Z Z Z Z Z Z Z Z Z Z Z Z N N N Z Z Z N N N n N N N N n n n n n n n n n n n n n n n n n n n n n n n n n p p p y y l _ S.R.jXnXVXCXCXNXdXyXyXOX.X.X_.)._._._._.XX_.Q.:.G m v i i i i i i i i i i i r r r r 3 r 3 3 3 3 3 3 3 3 3 3 3 3 3 3 1 1 1 1 1 1 1 1 1 1 1 1 1 1 1 1 1 1 1 1 ; ; ; ; 1 1 ; ; ; ; - - ; ; ; ; ; ; - - - - ",
"-.-.3.3.-.-.-.-.-.-.-.-.-.-.-.-.-.3.3.p.p.p.-.-.-.-.-.-.-.-.-.-.=.=.<.1.h.A.G.G.L.P.P.P.P.P.G.G.V.#.+.+.+.1.<.<.>.>.1.j.L.+X$X+XL.j.+.o.>.>.<.>.3.3.3.2.2.=.>.=.=.=.=.=.=.=.*.*.=.=.=.=.>.3.c..XXX[.N.<.>.>.>.>.1.c.K.[.{.{.Y.L.A.h.5.#.u.S.R.%XjXnXnX*XA.o.o.>.>.>.>.>.>.>.>.>.*.>.=.>.>.>.>.>.>.>.>.>.<.<.<.<.<.<.<.<.<.<.>.>.<.1.a.s.x.x.s.s.a.<.<.<.<.<.<.<.1.1.1.1.1.1.1.1.<.<.<.<.<.<.1.<.a.a.a.a.1.1.1.a.1.s.a.a.s.s.4.a.1.1.o.o.o.O.{ ( P P P ( { #.@.#.#.#.#.#.) ( Y Y C h ( ) { 7.H.f.h.h.h.h.h.h.h.h.h.h.h.h.j.j.j.j.j.j.j.j.j.j.j.j.l.l.l.l.l.j.j.l.l.l.l.l.l.l.l.l.l.l.l.K.+X+X+XY.D.l.l.D.D.D.D.D.D.D.D.D.D.D.D.D.l.D.A.Z.u.u.V.V.G.P.R.R.gXjXjXgX%XR.G.F.D.A.f.u.u.u.f.j.D.D.D.D.D.D.D.D.D.D.D.D.A.A.A.A.A.A.j.j.j.j.j.j.A.A.f.f.f.f.f.f.f.f.f.f.f.Z.A.F.A.f.f.f.f.f.f.f.f.f.5.7.f.5.5.5.5.5.7.#.#.@.@.@.#.#.X.) ) K ) ) h h h ( ) ( h h C C ( h h Y ) @.O.o.o.O.O.O.O.o.| | | |  . .| | o.o.[ [ ( C C C C C D '  . .| | | | | | | ~ | } | } W W W W W W W W W W W W W W J E E E J E J E J J J J J J J J J J J J J J J J J J J J H H H H J J J J H S H H S S S S S S S S S S S S S S S Z Z Z Z Z Z Z Z Z Z Z Z Z Z Z Z Z Z Z N Z Z Z N N N N Z Z N N n n N N N N n n n n n n n n n n n n n n n n n n n n n n n n p p p p a _ C.gXmXGXGXFXCXNXpXyXOX.X^.!.Q.W.9.;.;.9.9.t.Q._._.Q.9.%.Z b i i i i r 0 0 0 i i i i r r r r 3 3 3 3 3 3 3 3 3 3 3 3 3 1 1 1 1 1 1 1 1 1 1 1 1 1 1 1 ; 1 ; 1 1 ; ; ; ; ; 1 1 ; ; 1 1 - - - - - - ; - - - - - ",
"-.-.-.-.-.-.-.-.-.-.-.-.-.-.-.-.p.9.-.-.-.-.-.-.-.-.-.-.-.-.-.<.<.g.F.R.%XjXnXVXZXFXZXZXZXZXmXcXjXR.P.S.#.X.X.O.<.s.K.&XvXnXZXVXvX*XK.h.d.1.<.<.>.2.2.2.2.>.>.=.>.=.=.=.=.=.=.=.=.=.=.=.>.4.c.).[.).c.4.>.>.>.<.s.c.c.c.j.g.1.1.o.| Q T Q ) #.Z.L.+X%X*XA.>.*.>.*.>.>.>.>.>.>.>.*.*.*.*.=.=.>.>.>.>.>.>.>.<.<.<.<.<.<.<.<.<.>.>.<.1.a.s.s.s.s.p.4.<.<.<.<.<.<.<.<.1.1.1.1.1.1.1.<.<.<.<.<.<.<.<.a.a.a.a.1.1.1.a.1.4.a.a.a.a.a.a.a.a.a.1.5.j.f.O.' ( ( { X.@.{ { [ ) X.{ ) ) ( Y Y C ) { ..Z.A.f.h.h.h.h.h.h.h.h.h.h.h.h.h.h.h.h.j.j.j.j.j.j.j.j.j.j.l.l.l.j.j.j.l.l.j.l.l.l.l.l.l.A.K.@X*X%X%X$XY.D.l.D.D.D.D.l.l.l.l.D.D.D.D.D.D.A.V.V.V.G.R.gXcXcXcXmXZXZXGXGXFXnXjX%XI.F.V.u.u.u.f.l.D.D.D.D.D.D.D.A.D.D.D.A.A.A.A.A.j.j.j.j.j.j.j.f.f.f.f.f.f.f.f.A.f.f.f.f.f.Z.F.F.f.f.f.f.f.5.5.#.5.5.5.f.f.5.#.5.5.5.#.#.#.#.@.@.@.#.X.X.[ ( ) ) ) h C ( ( Y C C C C ( ( Y Y { @.O.o.o.o.o.o.| | | [ [ [  .| | | [ [ [ T D D D C C C D ( [ | | | | | | | } ~ | | } W W W W W W W W W W W W W W W J E E E J J J J J J J J J J J J J J J J J J J J J J J J H H H H J J J J H H H H S S S S S S S S S S S S S S Z Z Z Z Z Z Z Z Z Z Z Z Z Z Z Z Z Z Z Z N N Z Z N N N N Z N N N n n N N N N n n n n n n n n n n n n n n n n n n n n n n n p p p p L q.gXmXGXLXGXGXCXNXyX=X.X!.Q.W.z.;.;.;.;.;.;.;.;.;.t.t.Q.Q.9.:.F v w 0 0 0 0 0 0 i i i i r r r r 3 3 3 3 3 3 3 3 3 3 3 3 1 1 1 1 1 1 1 1 1 1 1 1 1 1 1 1 ; ; ; 1 1 1 ; ; ; 1 1 1 1 1 1 ; - - - - - - - - - - - - ",
"c.s.3.-.-.-.-.-.-.-.-.-.-.=.-.-.-.-.-.-.=.=.=.-.-.-.-.-.-.-.3.g.L.$XvXFXGXGXGXGXGXGXGXGXLXLXLXLXLXGXZXkXR.G.V.#.d.K.{.&X*X8XvXnXnXvX&X{.L.K.a.<.<.>.>.>.2.2.>.>.>.>.>.<.=.*.*.*.*.*.*.*.*.>.<.s.x.x.<.>.o.>.>.4.j.c.c.c.d.1.o.| Q T Y V Y Y Y [ O.f.A.L.j.<.*.*.*.*.*.>.>.>.>.>.*.*.*.*.*.*.*.>.>.>.>.>.>.>.<.<.>.>.>.>.>.>.>.>.<.4.4.a.s.s.s.s.4.1.1.1.<.<.<.<.<.<.<.<.1.1.1.1.<.<.<.<.<.<.<.<.<.<.<.<.<.<.<.<.<.1.a.a.a.a.1.a.a.a.a.1.5.H.K.j.5.{ { { { ) ) [ ) ( ( ) { [ ) ) ( ( { 7.7.f.h.h.h.h.h.h.h.h.h.h.h.h.h.h.h.h.h.h.h.h.h.h.h.h.h.h.j.j.l.l.j.j.j.j.j.j.j.h.l.l.l.j.j.F.+X*XL.Z.Z.F.Y.G.D.D.D.D.D.D.D.D.D.D.D.D.D.D.A.V.V.P.fXkXmXGXKXZXmXmXnXmXZXFXFXFXZXZXkX%XL.Z.u.u.j.D.D.D.A.A.A.A.A.A.D.D.D.D.A.A.A.A.j.j.j.j.j.j.f.f.f.f.f.f.f.f.F.D.f.f.f.f.f.Z.A.f.#.f.A.A.f.f.f.5.f.5.f.f.A.f.5.5.5.5.#.#.+.@.O.X.X.X.X.X.[ [ ..#.@.) [ [ [ ) ) { ) ) X.#.) ( { O.O.o.o.o.| | o.o.| | | | [ [ [ [  .[ [ ( D D C C C C D T [ | | | ^ | | | W W W W W W W W W W W W W W W W W J J J E E E E J J J J J J J J J J J J J H J J J J J J H S S S S S S S S S S S S S S S S S S S S S S S S S S S S S S S Z Z Z Z Z Z Z Z N N N N Z Z Z Z N N N N Z N N N N N N M N N N N n n n n n n n n n n n n n n n n n n n n n n n p p p p p p a _ C.hXGXLXLXLXGXHXCXuXOX.XQ.Q.z.;.;.;.;.;.;.;.&.&.&.;.;.;.t.t.t.t.;.G m v w 0 r i i i i i i 3 3 3 3 3 3 3 3 3 3 3 3 1 1 1 1 1 1 1 1 1 1 1 1 1 ; ; 1 1 ; 1 ; 1 1 1 1 ; 1 1 1 1 1 1 1 ; ; ; ; - - - - - - - - - - - - ",
"&X{.x.-.-.-.-.-.=.=.-.-.=.=.-.-.-.-.-.-.=.=.-.-.-.-.-.-.-.-.z.{.pXCXHXHXHXFXFXFXFXFXFXFXFXGXGXGXLXLXLXLXGXcXjXR.L.K.K.H.A.A.S.L.+X*X$XY.K.j.h.1.>.>.>.>.>.>.>.>.>.>.>.>.*.*.*.*.*.*.*.*.*.<.<.<.>.>.>.>.>.>.<.g.N.K.N.c.1.o.| [ T Y C C C V V Y T [ O.5.1.o.*.*.*.*.>.>.>.>.>.>./ / *.*.*.*.*.*.>.>.>.>.>.>.>.>.>.>.>.>.>.>.>.>.<.<.<.<.a.a.a.4.1.1.<.<.<.<.<.>.<.<.<.<.<.<.<.<.<.<.<.<.<.<.<.<.a.s.1.<.<.<.<.<.<.<.<.<.a.a.a.a.a.a.a.4.1.h.K.K.h.O.@.{ ) ( { @.@.{ ) ) @.{ ( ) [ ) { 7.7.7.f.h.h.h.h.h.h.h.d.h.h.h.h.h.h.h.h.h.h.h.h.h.h.h.h.h.h.h.j.j.j.j.j.j.h.h.h.h.h.h.h.j.j.G.%XL.#.X.X.#.D.K.D.D.D.D.D.D.D.l.D.D.j.A.D.A.Z.G.R.kXmXZXmXmXZXnXjX%X%X%X%X*XjXjXjXkXkXjXjX%XG.V.j.D.D.D.A.j.j.A.A.A.A.A.j.j.j.j.j.j.f.f.j.j.f.h.h.f.f.f.f.f.f.A.L.K.f.Z.A.f.Z.Z.Z.f.f.A.A.f.f.f.f.5.d.5.5.f.h.f.5.5.5.5.#.#.+.@.@.@.#.X.{ { { X.#.7.7.X.X.@.#.{ { X.{ { f.#.) ) { { | o.o.o.| | | | | | | | [ [ [ [ [ [ T T Y D C C C C Y T [ | [ | ^ | } } W W W W W W W W W W W W W E J W J J J J E E E J J J J J J J J J J J J J J J J J J J J J S S S S D S S H S S S S S S S S S S S S S S S S S S S S S S S S Z Z Z Z Z Z Z Z N N N N Z Z Z Z Z Z N N N N N N N N N N N N n n n n n n n n n n n n n n n n n n n n n n n n n n p n n p l 0.P.cXKXPXPXPXLXGXFXbXyX.X!.Q.t.;.;.;.;.;.;.;.&.$.$.$.$.$.&.;.;.t.t.t.;.G v v 0 i i i i i i r 3 3 3 3 3 3 3 3 3 3 3 3 1 1 1 1 1 1 1 1 1 1 1 1 ; 1 ; 1 1 1 1 1 1 1 1 1 ; 1 1 1 ; ; 1 ; ; ; ; ; - - - - - - ; ; - - - - ",
"{.[.n.-.-.-.-.-.-.-.-.-.=.=.=.=.-.-.-.-.=.=.=.=.-.-.-.-.3.p.m.OXuXCXCXCXbXuXuXuXyXyXyXuXuXvXvXCXFXHXGXLXLXLXLXGXkX+Xj.+.[ Y ( { #.Z.L.G.Z.#.+.+.<.>.>.>.>.>.>.>.>.>.*.*.*.<.3.3.<.>.*.>.3.c.c.x.4.>.>.>.>.>.<.h.c.c.h.5.>.| W E Y C C B g B C V V T Q o.o.o.*.*.*.*.*.*.>.>.>.>.*.*.*.*.*.*.*.*.>.>.>.>.>.>.>.>.>.>.>.>.>.>.>.>.>.>.<.<.<.<.<.<.1.<.<.<.<.<.>.>.<.<.<.<.<.<.<.<.<.<.<.<.<.<.<.<.a.g.a.<.<.<.<.<.<.<.<.<.a.a.<.a.a.a.a.1.1.1.h.K.h.@.5.O.[ ) X.X.O.{ ( Y { ..[ ) ) ) [ @.7.f.d.g.d.d.d.d.h.h.h.h.h.h.h.h.h.h.h.h.h.h.h.h.h.h.h.h.h.h.h.h.h.h.h.h.h.h.h.h.h.h.h.h.D.{.*XL.Z.X.) ) u.D.j.j.j.j.D.D.D.D.D.D.j.j.A.F.P.gXmXZXZXcXgX%X*X$X{.U.K.K.K.K.K.L.Y.Y.+X$X*X*X*XY.A.A.j.j.f.f.f.j.A.j.j.f.f.f.f.f.f.f.h.h.f.f.h.h.h.h.f.f.f.f.f.j.F.K.A.A.A.Z.A.A.A.f.f.f.f.f.f.f.f.5.f.5.7.7.f.5.#.+.5.5.#.+.+.@.#.f.7.X.X.X.O.+.f.h.5.+.5.5.#.@.#.f.#.#.f...) ) { { | | | | | | | | | | | | [ [ [ [ [ [ ( T Y D C C C Y Y T [ | [ | ^ | } } W W W W W W W W W W W W W W W W E E J E E E E J J J J J J J J J J J J J J J J J J J J J S S S S D D H H S S S S S S S S S S S S S S S S S S S S S S S S Z Z Z Z Z Z Z Z Z Z Z Z N N Z Z Z Z Z Z N N N N N N N M N n n n n n N N n n n n n n n n n n n n n n n n n n n n n n p I C.hXmXLXPXPXPXPXLXHXCXpX=X.XQ.W.9.;.;.&.&.&.&.&.$.$.F F F F $.&.;.;.t.t.t.9.$.M w i i i i r r r 3 3 3 3 3 3 3 3 3 3 3 3 1 1 1 1 1 1 1 1 1 1 1 1 ; ; 1 1 1 1 ; 1 1 1 1 ; ; ; 1 1 ; ; ; ; ; ; ; ; - - ; - ; ; ; ; - - - - ",
"a.a.a.<.=.=.-.-.-.=.-.-.-.=.=.=.-.-.-.-.=.=.=.=.-.-.-.3.z.!..X=XyXyXyXwX=X.X.X.X/././..X.XXXOX&X6XuXnXFXGXLXLXLXZX*XL.j.+.O.[ [ X.F.*XvXgXR.V.#.1.g.4.>.*.*.*.*.*.*.*.*.=.<.p.s.3.*.*.>.4.c.c.m.x.<.>.>.>.>.<.4.g.g.4.<.| ^ E T D C C C g g C V V T ~ ^ / / / *.*.*.*.*.*.*.*.*.*./ / *.*.*.*.*./ *.>.>.>.>.>.>.>.>.>.>.>.>.>.>.>.>.>.>.<.<.<.<.<.<.<.<.<.<.>.>.<.<.<.<.<.<.<.<.<.<.<.<.1.1.1.<.<.1.1.<.<.<.>.>.<.<.<.<.1.1.<.<.<.1.1.1.1.1.1.h.h.@.{ [ [ ( { X.[ Y C Y X.7...@.7.X.X.#.d.d.g.d.d.d.d.d.d.d.d.d.d.d.d.d.h.h.h.h.h.h.h.h.h.h.h.h.h.h.h.h.h.h.h.h.h.h.h.h.h.h.h.h.K.&XvX*X+Xf.{ ( #.f.j.j.j.j.j.A.j.A.D.D.D.A.A.P.kXGXGXmXjX%X{.L.K.K.l.g.a.1.<.1.1.a.d.g.j.K.L.{.*X*XY.A.f.u.u.u.f.f.j.j.f.f.f.f.f.h.f.f.f.f.f.f.f.f.f.f.f.f.f.f.f.f.f.D.f.u.u.u.A.F.A.Z.#.#.#.5.d.f.f.5.5.5.5.5.5.7.5.+.+.+.+.+.@.@.#.7.#.X.@.#.#.+.5.f.f.h.A.h.7.f.A.H.f.#.#.X.[ [ {  .| | | | | | | | | | | | [ [ [ [ [ ' T T T Y D D ( ' ' [ [ | | | ^ | | } W W W W W W W W W W W W W W W W J J J J J J J J J J J J J J J J S S S S H J J J J J J J S S S S D D H H S S S S S S S S S S S S S S S S S S S S Z Z S S Z Z Z Z Z Z Z Z Z Z Z Z N N N Z Z Z Z Z N N N N N M N M N n n n n N N N n n n n n n n n n n n n n n n n p p n n n p L S.hXmXKXPXPXPXPXLXGXCXdXyX.X!.Q.W.;.;.&.&.&.$.$.$.G G F F F F G $.$.&.;.;.W.Q.9.G v w 0 0 0 0 0 3 3 3 3 3 3 3 3 3 3 3 3 1 1 1 1 1 1 1 1 1 1 1 1 1 1 ; 1 1 1 1 1 1 1 1 1 ; ; ; 1 1 ; ; ; ; ; ; ; ; - - ; ; ; ; ; ; - - - - ",
"*.=.<.3.3.3.=.=.=.=.=.=.=.-.-.=.=.=.=.-.-.=.=.=.=.=.9.z.!..X=XwXwX=X.X/.!.Q.Q.Q.W.W.Q.Q.Q.Q.!.!..X.XOX6XbXCXGXGXGXmXgXL.f.d.d.d.f.L.*XnXZXZXkXL.j.K.c.2.*.*.*.*.*.*.*.*.*.=.>.>.>.*.*.*.*.<.3.<.<.>.*.*./ / *.>.>.>.>.| | Q E T T T Y Y Y Y Y Y T [ Q Q Q / / / / *.*.*.*.*.*.*.*.*.*.*.*.*.*.*.*.*.>.>.>.*.*.>.>.>.>.>.>.>.>.>.o.o.>.>.>.>.>.<.<.<.<.<.<.>.>.>.>.<.<.<.<.<.<.<.<.<.<.<.1.1.1.<.<.<.<.>.>.<.+.<.1.<.<.<.1.1.1.<.1.1.1.1.1.1.1.5.d.+.[ Q Q Y Y [ T Y Y Y { O.X.@.+.+.+.d.d.d.d.d.d.d.d.d.d.d.d.d.d.d.d.d.d.d.h.h.h.h.h.h.h.h.h.h.h.h.h.h.h.h.h.h.h.h.h.h.j.j.h.j.K.$X+XY.Z.#.#.u.u.f.j.j.j.j.A.A.A.A.A.A.j.A.G.gXGXLXZXjXR.L.j.1.+.o.o.o.o./ ^ ^ ^ / o.o.<.1.g.K.{.&X*XL.u.u.u.u.f.f.j.j.f.f.f.f.f.f.f.f.f.f.f.f.u.f.f.j.A.j.j.f.f.h.f.h.f.#.#.Z.G.G.Z.Z.u.#.#.5.5.f.f.5.5.#.+.#.7.h.7.#.+.+.+.+.@.@.O.X.X.#.H.J.Z.@.@.7.f.Z.H.f.f.H.H.A.@.{ @.{ [ [ [ | | | | | [ [ | | [ [ [ [ [ [ [ [ [ [ W W T T T ' [  . . .| | } W W } } W W W W W W W W W J J J J W W W J J J J J J J J J J J J J J J J J S S S S H H H H J J J J S S S S S S S S J H H H S S S S S S S S Z Z Z Z S S S S Z Z Z Z Z Z Z Z Z Z Z Z Z Z Z Z Z Z N N N N N N N Z Z Z Z Z M b n n n n n n n n n n n n n n n n n n b b n n n n p p e p p a 0.R.kXJXPXPXPXPXLXGXCXdXyX.X^.Q.W.9.;.;.&.&.$.G G G G F F m F G G G F $.$.;.t.Q.Q.&.F v 2 4 0 0 0 r 3 3 3 3 1 1 1 1 1 1 1 1 1 1 1 1 1 1 1 1 1 1 1 1 1 1 1 ; ; ; ; 1 1 1 1 1 ; ; ; 1 ; ; ; ; ; ; ; ; ; - - - - - - - - - - - ",
"f.5.1.<.3.3.3.=.=.=.=.=.=.-.3.-.=.=.=.=.-.=.-.=.-.9.z.Q.Q.!..X=X.X/.Q.Q.Q.W.W.9.9.9.9.z.z.W.W.W.Q.Q.!.[.OX6XvXCXGXGXZXgXZ.+.5.f.h.A.G.%XkXZXZX*XA.d.c.4.>.*.*.*.*.*.&.*.*.*.*./ / *./ *.*.*.*.*.*.*.*.*./ / / ^ ^ ^ ^ ^ ^ Q T T W ' [ [ [ [ [ [ [ [ [ ^ ^ / / / ^ / *.*.*.*.*./ / / *.*.*.*./ / *.*.>.>.>.>.*.*.>.>.>.>.>.>./ o.o.o.o.o.o.o.o.o.o.o.>.<.>.>.o.+.<.<.<.<.<.<.<.<.<.<.<.<.<.<.<.<.<.<.<.<.+.+.+.+.+.<.1.<.<.<.<.<.1.1.1.1.1.1.1.1.1.+.O.o.X.[ Y T T Y Y [ O.O.@.5.+.+.d.d.d.d.d.d.d.d.d.d.d.d.a.a.a.a.d.d.d.d.d.d.g.g.d.d.d.d.d.d.h.h.h.h.h.h.h.h.h.h.h.h.j.j.h.h.A.D.f.#.+.#.L.Y.D.h.j.j.j.j.j.j.j.j.A.j.f.G.%XZXGXGXjX+XK.5.| W T Y D T Q ^ ^ ! W ^ | ^ ^ o.<.h.l.Y.$X@XG.u.u.u.f.f.f.f.f.f.f.f.f.f.f.f.f.f.f.Z.F.R.$X$X+X{.L.L.A.Z.f.Z.A.7.u.G.L.Z.#.#.#.f.7.5.5.f.f.5.+.+.+.#.5.7.5.@.+.+.+.+.@.@.X.{ @.A.L.J.@.) [ { @.7.7.5.7.H.Z.O.{ { { { [ [ [ | | | | | [ [ [ [ [ [ [ [ [ Q [ [ Q Q W W W ' [ |  . . . .| | W W W ~ | W W W W W W W W W J J J J J J J J J J J J J J J J J J J J J J J J S S S S H S H H S H H H S S S S S S S S S S S S S S S S S S S S Z Z Z Z S S S S Z Z Z Z Z Z Z Z Z Z Z Z Z Z Z Z Z Z N Z N N N N n m M M M Z M n n n n n n n n n n n n n n n n n n b b b n n n n p p e e e l q.P.gXcXGXmXmXmXmXvXuXOX.X!.Q.z.z.9.;.;.&.&.G G F F F F m m F G G G F G $.&.9.t.W.9.$.F v 0 1 0 1 3 3 3 3 3 1 1 1 1 1 1 1 1 1 1 1 1 1 1 1 1 ; ; ; 1 1 1 1 1 ; ; 1 1 1 1 1 1 ; ; ; ; ; ; ; ; ; ; ; ; - - - - - - - - - - - - ",
"*X+XL.g.<.=.=.=.=.=.=.=.-.3.p.p.3.3.=.=.-.-.-.-.p.z.Q.z.9.z.Q.!.Q.Q.W.W.t.;.;.;.;.;.;.;.;.;.;.;.9.9.z.Q.!.).XX&XvXnXGXZX+X#.{ { [ X.` q.P.*XvX*XL.a.4.4.>.^ *.*.*.&.*.*.! *.*.>.o./ / ^ / / ^ / / / / / / ^ ^ ^ ! ^ ^ ^ | [ [ { ..{ [ [ ' Q Q T Q Q Q ^ / / / / ^ ^ / *./ / / / / / / / *.*.*./ / / *.*.*.*.*.*./ / / / / / / o.| o.o.o.o.+.+.o.o.o.o.>.>.>.+.+.+.+.<.<.<.<.<.<.<.<.<.<.<.>.>.>.+.+.+.+.+.+.+.+.+.1.<.1.<.<.<.<.1.1.1.1.1.1.1.1.1.1.1.1.d.1.X.[ [ [ X.O.5.5.5.5.+.1.d.d.d.d.d.d.d.d.d.d.d.d.a.d.a.a.a.a.d.d.d.d.d.d.d.d.d.d.d.d.h.h.h.h.h.h.h.h.h.h.h.h.j.j.j.h.h.h.+.+.X.u.Y.Y.D.f.j.j.j.j.j.j.Z.Z.j.j.F.%XZXGXFXkX+XH.+.Q E T Y D V V E W W ^ ^ Q | o.Q ~ o.1.d.A.F.Y.+XF.u.f.f.f.f.f.f.f.f.f.f.f.f.Z.f.f.A.R.jXnXnX8X&X+X{.{.`.H.h.h.Z.f.Z.Y.G.#.#.#.f.A.h.f.5.#.5.+.+.+.+.+.+.+.@.@.+.+.+.+.#.@.X.{ @.A.f...) Y ( ( { { { { 7.J.A.@.@. .[ [ [ [ [ | | | | | | | [ [ [ [ [ [ Q Q Q Q Q Q Q W W ' [ | O.| [ [ Q W W W W W W W W W W W W W W W J J J J J J J J J J J J J J J J J J J J J J J J S S S S S S S S S S S S S S S S S S S S S S S S S S S S S S S S S S Z Z Z Z Z Z Z Z Z Z Z N N N N N Z Z Z Z Z Z m m N Z Z N N N n n n n N N n n n n n n n n n n n n n n n n n n n n b b n n n n p p e e p K q.S.R.gXR.C.C.S.P.{.[.).!.!.c.z.z.9.2.2.&.G G F F F F m m m m Z G G G G G $.&.;.t.W.9.%.m w 4 3 3 3 3 3 3 3 1 1 1 1 1 1 1 1 1 1 1 1 1 1 1 1 1 1 1 1 1 1 1 1 1 1 1 1 1 1 1 1 ; ; ; ; ; ; ; ; ; ; ; ; - - - - - - - - - - - - ",
"vXvX*X{.h.<.=.=.=.=.=.=.=.3.p.p.3.3.=.=.=.-.-.-.b..X.X!.Q.W.Q.Q.Q.W.t.t.;.;.;.;.&.&.&.&.&.&.=.;.;.9.2.9.z.z.!.).{.*XnXFXvXL.Z.#.) Y C ( X.Z.L.L.h.<.o.>./ ^ *.*.&.&.^ ^ *.s.K.`.K.1.^ ^ / ^ ^ / ^ ^ ^ ^ ^ ^ ^ ^ ^ ^ ^ | | { V.P.+XP.e.) T T T T Q ~ ~ ~ ^ ^ ^ ^ ^ ^ ^ / / / / / / / / / / / / / / / / / / *.*./ / / / / / / / / | o.1.h.H.K.F.f.+.o.o.>.>.o.o.+.+.+.<.<.<.<.<.o.+.+.+.+.o.o.o.o.+.1.<.+.+.+.+.+.1.1.<.<.<.<.<.<.1.<.<.<.1.1.1.1.1.1.1.1.1.1.1.1.1.+.+.5.5.5.5.1.5.+.+.1.d.d.d.d.a.d.d.d.d.d.a.a.d.d.a.a.a.a.d.d.d.d.d.d.d.d.d.d.d.d.d.d.d.d.d.d.h.h.h.h.h.h.h.h.h.h.f.f.u.Z.G.K.D.j.j.j.f.f.f.j.f.Z.j.A.R.nXGXGXnX%XF.+.Q Y Y Y D C B V D E W W Q W W Q T T Q [ [ +.#.A.+X+XF.f.f.f.f.f.f.f.f.f.f.f.f.f.u.F.$XnXnXjXR.G.Z.7.7.f.Z.H.H.h.f.#.Z.G.V.Z.G.L.L.L.A.d.+.+.+.+.+.+.+.+.@.+.+.+.+.@.@.O.#.f.7...@.#.) ( ( Y C Y ( ( ( ) { #.Z.J.Z. .[ [ [ [ [ [ | | | | | | [ [ [ [ [ [ Q Q Q Q Q Q Q W E W W ' | | ' W W W W E W W W W W W W W W W W W J J J J J J J J J J J J J J J J J J J J J J J J H S S S S S S S S S S S S S S S S S S S Z Z S S S S S S S S S S S S Z Z Z Z Z Z Z Z Z Z N N N N N N Z Z Z N N N n n N N N N N N n n n N N N n n n n n n n n n n n n n n n n n n n n b b b b n n n n b e p g q.P.gX@Xq.l l ..#.@.,.4.4.c.z.z.9.2.&.~ H S Z Z Z H Z m v b b b Z H G F F F $.&.;.W.Q.9.H b 4 3 3 3 3 3 3 3 1 1 1 1 1 1 1 1 1 1 1 1 1 1 1 1 1 1 ; ; 1 1 1 1 1 1 1 1 1 1 1 1 ; ; ; ; ; ; ; ; ; ; ; ; - - - - - - - - - - - - ",
"L.`.`.{.).x.3.=.=.=.=.=.=.=.=.3.3.=.=.=.=.-.-.z.!.=X=X.X/.Q.Q.W.W.t.9.9.;.;.;.&.&.! G G G ! &.&.:.:.:.2.=.2.<.4.c.).+XjXvXjX@XR.L.V.` ) Y Q O.+.o./ ^ ^ ^ ^ *.*.&.&.^ ^ <.K.&XuX&XK.o.^ ^ ^ ^ ^ ^ ^ ^ ^ ^ ^ ^ ^ ^ ^ | | | #.R.cXFXnX+X#.T T T Y Y E Q Q ^ ^ ^ ^ ^ ^ ^ ^ ^ ^ ^ ^ *.*./ / ^ ^ ^ / / / / / *.*./ / / / / / / / / / o.,.K.+X&X$X@X+XD.+.o.>.>.o.+.+.+.<.<.<.<.o.o.o.o.o.o.o.o.o.o.1.a.g.d.+.o.o.o.<.+.+.+.+.<.<.<.<.<.1.<.1.1.<.1.1.1.1.1.1.+.+.1.1.1.+.1.1.1.1.1.1.1.1.1.1.d.d.d.d.1.1.a.1.1.1.d.d.d.d.d.d.a.a.d.a.d.d.d.d.d.d.d.d.d.d.d.d.d.d.d.d.h.h.h.h.h.d.d.f.f.f.f.A.L.+X+X{.{.F.j.f.f.j.f.f.f.j.A.G.%XnXZXmXjXL.d.[ T V Y C f f g B A D T T T W T D N V D Y Y ( X.5.L.$XY.A.f.f.f.f.f.f.f.f.j.f.f.f.A.$XnXnX%XF.#.{ [ ( ( ( { 5.f.Z.f.#.u.F.G.+X@XL.S.A.F.f.+.+.+.+.+.O.+.+.O.O.O.O.O.O.O.O.7.L.L.7.#.@.( D Y Y Y Y D ( ( ( ( ..J.`.7.[ [ | | [ [ [ | | | | [ [ | | W Q W W Q Q Q Q Q Q Q Q W W W W W W W W W W W W W E W W W W W W W W E E W W W J J J J J J J J J J J J J H S S D J J J H S S S S S S S S S S S S S S S S S S S S S S S S Z Z Z Z Z Z Z Z Z Z Z Z N N N Z Z N Z Z N N N N N N N N N N N N n n n n n N N N N N n N N N N N n n n n n n n n n n n n n n b b n n n n b b b b n b b e B ..S.P.P.q.l f h h h f f A ' :.4.4.2.&.H Z M n n n M M n b b b b b S J H m m F G ;.;.W./.Q.&.b 0 3 3 3 3 1 1 1 1 1 1 1 1 1 1 1 ; ; 1 1 1 1 1 1 1 1 1 1 1 1 1 1 1 ; ; ; ; ; ; ; 1 ; ; ; ; ; ; ; ; ; ; ; - - - - - - - - - - - - ",
"4.1.1.g.c.s.3.-.=.=.=.=.=.=.=.=.3.=.=.=.-.-.i.!..X=X.XQ.Q.z.z.9.9.9.;.&.&.&.&.&.! E H H H G H H J J J ~ ~ ! W ! >.g.K.{.*XjXvXvXnXkX%XJ.@.o.<.o.^ ^ ^ ^ ^ ^ / / ! &.^ / >.d.K.L.`.D.1.o.^ ^ ^ ^ ^ / ^ ^ ^ ^ ^ ^ ^ | | | | ..L.jXmXvX+X@.T T Y ( ) [ [ Q Q ^ ^ ^ ^ ^ ^ ^ ^ ^ ^ ^ ^ ^ ^ ^ ^ ^ ^ ^ ^ ^ *.4.s.>.*.>.>./ / / / / / / o.h.{.`.Z.V.Z.Y.{.h.o.o.>.o.o.o.+.<.<.<.<.>.o.o.o.o.o.o.o.o.+.1.d.1.1.1.o.o.+.<.+.+.+.+.+.+.<.<.<.<.<.1.<.1.1.1.1.1.1.1.+.+.1.1.+.+.1.1.1.1.1.1.1.1.1.1.1.1.1.1.a.1.1.1.1.1.d.d.d.d.a.a.d.d.d.a.d.d.d.d.d.d.d.d.d.d.d.d.d.d.d.d.d.d.d.h.d.d.d.d.f.f.f.A.Y.*X+X+X*XL.j.f.f.f.f.h.j.j.D.R.vXjX%XR.J.#.[ [ Y V f f y a g B C C A D D D D B f f f f h C Y O.f.Y.+XL.Z.f.f.f.f.f.f.f.h.h.f.f.Y.jXvXR.Z.X.T Y Y Y C Y ( [ O.7.h.f.f.L.*X+XS.V.` ` #.f.5.+.+.+.O.O.+.O.O.O.@.O.O.O.O.O.7.J.H.7.O.[ D C C D Y Y D ( ( ( ( { 7.7. .[ O.5.5.O.[ [ [ | | | [ [ [ | W W W W Q Q Q Q Q Q Q Q W W W W W W W W W W W W E E E W W W W W W W W E J J J J J J J J J J J J J J J J S S S S J J S H S S S S S S S S S S S S S S S S S S S S S S S S Z Z Z Z Z Z Z Z Z Z Z Z N N N Z N Z Z Z N N N N N N N N N N N N n N N N N N N Z Z Z Z Z Z Z N N n n n n n n n n n n n n n b b b n n b p b e b b b b e B #.'.*X*XL...g f y y 7 6 7 9 a P | | ~ H Z n e b p p n N n b e e m Z S Z b v m F G ;.t.W.Q.!.9.S w 1 4 4 3 1 1 1 1 1 1 1 1 1 1 1 1 ; 1 1 1 ; ; 1 1 1 1 1 1 1 1 1 ; ; ; ; ; ; ; ; 1 ; ; ; ; ; ; ; ; ; ; ; - - - - - - - - - - - - ",
"N.c.4.<.3.<.=.=.=.=.=.3.3.3.3.3.3.3.3.3.p.i.x.^.=X.X/.Q.Q.z.9.=.=.&.! G G G ! ~ H H J H H S Z Z Z Z Z Z S S S J ! >.c.K.XX&X8XnXGXGXcX+Xf.5.h.5.o.^ ^ ^ ^ ^ ^ ^ ^ / / >.s.c.N.).{.`.K.d.o.^ ^ ^ ^ ^ ^ ^ ^ ^ ^ ^ ^ ^ | | | [ @.Z.L.J.7.' W { Z.G.L.G.S.#.[ Q | ^ ^ ^ ^ ^ ^ ^ ^ ^ ^ ^ ^ ^ ^ ^ ^ ^ ^ ^ >.c.c.4.*.<.<./ / / / / / / o.K.`.7.( Y ( #.K.j.+.o.o.o.o.o.>.>.<.>.<.>.o.o.o.o.o.o.o.+.+.+.+.o.o.o.o.o.+.<.<.>.+.<.+.+.+.+.<.+.+.+.<.<.<.+.<.<.<.<.+.+.+.+.+.+.1.1.1.1.1.1.1.1.1.1.1.1.1.1.a.a.1.1.1.1.d.d.d.d.d.d.d.d.a.a.d.d.d.d.d.d.d.d.d.d.d.d.d.d.d.d.d.d.d.d.d.d.d.d.f.f.f.f.A.K.A.F.L.D.f.h.h.h.f.f.j.f.G.8XnXjXS.` ) ( [ @.) f f f g g g h f f f C V A A B f f y y f f C [ +.A.+X{.A.f.f.f.f.f.f.f.h.j.f.A.+X8XR.Z.X.( ( Y C C h C Y ( [ O.h.h.Z.Y.+XZ.` ) ( ( { +.5.+.O.+.O.O.O.O.O.O.@.@.O.O.O.O.O.#.@.@.{ ( C C C C C C C P ' { [ [ ( ( ( @.f.5.@.5. .[ W Q Q [ Q Q Q Q Q W W W Q Q Q Q Q Q Q Q W W W W W W W W W W W W E E W W W W W J W W W W J J J J J J J J J J J J J J J H S S S S S S S S S S S S S S S S S S S S S S S S S S S S S S S S Z Z Z Z Z Z Z Z Z Z Z Z Z N Z Z N N N N N N N N N N N N N N N C ) ....@.@.O. .| | ~ J H S Z Z Z n n n n n n n n n n n n n n b b e e e e e e e e e e p P J.gXvXvX@XZ.) g y y 9 6 6 7 7 y y f N N N y q q e p N B n n e n A S Z b b n A F %.;.t.t.Q..XQ.~ b 1 3 3 1 1 1 1 1 1 1 1 1 1 1 1 1 1 1 1 1 1 ; ; ; 1 1 1 1 1 1 1 ; ; ; ; 1 ; 1 1 ; ; ; ; ; ; ; ; ; ; ; - - - - - - - - - - - - - ",
"g.g.4.3.3.3.3.=.=.=.=.3.p.s.3.3.3.3.3.3.3.p.!..X=X.X!.Q.Q.z.=.=.! ! G G G G G J J H J J J J H S Z N n n N N S E ^ O.g.H.`.XX*XnXGXmXR.Z.+.+.<.o.^ ^ ^ ^ ^ ^ ^ ^ ^ ^ / s.N.).{.XX{.`.K.g.o.^ ^ ^ ^ ^ ^ ^ ^ ^ ^ ^ ^ ^ ^ | | | ^ ^ | | W W 7.{.uXbXnXnXvX+XS...[ ^ ^ ^ ^ ^ ^ ^ ^ ^ ^ ^ ^ ^ ^ ^ ^ ^ ^ ^ ^ >.>.*.^ ^ / / ^ / / / / / <.j.g.[ Y S Y Q 1.d.<.o.>.o.o.o.o.>.>.>.<.>.>.>.o.o.o.o.<.+.+.o.o.o.o.o.o.o.+.<.<.<.<.<.+.+.+.+.+.+.+.+.<.<.<.+.+.<.<.<.+.+.+.+.+.+.1.1.1.1.1.1.1.1.1.1.1.1.1.1.a.a.1.1.1.1.d.d.d.a.a.a.d.d.a.a.d.d.d.d.d.d.d.d.d.d.d.d.d.d.d.d.d.d.d.d.d.d.d.d.d.d.d.d.f.d.d.f.f.f.h.f.h.h.f.f.h.A.R.vXnX*XZ.) _ q...) C g C f g g g g y y f f f C C C C f h f y f C [ o.d.K.L.A.u.#.#.u.f.f.f.f.f.f.A.L.Y.Z.X.[ ( ( K h h h h C Y Y { 7.A.A.{.L.#.) Y Y ( [ O.5.+.O.+.O.O.O.O.O.O.@.@.O.O.O.O.X.{ [ { [ T Y C C C C C D D ' O.{ [ T Y { f.f.#.X.O. .' W W W W W W Q Q W W W W W Q W W Q Q Q W W W W W W W W E W W W W E E W W E J J J J J W W J J J J J J J J J J J J J J J H S S S S S S S S S S S S S S S S S S S S S S S S S S S S S S S S Z Z Z Z Z Z Z Z Z Z Z Z Z Z Z Z Z Z N N N N N N N N N N B C ..S.P.%X@X@X+XL.K.H.c.4.:.~ J H S Z Z n n n n n n n n n n n n n b b e e e e e e e e p e p P J.*X*X*X+XH.#.) ....l d y y 9 7 7 q a g g y r r r y y y q 0 0 i p N N N A U  .:.8.t.t.t.Q..X!.:.b 0 4 1 1 1 1 1 1 1 1 1 1 1 1 1 1 1 1 1 1 1 1 1 1 ; 1 1 ; 1 1 1 1 ; ; ; 1 1 1 1 1 1 ; ; ; - - - - - - - - - - - - - - - - - - - ",
"<.<.<.3.p.3.3.=.=.3.=.3.3.3.3.2.2.2.3.3.-.z./.=X.X/.Q.Q.Q.9.2.&.! G G H H J ~ } ~ J J S S S D D S A N N N A D W [ O.5.j.K.`.+X*X%XR.Z.O.o.| | | ^ ^ ^ ^ ^ ^ ^ / ^ ^ *.4.c.).).N.h.g.5.2.>.^ ^ ! ^ ^ ^ ^ ^ ^ ^ ^ ^ ^ ^ ^ ^ ^ ^ ! ^ ^ | 6.+X-X&X+X+X+XjXnXkXP...Q ^ ^ ^ ^ ^ ^ ^ ^ ^ ^ ^ ^ ^ ^ ^ ^ ^ ^ ^ ^ ^ ^ ^ ^ ^ / / / / / ^ / >.4.<.^ Y Y Y Y Q o.o.o.o.o.o.o.o.<.<.<.>.>.>.>.o.o.o.o.o.o.o.o.o.o.o.+.<.<.>.>.+.+.+.+.o.o.o.o.+.+.o.o.+.+.+.+.<.1.+.+.1.1.1.1.1.1.1.1.1.1.1.1.1.1.1.1.1.1.1.1.1.1.1.1.1.1.d.d.1.1.1.1.a.d.d.d.d.d.d.d.d.d.d.d.d.d.d.d.d.d.d.d.d.d.d.d.d.d.d.d.d.d.d.d.d.d.d.f.f.f.f.f.h.h.h.h.f.F.*XnXvX@XZ.) S.+Xq.K g h g y g h g g g g g y y f g h h h h f y f Y [ X.+.f.A.A.#.#.#.#.f.f.j.f.j.f.A.F.A.#.[ ( C h h h h h C Y C C [ 5.A.A.J.A.5.[ Y Y T [ { 5.+.O.O.@.O.O.O.@.@.O.O.O.O.O.O.X.{ { [ ( Y Y C C C Y Y D D [  .{ [ [ ( { #.Z.F.Z.7.O.[ W E E W W W W W W E E E W [ Q W [ [ [ W W W W W W W E E W W W W W E E W W W J J D D J J D J J J S S S S D D D D S S D D S S S S S S S S S S S S S S S S Z Z Z Z Z Z Z Z Z Z S S S S S S Z Z Z Z Z Z Z Z Z Z Z Z Z Z Z Z Z Z Z N N N N N N N N N P q.P.hXmXFXmXnXjX*XXX_.).c.9.2.:.~ G H Z N n n n n n n n n n n n p p p p p p p e e e e e e p ] J.@X+X`.J.H.7.Z.+X'.q.) ....K y 7 y u g d u 9 9 9 9 6 6 7 ; = 7 7 7 7 q a P ] U ~ :.9.9.Q./._.9.F w 4 1 1 1 1 1 1 1 1 1 1 1 1 1 1 1 1 1 1 1 1 1 ; ; ; 1 ; ; ; ; ; ; ; ; - ; ; ; ; ; - - - - - - - - - - - - - - - - - - - - - - ",
"<.<.2.2.3.3.-.=.3.s.c.c.c.s.3.3.3.3.3.3.p.!..X=X.X!.Q.Q.z.;.&.! G H H J H H J J S S S S S S D D Z N N N N B ( ' |  .O.5.h.A.A.K.L.{.L.f.>.*.^ ^ ^ ^ ^ ^ ^ ^ ^ *.*./ / >.s.).).c.3.>.4.c.4.>.^ ! ^ ^ ^ ^ ^ ^ ^ ^ ^ ^ ^ ^ ^ ^ ^ ^ ^ ^ 1.`.&X{.A.O.X.O.S.@XvX*XZ.[ ^ ^ ^ ^ ^ ^ ^ ^ ^ ^ ^ ^ ^ ^ ^ ^ ^ ^ ^ ^ ^ ^ ^ ^ ^ ^ ^ ^ ^ ^ ^ ^ / >.>.o.| o.Q Y E ^ ^ o.o.o.o.o.o.o.o.>.>.>.>.>.o.o.o.o.o.o.o.o.o.o.o.>.>.>.>.o.o.+.+.+.o.o.o.o.+.+.o.o.o.+.+.+.+.+.+.+.1.1.1.1.1.+.1.1.1.1.1.1.1.1.1.1.1.1.1.1.1.1.1.+.1.1.1.1.1.d.d.d.d.d.d.d.d.d.d.d.d.d.d.d.d.d.d.d.d.d.d.d.d.d.d.d.d.d.d.d.d.d.d.d.d.d.d.f.f.f.f.f.h.h.h.h.j.L.vXnX*XL.f.` Z.P.#.g f g g f f g u d h h g y y y y y y y y y q f C [ X.#.f.f.f.#.#.#.f.f.f.j.f.j.Z.A.A.f.X.) h h g g g h h h C C C ) @.7.f.f.f.f.O.[ [ T [ { 5.5.+.@.O.O.O.O.O.@.O.O.O.O.O.O.{ [ [ [ ( Y T ( T T Y Y Y T [ { ' ( ( ( { { 7.J.H.7. .' E E  .O.[ E E E E E E E W [ [ W [ | | W W W W W W W E E W W W W W J D E W W W J D D J J D D J J S S S S D D S D S S D D S S S S S S S S S S S S S S S S Z Z Z Z Z Z Z Z S Z S S S S S S Z Z Z Z Z Z Z Z Z Z Z Z Z Z Z Z Z Z Z N N N N N B N B P #.P.jXFXLXLXGXFXnXvX-XXX_.!.c.9.2.:.J G S Z M b n n n n n n n n p p p p p p p p e e e e e e N 6.'.@X`.J.H.H.5.#.J.Z.) @.Z.Z.] y 0 9 y u u 8 6 > = # + # = # # > 6 6 6 6 7 r a p e Z ~ >.z._..Xc.J v 4 1 1 1 1 1 1 1 1 1 1 1 1 1 1 1 1 1 1 1 1 1 ; ; 1 1 ; ; ; ; ; ; ; ; - - ; ; ; ; - - - - - - - - - - - - - - - - - - - - - - ",
"<.2.2.3.=.3.p.p.c.).{.XXXX).s.<.<.<.3.3.z.[.=X=X^.!.!.!.c.2.&.E H H H S Z M N b b n N Z Z Z N N N N N N N D  . .| | | +.5.f.D.`.+X&X{.D.,.^ ^ ^ ^ ^ ^ ^ ^ ^ >.4.s.4.>.>.3.c.c.c.c.4.4.c.g.>.^ ^ ^ ^ ^ ^ ^ ^ ^ ^ ^ ^ ^ ^ ^ ^ ^ | ^ | h.XXXXh.[ Y S S T #.J.'.H. .! ^ ^ ^ ^ ^ ^ ^ ^ ^ ^ ^ ^ ^ ^ ^ ^ ^ ^ ^ ^ ^ ^ ^ ^ ^ ^ ^ ^ ^ ^ ^ ^ | >.2.<.1.<.[ ~ ^ ^ o.o.o.o.o.o.o.o.o.o.o.o.o.o.o.o.o.o.o.o.o.o.o.o.o.o.o.o.o.o.o.o.o.o.+.o.+.+.+.o.o.o.o.+.+.o.+.o.o.1.1.1.1.1.1.1.1.1.1.1.1.+.+.1.1.+.+.+.+.1.1.1.1.+.+.1.d.j.K.K.j.d.d.d.d.d.d.d.d.d.d.d.d.d.d.d.d.d.d.d.d.d.d.d.d.d.d.d.d.d.d.d.d.d.d.d.d.f.f.f.h.h.h.h.h.A.+XvXjXL.A.#.) ) _ K f f g g h g y y g h h g g d y y y y y 7 9 y f C ) #.f.Z.#.Z.#.#.#.f.f.f.f.h.j.f.A.Z.#.{ ( h h g d g h l h C C Y ( { #.5.5.5.5.5.f.+.{ { { { O.@.@.O.O.O.O.O.O.O.O.O.O.O.{ [ [ [ [ [ [ T [ T ( T Y T T ' [ [ T T O.7.@.@.Z.7.5. .' T @.A.Z.5.W E E E E E E W W W W ' [ [ W W W W W W W W E E W W W E D E W W W W J J J J J D D D D S S S S S S S S S S S S S S S S S S S S S S S S S S S S Z Z Z Z Z Z S S S S S S S S S S Z Z Z Z Z Z Z Z N N Z Z Z Z Z Z Z Z Z N N N N B B f B ] Z.@XnXGXLXLXGXFXCXuX-XXX_.!.Q.9.2.:.&.G H S Z n n n n n n n n n n n n n e e e e e e e e w p P ..J.L.J.H.h.7. .( ) K g ) ....K a y r 9 9 6 = + + # # # # # # # 8 8 6 + + = 7 r r q e N W 8._..X).} b 4 1 1 1 1 1 1 1 1 1 1 1 1 1 1 1 1 1 ; ; 1 ; ; ; 1 1 ; ; ; ; ; ; ; ; - - - - ; ; - - - - - - - - - - - - - - - - - - - - - - ",
"2.2.3.2.=.3.z.x.b.n.l.c.K.K.g.<.<.3.3.3.m..X=X.X^..X.X.X!.z.2.:.| } W Z M Z S ' ' ' ' ' ' D N N n b N N N D  .,. .O.O.,.5.g.j.K.{.{.{.j.o.^ ^ ^ ^ ^ ^ ^ ^ >.4.c.c.c.4.>.4.c.!.).!.s.>.>.>.^ ! >.g.c.c.3.^ ! ^ ^ ^ ^ ^ ^ ^ ^ ^ | | | j.{.).1.Y V N M N V ' 7.h. .^ ^ ^ ^ ^ ^ ^ ^ ! ! ! ! ! ! ! ! ! ^ ^ ^ ^ ^ ^ ^ ^ ^ ^ ^ ^ ^ ^ ^ ! ^ ^ >.>.| | Q Q ^ / o.^ ^ o.o.o.o.o.o.o.o.o.o.o.o.o.o.o.o.o.o.o.o.o.o.o.o.o.o.o.o.o.o.o.o.+.+.+.+.o.o.o.o.+.+.+.+.o.o.o.o.1.1.1.1.1.1.1.1.1.1.+.+.1.1.+.+.+.+.1.1.1.1.+.+.d.K.{.{.L.L.D.d.1.1.1.1.1.1.d.d.d.d.d.d.d.d.d.d.d.d.d.d.d.d.d.d.d.d.d.d.d.d.d.d.d.d.f.f.h.h.h.h.h.h.A.+X*X+XL.A.u.{ A B V A f f f C h y g g g g l l g y y y g u y y f f C [ X.u.#.` f.f.#.f.f.f.f.f.h.j.f.f.f.#.{ ( h h h h h h h C ( ( C Y ( O.+.O.O.O.f.H.Z.@.O.O.[ X.O.O.O.O.O.O.O.O.O.O.{ { { { { [ [ [ O.[ ( [ ( [ [ [ T W [ [ [ [ ( O.7.7.@. .O. .' ' #.G.H.#.5.| W E W W W W W W W W W W W W W W W W W W W W E W W W E D E W W W J J J J J J D D D D S S S S S S S S S S S S S S S S S S S S S S S S S S S S Z Z Z Z Z Z S S Z S S S Z Z Z Z Z Z Z Z Z Z Z Z N Z Z Z Z Z S D D S D N B N B B B K P ..Z.+XjXmXGXGXFXnXvX-XXX_.Q.Q.t.9.2.&.&.%.G G Z M M n n n n n n n n n n n e e e e p p p e p P ..' ] 5.h.h.5.@.' f y y q f L ] ..] ] L t 9 = = = # > 8 8 > # + + # # + + # 6 8 d l u r r B ' 8.).).:.b 4 1 1 1 1 1 1 1 1 1 1 1 1 1 1 1 1 1 ; ; ; ; 1 1 1 1 ; ; ; ; ; ; ; ; - - - - ; ; - - - - - - - - - - - - - - - - - - - - - - ",
"2.2.3.3.3.3.p.p.x.p.<.*.>.<.>.<.2.2.3.3.c.)..X!.!.!..X_.m.4.2.,.:.,.} J J } 6.H.H.H.7.6. . .( A B N e e e A @.7.6.5. . .+.5.j.K.L.L.L.K.5.^ ^ ^ ^ ^ ^ / 4.N.)._.).m.s.>.>.s.N.N.g.>.^ ! ! ! >.g.).XXXX).4.^ ! ^ ^ ^ ^ ^ ^ ^ ^ ^ ^ | d.c.h.o.Q T D V V M S | 5.| ! ! ! ! ! ! ! ! ! ^ ^ ^ ! ! ! ! ^ ! ! ! ! ! ! ! ^ ! ^ ^ ^ ^ ^ ^ ^ ^ ! ^ ^ ^ Q Q ^ ^ ^ ^ ^ ^ ^ ^ | | ^ / o.o.o.o.o.o.o.o.o.o.o.o.o.o.o.o.o.o.o.o.o.o.o.o.o.o.o.o.o.o.o.o.o.o.o.o.o.o.o.o.o.+.+.+.+.1.1.1.1.1.+.+.+.+.1.1.1.1.1.1.1.1.1.1.+.1.g.`.`.f.#.5.D.h.1.1.1.+.+.+.1.1.1.+.1.1.1.1.d.d.d.d.d.d.d.d.1.d.d.d.d.d.d.d.d.d.d.d.d.f.h.h.j.h.f.f.A.L.Y.K.K.K.K.f.[ D D D C h C C g y d g g l K l g y y u L L g h h h ( ( ) { ) ) #.f.#.f.f.f.j.f.j.j.f.f.#.X.[ ( ( ( C C h Y h C ( ( C C ( O.+.O.O.@.7.H.h.5.O.O.O.O.O.O.O.O.O.X.{ { { { { { { @.@.[ [ [ [ [ [ [ [ [ | O.O.| [ W W T ( { 7.h.O.W [ [ [ @.J.+XH.7.7.6. .W W W W W W W W W W ' O.,.' E E W W W E E E J J J D D J J J J J J D D D D S S S S D D D D S S S S S S S S S S S S S S S S S S S S Z Z Z Z Z Z Z Z Z Z Z Z Z Z Z Z Z Z Z Z Z Z Z Z Z Z Z Z N N N N Z S  .,.,. .( A B B K ) q.Z.e.#.#.H.+XgXvXjXjX*X&XXX!.Q.W.9.9.&.&.&.&.&.$.G H S M M n n n n n n p p p p e e e p B A N e p ] 6.' A ' ,.5.h.H.@.C y q q g ] #.e.7...I t 6 6 6 6 6 8 8 8 = # + + + @ # 6 8 d l l L l t 7 0 p ( 6.c. .p 1 1 1 1 1 1 1 1 1 1 ; ; ; 1 1 1 1 1 ; 1 1 1 1 ; 1 1 ; ; ; ; ; ; ; ; ; ; ; - - - - - - - - - - - - - - - - - - - - - - - - - ",
"9.3.2.3.3.3.-.3.3.3.3.=.=.=.=.<.3.3.3.s.!._.!.s.<.<.s.s.2.| ~ W W W W } ,.6.7.7.h.6.,.{ ' ' { { ' D D A p f P @.7.,.{ [ ..Z.G.L.{.Y.{.{.D.o.^ ^ ^ ^ ^ >.K.XX-X-XXXK.4.*.^ >.>.>.o.^ ~ ~ ! ! | ,.h.H.).c.2.^ ! ! ^ ^ ^ ^ ^ ^ ^ ^ ^ | <.1.+.Q Q [ W D C V D [ ,.^ ! ! ! ! ! ! ! ! ^ ^ ^ ^ ! ! ! ! ^ ^ ! ! ! ! ! ! ! ! ^ ^ ^ ^ ^ ^ ^ ^ ^ ^ ^ ^ ^ ^ ^ ^ ^ ^ ^ ^ ^ ^ | | ^ ^ o.o.o.o.o.o.o.o.o.o.o.o.o.o.o.o.o.o.o.o.o.o.o.o.o.o.o.o.o.o.o.o.o.o.o.o.o.o.o.o.o.o.o.+.+.+.<.1.1.1.+.+.+.+.+.+.+.+.+.+.+.+.+.+.1.1.g.H.5.[ T Q 1.g.1.1.1.+.+.+.1.1.1.+.+.1.1.1.d.d.d.d.y.y.d.d.d.d.d.d.d.d.d.d.d.d.d.d.d.f.h.h.j.h.f.f.D.A.l.D.K.L.A.5.X.[ ( ) Y C C C d y u u g l K K l d y u l L l l l g h d h ( ( ( ` #.#.Z.A.f.j.j.j.j.f.#.#.X.{ ) ( ( C Y ( ) ( ( ( Y C C ( X.O.O.O.O.@.5.5.O.[ O.O.O. .O.O.O.{ { { { ..#.7.7.@.#.5.[ [ [ [ [ | [ [ O.O.O.5.+.[ Q W W T ' [  .' W W W ' 7.J.S.7.7.H.5.[ W W W W W W W W W | | ,.,.' E E } ,.| W E J J J J D D J J J J J J D D D D S S S S D D D D S S S S S S S S S S S S S S S S S S S S Z Z Z Z Z Z Z Z Z Z Z Z Z Z Z Z Z Z Z Z Z Z Z Z Z Z Z Z N N N N Z ' 6.H.H.6.' D B L q.P.%XgX@XJ.#...#.Z.J.J.K.`.).!.c.9.9.;.&.&.&.&.&.&.&.&.%.G G Z n n n n n n p p p p e e e p B P B e p { 7.( A D ' O.7.H.7.] B f f C ) { ..) K l u 6 = = = = = = = # > > > 6 6 8 u l ) ) l u u 9 6 6 7 f  .6.' i 1 1 1 1 1 1 1 1 1 1 ; ; 1 1 1 1 1 1 1 1 1 1 ; ; 1 1 ; ; ; ; ; ; ; ; ; ; ; - - - - - - - - - - - - - - - - - - - - - - - - - ",
"2.3.3.3.3.3.-.p.z.s.4.4.3.<.<.3.3.3.2.s.m.).c.4.>.^ >.3.| E D D D J | 5.6.,. . .{ { { T A B A T ' ] { ' B N p A '  .7.Z.R.%XjXjX%XY.L.L.j.o.Q ^ ^ ^ ^ *.g.K.).).N.4.*.^ ^ ^ ^ ! ^ ^ ~ ~ ! ! ! ^ ^ | >.>.^ ! ! ^ ^ ^ ^ ^ ^ ^ ^ ^ ^ | O.5.5.o.Q Q T ' ' T W W ~ ~ ! ! ! ! ! ! ! ! ^ ! ^ ^ ^ ! ! ! ^ ^ ^ ^ ^ ^ ^ ! ! ^ ^ ^ ! ! ! ! ^ ^ ^ ^ ^ | | | ^ ^ ^ ^ ^ ^ ^ ^ ^ ^ ^ ^ o.o.o.o.o.o.o.o.o.o.o.o.o.o.o.o.o.o.o.o.o.o.o.o.o.o.o.o.o.o.o.o.o.o.o.o.o.o.o.o.o.o.o.o.o.o.o.o.+.+.+.+.+.+.+.+.+.+.+.+.+.+.+.+.1.+.a.1.[ Y Y E o.1.1.1.1.1.+.1.1.1.1.1.+.+.+.1.1.1.1.1.y.y.+.+.d.d.d.d.d.d.d.d.d.d.d.d.d.f.h.j.j.h.f.Z.G.A.h.l.K.Y.K.A.u.#.) { ) h g g y y y u g g L K l l d d g L l l d s s d d l ( h ) { #.Z.A.A.f.d.d.f.u.#.X.X.#.` ( C h Y ( ) ) ) ( ( ( ) [ { X.O.O.O.O.O.O.[ [ { {  .O.O.O.X.{ #.Z.L.L.L.L.Z.#.@.{ [ [ [ [ [ [ Q Q o.1.+.O.[ T W W W W E E W W W W W W O.7...( [ 5.[ T T W W W W E W W W | | | | W W W | ,.| W E J J J J J J J J J J J J J D D D S S S S D D D D S S S S D D D D S S S S S S S S S S S S Z Z Z Z Z Z Z Z Z Z Z Z Z Z Z Z Z Z Z Z Z Z Z Z Z Z Z Z N N N N A } 7.H.H.6.' P _ S.@XkXmXmXkX+XZ.{ Y T [ O.4.8.c.c.4.9.2.&.$.$.$.$.&.&.&.&.&.&.G S Z n n n n n p p p p e e e p n n p e B { @.B N ( [  . .5.@.{ ( C ) ` { ( L K ( L g 9 = = # # + # 6 8 8 u u 8 8 s l _ ..I 8 6 6 9 s s d h { ,.P i 1 1 1 1 1 1 1 1 1 1 1 1 1 1 1 1 1 ; 1 1 1 1 ; 1 1 1 ; ; ; ; ; ; ; ; ; ; ; ; - - - - - - - - - - - - - - - - - - - - - - - - ",
"3.3.3.=.3.=.-.3.3.3.<.<.<.<.3.3.3.3.<.4.s.x.c.c.c.4.4.2.W S S S D [ ,. .| ' J D D D D A B f f N B D ' T V N N A @.H.XX*XnXZXZXFXZXvX%XR.Z.[ [ ^ ^ ^ ^ ^ / >.>.>.>.^ ^ ! ! ! ! ! ^ ^ ^ ! ! | | ^ ! ! ! ! ! ! ! ! ^ ^ ! ! ^ ^ ^ ^ ^ ^ | ,.<.o.o.[ W [ W W | | ~ ! ! ! ! ! ^ ^ ^ ^ ! ! ^ ^ ^ ! ! ! ^ ^ ^ ^ ^ ^ ^ ^ ! ^ ^ ^ ! ! ! ! ^ ^ ^ ^ ^ ^ | ^ ^ ^ ^ ^ ^ ^ ^ ^ ^ ^ ^ ^ o.o.o.o.o.o.o.o.o.o.o.o.o.o.o.o.o.o.o.o.o.o.o.o.o.o.o.o.o.o.o.o.o.o.o.o.o.o.o.o.o.o.o.o.o.o.o.o.o.o.o.o.+.+.+.+.+.+.+.+.+.+.+.+.+.+.+.1.o.Q Q Q Q +.1.+.1.1.1.1.1.1.1.1.+.+.+.+.+.+.+.+.+.+.+.+.d.d.d.d.d.d.d.d.d.d.d.d.d.f.h.j.j.h.f.f.Z.f.d.j.K.{.Y.L.G.Z.V.Z.q._ l y y y u u u d l l d d d d d g l I l 8 s l ) ) ) ( ( ) #.A.L.F.u.#.f.Z.u.#.X.` ` ` ) _ _ _ ` ` ` { ) ) { ..X.{ X.O.O.O.O.O.[ [ X.[ { { { { O.O.7.'.*X*X+XL.L.L.H.f.X.[ [ [ [ [ Q W W Q o.o.[ E T T W W W W T E E W W E W [ 7.7.@.O.[ W T D W W W W W W W W | [ W W W W | | W W W E J J J J J J J J J D J J J D D D S S S S S D D D S S S S A A Z Z S S S S S S S S S S S S Z Z Z Z Z Z Z Z Z A A A A A Z Z Z Z Z Z Z Z Z Z Z Z Z Z N N N N S } ,.6.6.} P ..J.gXmXGXLXLXmX*XH.{ Y D W | :.2.4.4.2.:.&.G G G G G %.&.;.;.;.:.&.H S Z n n n n p p p p e e p e p e e e B ..@.B p N B B ( [ [ ' ( ( _ #.@.( g f h g y 6 = + + # 6 6 u k k u u u 8 u l _ _ k 6 6 6 d l l ) ) ] ] L r 1 1 1 1 1 1 1 1 1 1 1 1 1 1 1 1 1 ; 1 1 1 1 ; 1 1 1 ; ; ; ; ; ; ; - ; ; ; ; - - - - - - - - - - - - - - - - - - - - - - - - ",
"2.2.3.3.3.3.-.=.3.>.>.>.>.>.>.<.<.<.<.<.s.m.m.c.x.<.<.>.E S S T W W W D D D D V N N V B N B B N N N D T T D S { K.&X-X-X*X*X*XvXnXZXZXnX%XZ.X.Q | | | | | ^ ^ ^ ^ ^ ^ ~ ~ ! ! ^ ! ! ! ^ >.g.c.g.2.^ ^ ^ ! ! ! ! ^ ! ^ ^ ^ ^ ^ ^ ^ ^ ^ | | o.1.1.| ~ W W | ^ ! ! ~ ~ ~ ~ ~ ~ ~ ~ ~ ~ ~ ~ ~ ! ! ! ! ! ! ! ^ ^ ^ ^ ^ ^ ^ ^ ^ ! ! ! ! ^ ^ ^ ^ ^ ^ ^ ^ ^ ^ ^ ^ ^ ^ ^ | | ^ ^ | | | | | | | | o.o.o.o.o.o.o.o.o.o.o.o.o.o.o.o.o.o.o.o.o.o.o.o.o.o.o.o.o.o.o.o.o.o.o.o.o.o.O.O.O.O.o.o.o.o.+.+.+.+.+.+.+.+.+.+.+.+.+.1.g.d.1.o.o.+.1.+.1.1.+.+.1.1.1.1.+.+.+.+.+.+.+.+.5.1.5.5.d.d.d.5.5.5.d.d.d.d.d.d.d.h.j.j.j.j.F.F.Z.#.#.A.K.Y.K.Z.G.R.+X+X+XJ._ k y 8 8 9 9 8 8 u s s u d d d k ) l 8 8 l _ ` ` ) h ( { Z.F.u.#.Z.L.G.#.#.q.q.S.G.P.P.P.P.P.L.S.#.#.#.#.#.{ { O.O.O.O.O.{ { { | | | | X.{ X.7.+XjX*XL.Z.A.L.L.H.J.7.[ ' [ [ ' W T T T [ +.| Q W W T ' [ | W E E E E J E ' 7.H.H.5.' E D T E E E W W W W W ' ' W W W W W ' ' W ' W D J J J J D D D S S J J D S S S D D D D D D D D D D D D Z Z S S Z Z Z Z S S S S Z Z S S Z Z Z N N N N N Z N N A A A A Z Z Z Z Z Z Z Z Z Z Z N N N N N N Z J } } ' D P S.gXmXKXLXLXLXmX*XH.O.' D E Q | ,.2.2.| ~ J S S F G G G &.;.9.9.2.:.~ H Z n n n e e e e e e e e e e e e e p C B p p q 0 r f C ' [ [ C C L l a y y y y 7 6 6 = = = 6 8 u k l l d u y y s u 8 8 6 6 9 d l z l d u a t 1 1 ; 1 1 1 1 1 1 1 1 ; 1 1 1 1 1 ; ; ; ; ; ; ; ; ; ; ; ; ; ; - - - - - - - - - - - - - - - - - - - - - - - - - - - - - & & & ",
"=.=.=.=.=.=.=.3.3.>.>.>.>.>.>.>.>.<.<.<.s.N.).N.x.>.<.<.| W W [ W E E D D D V N D T T D D ( ' T D N V W | o.| 5.H.).).H.c.h.c.K.L.%XjXnXnX*XZ.[ Q Q Q o.O.,.O.o.| ^ ^ ^ ~ ~ ^ ~ ! ! ! ^ 2.c.).H.s.>.^ ^ ! ! ! ! ! ! ^ ^ ^ ^ ^ ^ ! ^ ! ! ^ ^ | | W E H E W W ~ ! ~ ~ ~ ~ W ~ ~ ~ ~ ~ ~ W ! ! ! W ! ^ ^ ^ ! ! ~ ~ ! ! ! ! ! ! ! ! ^ ^ ^ ^ ^ ^ ^ ^ ^ ^ ^ ^ ^ ^ ^ ^ | | ^ ^ | | | | | | | | o.o.o.o.o.o.o.o.o.o.o.o.o.o.o.o.o.o.o.o.o.o.o.o.o.o.o.o.o.o.o.o.o.o.o.o.O.o.X.X.X.X.X.X.X.X.X.O.O.+.+.+.+.+.+.+.+.+.+.1.d.g.5.+.+.+.+.+.1.1.+.+.1.1.1.1.+.+.+.+.+.+.+.+.5.1.1.1.1.5.5.5.5.d.d.d.d.d.d.d.d.h.j.j.j.A.{.+XL.f.+.j.K.K.A.Z.S.S.q.q.q.0._ l 8 8 9 6 6 6 8 8 8 8 l _ l d s d l s d l ) ) ` ` ( ( { #.#.` ` G.R.S.V.P.%XgXjXnXnXmXnXnXnXvX*X{.L.Z.#.{ [ [ { X.O.O.O.O.{ { | | | | [ [ @.L.*X@XH...{ #...#...#.@.[ ' W [ W W ' T T [ O.| W E E T ' ,.,.' E E E D D J W | O. .' T D E E E E E W W W W W W W W W W D W ' W W W D D J J J J D D D S S D D S S S S D D D D D D D D D D D S Z S S S Z Z Z Z S S S S Z Z S S Z N N N N N N B N B C P P P D D A N N Z N N Z Z Z Z N N N N N N N Z A S N B ) P.kXGXLXLXLXGXnX@XH.,.' W T W [ | | | W D Z Z M M Z S J &.:.2.2.2.:.&.G Z Z n n e e e e e e e e e e e e e e p i r r r r r y B T [ [ ( C y y y y y y f d s y 9 6 6 9 9 t d l l d d s y y 9 9 6 6 6 6 6 8 8 8 6 9 ; 1 1 ; ; ; ; 1 1 1 1 ; 1 ; ; 1 1 1 1 ; ; ; ; ; ; ; ; ; ; ; ; ; ; - - - - - - - - - - - - - - - - - - - - - - - - - - - - - - & & ",
"=.=.=.=.3.3.z.b.c.4.>.4.c.c.c.s.>.>.*.*.<.c.).).x.<.2.| Q T E E Q | | W T D V V D T D D A D ' [ ' W T [ 5.h.h.g.4.4.2.>.&.^ *.| { #.Z.+X8XvX+X#.T | g.H.).{.`.K.h.,.| ~ ~ ~ ~ ^ ! ! ! ! ^ 2.g.g.4.>.^ ! ! ! ! ! ! ! ! ! ! ! ! ! W W W W ^ ~ W E E E E E E ! ~ ! ~ ~ ~ ~ ~ ~ ~ ~ W W W W ! ! ! W ! ! ~ ! ~ ~ ~ ~ ! ! ! ! ! ! ~ ~ ^ ^ ^ ^ ^ ^ ^ ^ ^ ^ ^ ^ ^ ^ ^ ^ | | ^ ^ | | | | | | | | | | o.| o.o.o.o.o.o.o.o.o.o.o.o.o.o.o.o.o.o.o.o.o.o.o.o.o.o.o.o.o.o.o.O.X.X.X.#.V.S.G.G.S.V.#.X.o.o.+.+.+.+.o.o.+.+.+.+.+.+.1.+.+.+.+.+.1.1.+.+.1.1.1.1.+.+.+.+.1.1.+.+.+.5.+.1.1.1.d.5.d.d.d.5.d.d.d.d.d.d.f.h.h.K.{.L.A.+.+.A.K.K.f.Z.L.G.q._ _ l l l 8 6 8 8 6 6 6 8 s s l _ _ l s 8 8 8 k l h ) ` X.( ( { ` ` ` ` q.S.P.R.kXcXmXZXmXvXvXvXvXjX*X*X+X@X{.F.#.X.[ [ X.O.O.{ { X.X.| | | | [ { Z.@X@XZ.) Y ) { ( ( ( )  .O.[ W ' W '  .W T [ 5.5. .W W W W [ ' W E T T D D D D E T E E D T E E E E E W J J J J W W W W W D W ' T D T D D D J J J J D D S S D D S S S S D D D D D D D D D S S S Z Z S S Z Z Z Z Z Z Z Z Z Z S Z Z N B B A A ( ..q.Z.G.G.L.J.H.Z.6.] A Z N Z N N N N N N N N N N N N N N N B ) G.gXmXGXGXFXnXgX`.H.,.| W T T W ' ' T V B n n p n n Z H J :.:.2.2.:.:.J S Z n n e e e e e e e e e e e e e e e q i a t r r y B '  .5.5.] g y y f g ) { { ) h d y u u d g g g d d d d d d s y 8 s s 8 6 5 6 6 6 = ; 1 1 ; ; ; 1 1 1 1 ; ; ; ; ; 1 1 1 1 1 ; ; ; ; ; ; ; ; ; ; ; ; ; ; ; - - - - - - - - - - - - - - - - - - - - - - - - - - - - - - ",
"2.3.=.3.3.z.m.m.c.s.4.4.c.).).).3.*.*.*.=.4.c.c.4.>.2.>.| W Y E o.,.,.| T D V V S S S V V V D T T T W [ 1.h.h.5.>.>.:.^ ~ J H H S Y W @.J.*X*XA.#.K.XX&X&X&X&X&XXX).4.^ ~ ~ ~ ~ ! ! ! ! ! ^ | >.| ^ W W ! ! ! ! ! ! ! ! ~ W W W W W W W W W W E E E E E ! W ~ ! ~ ~ ~ ~ ~ ~ ~ ~ W W W W ! ! ! W W ~ ~ W ~ ~ ~ ~ ! ! ! ! ! ! ~ ~ ^ ^ ^ ^ ^ ^ ^ ^ ^ Q ^ ^ ^ ^ ^ ^ ^ | ^ ^ ^ | | | | | | | | | | | o.o.o.o.o.o.o.o.o.o.o.o.o.o.o.o.o.o.o.| | | | o.o.o.o.o.o.o.o.O.` q.G.R.jXnXnXnXvXjXR.S.#.X.O.O.O.o.o.o.o.o.o.o.O.+.+.+.+.+.+.+.+.1.+.+.+.1.1.1.+.+.+.+.+.+.+.+.+.+.+.+.1.d.d.d.d.d.5.5.d.d.d.d.d.f.f.f.f.f.A.#.X.X.#.A.K.L.A.L.@X'.P.S.q._ l d 8 6 6 8 8 6 6 8 d l l l l d 8 8 8 8 8 s h ) { #.) ) { ` ` ` ` G.gXkXcXcXcXcXkXjX+X{.+XY.L.G.Z.Z.L.+X+XL.Z.O.[ X.O.O.[ [ [ [ | | | [ [ O.H.+XZ.) C C ( ( h Y [ X.@.O.' W T T W ' T T [ 7.H.O.E T W T W T T E W T D D D D D D D D D T T E E E E T D D D D W J W J D D D D D D D D D J J J J J D D S S D D S S S S D D D D D D D S S S S S Z Z S S Z Z Z Z Z Z Z Z Z Z Z Z B B C ) q.S.R.%XuXvXvXvXvXvXuX-X+XH.6. .D N N Z N N n n N N N N N N n N n V ) Z.+XgXjXjXgX@X'.K.c.,.} J D C D D C V f y y r r i p n A J J :.:.:.:.:.U J S N n e e e e e e e e e e e e e e w q a I a < < r B '  .7.7.@.L f f f C { @.@.{ ) ) ) { ..{ { { ) ) h l l h d d d g l l s 8 5 8 k l 9 ; 1 1 ; ; ; ; 1 1 1 ; ; ; 1 1 1 1 1 1 1 1 ; ; ; ; ; ; ; ; ; ; ; ; ; - - - - - - - - - - - - - - - - - - - - - - - - - - - - - - - ",
"3.3.3.3.p.x.c.c.c.s.<.*.>.3.4.4.>.*.*.*.*.2.s.c.>.! ^ | | | Q | <.<.| Q T D D W ' T D D V D T W ' ' ' [ O.5.5.1.<.,.| W W D Z N N N S S [ H.+XL.L.&X&XXX`.K.K.).).).c.| ~ ~ ~ ~ ~ ~ W W ~ ~ ! ! ~ W W W ~ ~ ~ W W W W ! ! W W ! W W W W W W W W W W W W W W W W ~ ~ ~ ~ W ~ ~ ~ ^ >.,.^ ! ! ! W ~ ~ ~ W W ~ ~ ~ ~ W W W ! ! ! ! ^ ^ ^ ^ ^ ^ ^ ^ ^ ^ ^ ^ ^ ^ ^ ^ Q Q Q Q ^ ^ ^ ^ | | ^ ^ | | | | | | | | | | | o.| | | | o.o.o.o.| | o.o.| | | | o.o.o.o.o.o.O.#.V.R.cXZXGXGXFXFXFXZXZXkXR.V.X.O.+.o.o.o.o.o.o.o.O.O.+.+.+.+.+.+.+.+.+.+.+.+.+.+.+.+.+.+.+.+.+.+.+.+.+.+.d.d.d.d.5.5.5.5.5.5.d.d.d.d.h.h.f.f.5.X.X.X.f.K.A.A.K.+XL.Z.Z.q._ ) h d s 6 6 8 d 8 s k l _ l s 8 8 8 8 8 8 s l ) ) ` #.X.{ ` ` ` V.P.kXmXZXmXkXjXR.G.F.A.f.#.Z.L.L.Z.#.f.K.`.{.`.A.O.[ { { [ [ [ [ [ [ [ [ [ O.f.Z.{ { ) Y C C C C ) @.7.O.W W E W T T T T T [  .W T T T T T E J J T T D D D D D D D D D D W W W W D D D D J J J J J J D D D D D D J J D S S S S S S S J J J J S S S S D S D D S S D D Z Z Z Z Z Z Z Z Z Z Z Z N N N Z Z Z N B B ) q.P.jXvXVXCXvXvXuX-X-XXXXXXX).).).).6.' S Z Z n n n N N N N N N N n N V ' e.L.+X@X+X'.L.L.H.h.,.' D V g g g f y y 7 7 9 7 0 r p B A J J U } } :.} } J Z n e e e e e e e e e e e e e w q q r t r < ; ; r B ( @.7.@.( B f f B A Y Y ( { 5.A.A.A.Z.A.K.L.A.#.#.#.#.` l g d u 8 8 8 8 l _ I r ; ; ; ; ; ; 1 1 1 1 1 1 1 1 1 1 1 ; ; 1 1 ; ; ; ; ; ; ; ; ; ; ; ; ; ; ; ; - - - - - - - - - - - - - - - - - - - - - - - - & & & & ",
"=.3.3.3.3.3.3.2.3.3.>.*.*.&.&.&.*.*.*.*.*.*.<.3.^ E E E W [ | o.o.^ Q | Q T [ | [ T D D D [ O.O.O.5.5.O.[ [ O.1.1.O.[ W D D B N B C D E E ,.A.H.`.`.`.H.5.| | <.4.h.4.| ~ ~ W W W W W W W W W W W W W W W ! W W ! W W ! ! ! ! ! ! ! W W W W W W W W W W W W W W ~ ~ ~ ~ W W ~ ^ 4.c.c.,.W ! ! W ~ ~ ~ ~ W ~ ~ ~ W W ~ W W ~ W W ~ ~ ~ ~ Q Q Q Q ~ ~ ^ ~ ~ ^ ~ ! Q Q Q Q ^ ^ ^ ^ | | ^ ^ | | | | | | | | | | | | | | | | o.o.o.o.| | o.o.| | | | o.o.o.o.o.O.X.S.gXZXGXcXjX%X%X%X%XgXkXnXnX%XZ.+.+.o.o.o.o.o.o.o.O.O.o.+.+.+.+.+.+.+.+.+.+.+.+.+.+.+.+.+.+.+.+.+.+.+.+.+.1.d.d.5.5.5.5.+.d.d.d.d.d.d.f.K.K.L.F.f.+.+.f.K.A.#.A.L.Z.` _ ) l h s d u 8 8 k l l l l l l d 8 8 8 8 8 8 s z ` ` ) ` #.X.{ ` ` V.%XmXGXGXZXnX%XG.A.5.<.<.O.[ @.Z.Z...{ O.h.H.K.L.`.A.O.{ [ [ [ [ [ [ [ [ [ [ [ O.X.@.Z.#.( h C C ) { @.5.| W W W W T T T T T T T Y T Y T T T T E E T T D D D D D D D D D D D D D D D D J J J J D D J J D D D D D D J J S S S S S S S S D D D D S S S S D D D D S S D D Z Z Z Z Z Z Z Z Z Z Z Z N N N Z A Z B C _ P.jXZXFXCXCXpX&XXX).!.Q.c.c.9.9.4.c.c.).c. .S Z N N N N N N N N N n n N A ' 7.J.`.'.L.L.J.J.H.7. .D f y y y y y y 7 7 6 6 6 7 9 y a B B B D D U } } } U A n e e e e e e e e e e e e e w q q q ; - - - - ; 0 p B P D B f f B N N V T +.g.H.K.K.H.H.).XX&X&X+X+X+X+XL.u.) d s s l _ 0.0._ u 9 ; ; ; ; ; 1 1 1 1 1 1 1 1 1 1 1 1 ; ; 1 1 ; ; ; ; ; ; ; ; ; ; ; ; ; ; ; ; - - - - - - - - - - - - - - - - - - - - - - - - & & - - ",
"=.3.3.z.c.s.<.3.>.>.<.<.>.*.&.&.*.*.&.*.*.*.*.>.>.| Q E W | Q ,.1.1.1.1.O.| O.5.O.[ ' [ O.5.| ' '  .,. .W W | ,.O. .[ ( ( ' D N B C ' | | <.1.5.j.c.c.g.,.| W Q >.4.<.| ! ~ W W W W W W W W W W W W W W ~ ^ | | | ^ W E E E ! ! ! ! ! ! W W W W ! ! W W W W W W ~ ~ ~ ~ W W W | 5.8.,.| W ! ! W ~ ~ ~ ~ W W ~ ~ ! ! ~ W ! ! ! ! ~ ~ W W ~ ~ W ~ ~ ~ ~ ~ ~ ~ ~ ~ Q Q ~ ~ Q Q Q Q Q Q ^ ^ | | | | | | | | | | / / / ^ ^ ^ o.o.| | | | o.o.o.| | | o.o.o.o.X.X.Z.gXmXmXgXR.A.Z.f.f.Z.Z.G.+XjXvX%XA.+.o.o.o.o.o.o.o.o.o.O.o.O.o.O.O.o.o.o.o.o.o.o.o.+.+.+.+.+.+.+.+.+.+.+.+.+.d.5.5.5.5.+.+.+.5.d.d.d.d.K.`.L.K.K.f.O.X.f.A.A.f.f.A.#.) K h h h d l ) k u u l l l l l s 8 s k k k s s k _ _ _ l ) #.` ) ) q.R.mXGXGXFXvX+XF.d.1.>.| | W T ) ] ( D T W | 5.h.h.F.L.h.O.{ [ [ [ [ [ [ [ [ [ [ O.+.@.@.) h h C ( { { @.5. .W W W E W T T T T T Y Y Y Y T T T T E E T D D D D D D D D D D D D D D D D D J J J J J J J J D D D D D D J J S D S D S S S S S S S S S S S S S S Z Z S S D D Z Z Z Z Z Z Z Z Z Z Z Z N N N N Z B L q.R.nXGXFXFXvXuXOX).c.4.2.2.2.&.&.&.&.>.2.c.c.c.,.J N M N n n n n n n N N N D ] 7.J.L.L.L.K.H.H.Z.6.[ C f y y y y y 9 7 9 6 6 6 6 9 y u g g f B B D ' ' } U S N n e e i i e e e e e e e e w q q 0 ; ; ; * ; - ; 0 q y y e f B D ' ' T W 5.K.).K.j.g.c.).&XuXuXuX8X*X*X&XL.` h d _ S.+XP.S._ u ; ; ; ; ; ; 1 1 ; ; ; 1 1 1 1 1 - - ; ; 1 1 ; ; ; ; ; ; ; ; ; ; ; ; - - ; ; - - - - - - - - - - - - - - - - - - - - - - - - & & & & ",
"c.c.m.!._.).m.s.>.>.<.4.s.<.*.*.*.&.&.*.&.&.&.&.>.4.4.o.o.,.| o.1.5.d.1.<.<.,.5.5.5.1.7.K.K.7.' D T T T D | 5.5. .T D T ' ' D B f N D T [ | o.2.4.4.c.c.c.5.>.^ ^ | o.| ^ ~ ~ W W W W W W W W W W W ~ | 4.c.H.K.H.g.| W E E E W ! ! ! ! W W W W ! W W W W W W W W ~ ~ ~ W W W ^ ,.g.,.^ ! ! ! W ~ ~ ~ ~ ~ W ~ ~ ! ! ! W ! ! ! ! W W W W W W W W ~ ~ ~ ~ ~ ~ ~ ~ ! ~ ~ ~ Q Q Q Q [ [ ^ ^ | | [ Q [ [ [ | | | / / / ^ ^ ^ o.o.o.| | | o.o.o.| | | o.o.o.X.X.#.+XnXnX@XZ.1.o.Q Q Q ' [ [ @.A.+X*X+Xf.O.o.o.o.o.o.o.o.o.o.o.O.O.O.O.o.o.o.o.o.o.o.o.+.+.+.+.+.+.+.+.+.+.+.+.+.+.+.+.+.+.+.+.+.+.+.+.5.h.K.A.f.#.#.+.X.+.f.A.f.5.5.#...) K C ( ) ) ) _ l d u l l s u d s s s s l l s k l l ) l l _ #.#.` ` P.cXGXGXFXvX+XA.+.O.| | W W D D ( D A D T W ' [ 5.5.f.K.H.7.X.[ [ [ [ [ [ [ [ [ [ O.5.@.) C C C C ( ) ) ( [ | [ W W W W T T T T T T T T T T D D D J J D D D D D D D D D D D D D D D D D D J J D D D D D D D D D D D D D J S S D D S S S S D D D D S S S S S Z Z Z Z S D D Z Z Z Z Z Z Z Z Z Z Z Z N N N N B C q.@XnXFXFXFXvXuXXX!.z.9.:.&.&.&.&.&.&.! E ! :.4.c.c.,.J N n n n n n n N n n N A ] 6.Z.J.J.H.H.H.Z.7.@.' C f y y y y 9 9 9 6 8 8 8 8 s d g l g g g f B P ' ] U D N n e e i i e e e e e e e w q q q q 0 1 ; - ; 9 a l B B B N S W | O.O.W D W 1.g.d.1.5.c.).&XuXuXuXuXuX*X&XF.#._ ` Z.+X*XP.0.l 9 - ; ; ; ; ; 1 1 ; ; ; 1 1 1 ; ; - - - ; 1 ; ; ; ; ; ; ; ; ; ; ; ; ; - - - - - - - - - - - - - - - - - - - & - - - - - - - & & & & & ",
"_.!.c.z.s.c.z.2.=.=.=.>.2.=.*.*.^ ^ &.&.&.*.&.^ >.4.4.>.>.>.o.Q | o.o.o.o.>.| | | | o.1.H.`.K.@.D D D D T O.Z.7.' D D W W D D D D D ' |  .| [ | o.o.<.4.g.1.o.| | <.,.| W W W W W W W W W W W W ~ ~ | 4.).XXXX`.`.).8.| W E E E W W W E ~ ~ ~ ~ W E E E E E ~ ~ ! ! W W E E E W ~ | ^ W W W ! ! ! ! ! ! W W W ! ! ! W W W W W W ! ! ! ! W W W W W W ~ W ~ ~ ~ ~ ~ ^ ^ ~ Q Q Q Q [ [ Q Q Q Q [ { O.| [ | | | ^ ^ / / | | | | | | | | | | | | | | o.o.o.X.X.G.vXvX+XZ.O.Q T T Y T Y Y Y Y [ 7.{.&XJ.O.o.o.O.+.+.O.O.o.O.o.O.O.O.O.o.o.o.o.o.O.O.O.+.+.+.+.+.+.+.+.+.+.+.+.+.+.+.+.+.+.+.+.+.+.+.+.5.f.j.+.X.X.X.O.X.O.7.f.#.+.+.X.[ ) ( ( ) #.#.#.) d u u d s 8 s s s s s s s k k l z l l l ) ` #.#.#.S.%XcXFXZXvX+XA.+.o.| [ ' J D D C C C ( P ] 7.7.' ( O.A.J.A.A.#.[ [ [ [ [ [ [ [ [ [ O.5.{ ( { #.) C K K C C W | ' W T W E E T T W W D D D D D D D D D D D D D D D D D D D D S S S S D D D D D D D D D D D D D D D D D S S S S S S S S S S D S S Z Z Z Z Z Z Z Z Z Z Z Z S S A B B B N N Z Z Z Z A N N N N N C #.+XnXFXGXFXCXuXXX!.z.9.&.&.&.~ ! G G G S G G J ~ :.4.c.,.D n n n n n n n n n N D ' ,.6.7.7.7.7.7.6.6...[ D C g u y y 9 6 9 8 s s s u d d l l d d u u g L P ] U A n n n p i i w w w w w w w w q q q q 0 0 0 1 7 l ....] D D W | | o.| ^ E S S D [ <.h.K.`.&X&X&X&X&X&X*X&X{.A.7.#.#.Z.'.P._ t < - ; < 3 < ; ; ; ; ; ; 1 1 1 ; - - - - - - - - - - - - - - - - - - - - - - - - - - - - - - - - - - - - - - & - & & & & - - & & & & - - ",
"!.!.c.s.2.2.2.=.=.*.*.&.&.&.&.&.! ! ! ! ! &.&.! ^ / / ^ Q ^ ^ ^ Q ^ o.o.o.o.Q ~ ~ ~ Q ^ 1.H.h. .' D D ' O.H.`.H.,. .| | [ | ,.,.,.| ' ' ' W W W [ [ O.5.5.5.O. . .5.8.:.W W E W E E E E W W W W ~ ~ ^ >.h.).).c.6.4.,.Q E E E E W W W W ~ ~ W ~ W W E E E E ~ ~ ! ! W ! E E E E W W W W W W W W ! ! ! ! W W W W E E E E W W W W ! ! ! ! ! ! ! ! ! ! ! ! ~ W ~ ! ! ! ! ! Q Q Q Q Q Q Q Q Q { V.F.L.H.7.| [ [ | Q Q / | | | | | | | | | | | | | | | | o.[ #.$XvX@XA.O.[ T Y D V V V V C C Y [ f.{.`.7.X.+.j.L.L.A.5.O.o.o.+.1.+.O.o.o.o.o.o.o.O.O.+.+.o.o.O.O.O.O.O.+.+.+.+.+.+.+.+.+.+.+.+.+.+.+.5.5.5.O.O.5.5.+.X.X.+.f.X.X.@.X.[ ) ) { @.#.#.{ K h d y s y y s d d d s d k l l l l l l z ) ` ` ` #.V.P.kXFXvX@XA.5.+.| [ W D A B L B f K @.) 7.J.J.{ C ( #.Z.Z.f.7. .' [ [ [ [ [ [ [ [ [ [ [ ) Z.`.Z.) K K C C T ' W T T W W E T W W W D D D D D D D D D D D D D D D D S S S S D D D D D D D D D D D D D A D S D D D D D S S S S S S S S S S S S S Z S Z Z Z S Z S Z Z Z Z S S B B B B N B Z Z Z Z B N N N N B _ P.kXmXFXFXCXuXXX!.c.9.2.&.&.G J J H Z Z Z Z M H S J :.8.c.,.A n m n n n n n n N D '  ...@.@.@.,.5.5.5.5.@.' P B a y y 7 7 9 s d d d d d d g d d d u u g l L P P A n n A n e e w 0 0 w w w w w w q q r w 0 i g I L L ] ' ( ' | 4.4.c.c.4.3.^ W W | 1.H.).{.XX{.L.{.{.{.$X+X{.F.Z.#.#.J.J...t ; ; < < ; 3 1 ; ; ; ; ; ; 1 1 ; ; - - - - - - - - - - - - - - - - - - - - - - - - - - - - - - - - & & - - & & & & & & & & - - & & & & - - ",
"z.c.s.4.2.3.9.2.*.&.&.&.&.&.&.&.&.! ! &.*.&.&.&.^ ^ ! ^ >.^ E ^ o.<.4.g.x.c.g.s.a.<.<.<.g.h.<.W ' ' T W [ f.L.L.H.h.H.H.H.H.H.5. .T D T T W W [ @.f.A.K.H.J.`.`.H.g.,.W W E E W W W W W W W W W ^  . .| ,.g.c.h.2.o.^ W W W ! W W W W W W W W W ~ ~ ~ ~ E ~ ~ ~ ! ! ! ! E E E E W W E E W W W W W W W W W W W W E E E E ! ! ! ! ! ! ! ! E E E E ! ! ! ! ! ! W W ! ! ~ Q ~ ^ ! ^ ! ! ! Q { S.+X@X+X+X`.7.[ Q Q Q | [ | | | | | | | | | | | | | | | | | X.A.*X$XF.+.[ [ Y Y V V V A V V C V Y X.H.`.Z.O.A.{.L.A.H.A.5.o.o.+.5.O.o.O.O.o.o.o.o.o.o.O.O.O.o.o.o.o.o.O.O.O.+.+.+.+.+.+.+.+.+.+.+.+.+.+.+.+.+.+.d.#.+.X.X.O.+.X.) [ X.) [ [ #.7.#...) ( K g g C K h l ) l l l l k l l l l d z ) ` q.q.` ` S.P.jXkX%XH.5.1.O.| ' ( C f f h g y g ) ) e.Z.e.] C g g ) ( { 7.5.[ [ [ Q Q Q Q Q Q W T [ @.Z.J.Z.) ) ) C Y T T D D T T E E D D W W D D D D D D D D D D D S D D D D D D D D D D D D D D D D D D ( ..#.( D S D D D D S S S S S S S S S S S D S D D S D D S S S S S S Z Z S S A A B B B B A A Z Z B B N N N C V.R.gXnXFXnXuXXX).c.9.2.:.&.G J H H S M b m v m m A S W ,.8.c. .A n n n n n n n N D ' ' ' ' ' ' {  .@.6.6.6...' C g y y y 9 y d l l l l g g d d d d u u u l l K B B n n A n e e w w 0 w w w w w w 0 0 0 0 0 a q.S.q.L K C D ( [ 4.c.!.).).).c.g.g.g.s.c.c.c.K.K.K.L.Y.{.*X*X*X@XL.e.Z.S.q.a ; ; 3 3 ; ; 3 1 ; ; 1 ; ; ; 1 1 1 ; - - - - - - - - - - - - - - - - - - - - - - - - - - - - - - - - & & : : & & & & & & & & & & & & & & & & ",
"c.c.c.4.2.*.=.*.*.*.&.&.&.&.&.&.&.! &.=.3.=.*.&.! ^ ! ^ >.>.o.o.<.4.x.c.n.N.).).).N.N.K.).).j.1.O. .W D D ( @.5.7.H.`.@X&XXX`.H.5.[  .6.6. .[ O.A.`.`.`.H.L.@X*X{.h.| E E W W W W W W W W W W W ,.c.H.8.4.2.4.c.c.4.:.~ E E E E W W W W W W W E ~ ~ ~ ~ E E ~ ~ E W W W W W E E W W W E W W W W W W W W W W W ! E E E E E ! ! ! ! ! ! ! E E E E ! E E E ! ! ! ! ! W ~ W W ^ ! ! ! ~ Q [ Z.+XL.V.#.7.Z.h.O.Q Q Q | | | | [ [ [ [ | | | | | | | | | | | o.K.&XL.#.[ [ Y C C C C A C f f C C Y X.A.L.h.f.K.f.X.{ X.5.5.O.+.A.K.5.O.O.o.o.o.o.o.o.o.o.o.o.o.o.o.o.o.o.o.O.O.O.+.+.+.+.+.+.+.+.+.+.+.+.+.+.+.O.O.O.O.O.O.O.O.[ Y Y ) X.@.X.7.#...{ ( ( ( C K ) ) ) ) ) K l z l s 8 k l l l l _ V.G.V.#.#.P.%X%XR.A.O.O.O. .' D B g g u u u y u d g I L L B g y y f f C { 5.O.' W W W W W W W W T [ 7.Z.7...{ #.#.) ( T W W D D T T T D D E D D D D D D D D D D D D D D D D D D D D D D D D D D D D D D ] S.+X+Xe.P D '  .P D S A S ' ' J S S S S D S D S D D D D D D S S S S Z Z S S A A A A B A A A Z Z B N N A N ) Z.P.%XnXZXjX+XH.4.4.2.2.:.~ J H S A B n i i i b n n n S J ,.c.8.' n n n n n n n N B D P D D D D P '  .5.7.7.,.] P B f a y y g h K K ) K l h g d d d s u d g g B B n n p n p i i w w 0 0 w w w w w 0 r 0 0 0 i _ S.e...e.q.] B A ' 4.).XXXXOXXXXXXXXX).).K.K.K.`.{.+X&X8XjXvXjX+XZ.e.q._ u ; ; 1 3 1 ; ; 1 3 ; ; 1 ; ; ; 1 1 ; ; - - - - - - - - - - - - - - - - - - - - - - - - - - - - - - - - : : : : & & & & & & & & & & & & & & & & ",
"z.z.s.3.*.&.*.2.2.3.2.*.&.&.&.&.&.! ! =.=.=.*.&.&.&.&.*.>.4.s.g.s.s.x.s.4.x.!.[.[.).).).).[.).c.g.,.W D V V D D ' O.H.+X&X@X`.7.,.,.7.H.H.5.| :.6.h.H.h.6.5.r.H.6.| W W W W W W E E W W E E E W | 4.8.2.:.| | | ,.| ^ W E E W E E H W W E E E E E E E E E E E E E W W W E E E E E E E E W W W W E E E E E E E E E E W W W ! E E ! ! ! ! E E E E E E E ! ! ! E E ! W W W W W Q [ @.7.#.#.S.L.q.) D D ' 5.<.[ [ Q Q Q Q Q [ [ [ [ | | | | | | | | | | | O.D.L.f.X.( ( C C C C g C g f f C C ) X.f.Z.5.5.f.X.[ Y Y [ O.O.+.H.L.5.O.o.X.o.o.o.o.o.o.o.o.O.o.o.o.o.o.X.X.X.X.O.O.+.+.O.O.+.+.+.+.+.+.O.O.O.O.O.X.X.X.O.O.O.X.X.[ Y Y X.#.O.@.{ ( ( ( [ [ { { { { [ [ ( ) ) ) l s 8 s d l z z ` S.Z.` ` q.R.*XY.Z.{ ( [ [ ' P g a y y 9 9 y d l d s y y y f a y y y y f (  .[ T T T W W W W W T T ( O.5.#.@...X.X.{ { ' J J J E E E E D D D D D D D D D D D D D D D D D D D S D D D D D D D D D D D D D q.@X*XJ.@.] ..7.e.] D S D J ,.6.] S S S S A A A A Z S S Z Z Z Z Z Z Z Z Z Z Z Z Z N B N N Z Z Z Z N N N N C @.Z.S.S.P.R.G.#.[ | ,.>.:.} J H A n n B p i i i i i p p n Z W 4.H.6.A n n n n p p n n B B B B B B D (  .,.6.6.,.] P A B B B C K ( ) ) _ _ ) ) K h d d d u u d d f p p i i i i i i w w w w w w 0 0 w 0 0 0 0 0 0 a I I #.P.'.q.g f Z ' h.XX-X-X-X-X-X-X-X&X&X&X&X*X*X8XuXuX*X@XL.#.l l l r ; ; ; ; 1 1 1 1 1 1 1 1 1 1 - - - - ; ; - - - - - - - - - - - - - - - - - - - - - - - - - - - - - - - - - - - & & & & & - - & & & & & & & & & & ",
"9.9.3.=.=.=.2.2.3.=.=.=.&.&.&.&.! ! ! &.*.*.&.&.&.&.*.>.4.c.c.N.c.c.c.4.4.x.N.).).[.[.).).).).j.1.o.O. .T D D D W ' { 5.Z.r.6. .' '  .6.,. .} } } | | :.:.:.| ~ W ~ W ~ ~ W ~ W ~ W W W E E E E W W W W W W E E E E W | O.,.<.| ~ W W H H H E E E E E E E E E E E E E E J J J J E E E E W W W W E E E E E E E E E W ,.4.2.W E E ! ! ! ! E E E E ! ! ! E ! ! E E E E W W W [ #.L.@X*X*X+XL.Z.#.{ D J W ,.O.[ Q Q Q Q Q Q Q Q Q Q | | [ [ [ [ | | | | [ o.h.H.d.) ( ) C g g f d g g f f f h C { 7.A.5.+.+.+.[ Y Y [ +.O.O.5.f.O.o.X.X.[ X.o.o.o.o.o.o.o.o.o.o.o.o.X.X.X.X.X.O.O.+.O.O.O.O.+.+.O.O.+.O.O.O.+.O.O.X.X.X.X.X.X.X.[ Y [ [ ( ( Y Y Y [ [ { @.#.O.[ { { { { ) K d d d s d l _ _ _ Z.Z.S.P.P.+X@XS.{ C g C ( K h y y y y 7 9 u K _ l y 8 7 9 y y y y y y y P  .( D T ' T T T W W W E T [ #.7.{ ) q.e.) [ ' J J J D D J J D D D D D D D D D D D D D D D D D D D D D D D D D D D D D D D D P S.@XS.) D ] 7.7.7. .D S S J } ..U S S S S A A A Z Z S Z Z Z Z Z Z Z Z Z Z Z Z Z Z N N N N Z Z Z Z N N N B ] H.G.q.) ) ) l d f T } | } } U B n p i p i 0 r r 3 t m i n n S | c.J...B n n n p p p p p n n n p p N D '  .,.5...' P D D P ( ) { ..@.#.#.#.#.#.` ) ( h d u u y y y p i w 0 i i i i w w w w w w 0 i 0 0 0 0 0 0 0 w i i g _ _ L y p D  .H.XX-X-X-X-X-X-X-X-X-XuX*X*X@X+X+XL.S.#.L r ; ; ; ; ; ; ; ; 1 1 1 1 1 1 1 1 1 1 - - - - ; ; - - - - - - - - - - - - - - - - - - - - - - - - - - - - - - - - - - - & & & & & - - & & & & & & & & & & ",
"3.3.2.=.2.2.2.*.*.&.&.! ! ! ! &.! ! ! ! &.&.&.&.&.=.=.2.4.s.c.c.c.4.<.>.4.c.c.N.).[.[.).K.c.g.o.[ ,.H.H.O.T T [ | | W W ' ' ' W W W W } } } | | ~ | :.,.,.:.~ W W ~ ~ ~ ~ ~ W ~ | | ~ W W W W W W W E J E E E E E E | 5.H.K.H.c.,.~ H H E E E E E E E E E E E E E E E E J J J J E E J J W W W W E E E E E E E E E :.g.g.8.| E E ! ! ! ! E E E E E E E E E ! ! E E E ! W [ e.@XkXjX*X*XjXgXJ.@.) T ' [ o.[ Q Q [ Q Q Q Q Q Q Q Q | ^ ^ Q [ | | | | | [ o.d.D.d.[ ( ( h f f y g K K h g h f f ( #.A.5.+.+.5.[ Y ( X.1.O.+.h.K.5.X.X.o.O.X.o.o.o.o.o.o.X.X.O.O.O.O.X.X.X.X.X.o.O.+.O.O.O.O.O.O.O.O.O.O.O.O.+.O.O.X.X.X.X.X.X.[ [ [ T Y Y ( [ ) X.X.[ X.f.h.#.X.+.+.@.{ ) h d l l _ _ ) l l l ` G.gXcXcX%XG.#.) h y g L l y 9 y y y y y g h l d y 9 7 9 y y y y a y B @.f.@.T T T W T T T W W W T ) e.7.{ ..P.L...[  .W S D D D D D D D D D D ' W ' ' S D D D D D D D D D D D D D D D D D D D D S S J 7.Z.#.D D ( @.7.Z.,.P D S S D D S S S S D D A Z Z S S Z Z Z Z Z Z Z Z Z Z Z Z Z N N N N N Z Z Z Z N N N B { H.J.#.l y 7 6 6 y C ' ' ' U A p q 0 0 p y r r 3 r a p r i n N W h.`.H.P n n n p p p i p p p p p p y N D ( ' ] ' ' D D D ' [  .@.7.Z.Z.H.H.S.H.Z.#.` ) h d y y q q w w w 0 i i i i 0 0 w 0 w w w w q w 0 0 0 0 0 0 0 0 0 t r 7 0 r A } 6.).`.XXXXXXXX`.`.XX`.L.Z.#..._ ) L l t 9 9 ; ; ; 1 1 1 1 ; ; ; 1 1 1 1 ; ; 1 1 1 - - - ; ; - - - - - - - - - - - - - - - - - - - - - - - - - - - - - - - - - - - - & & & & - & & & & - & & & & & & ",
"2.2.*.*.2.9.2.&.&.! ! ! ! ! ! &.^ ^ ^ ^ ! ! &.&.&.=.=.2.<.<.<.3.2.>.^ ~ ^ >.<.4.g.c.h.g.5.5.7.5.7.j.`.K.h.O.[ +.,.} J J W } } ~ ~ W W W ~ ~ ~ ~ W ~ ~ ~ ~ ~ W W W ~ ~ ~ ~ ~ W ~ ~ ~ W W W W W W W W E E J J E E E Q ,.h.H.H.c.g.,.~ E H E E E E H E E E E E E E J E E E J J J J E E J J E W W W E E E E E E E E W ,.4.2.| W E E E W W ! E E E E W [ ' T E E E E E E E W 5.+XgXR.S.q.q.S.L.J.7.@.@. .[ Q Q Q Q Q Q Q Q Q Q Q Q Q ^ ^ Q Q [ ^ | | | | [ | 1.j.5.[ Y ) h f f g l K l h h h g g C { 7.+.X.O.f.5.X.{ O.O.O.+.5.h.O.[ X.+.+.o.o.o.X.X.o.X.X.X.X.X.X.X.X.X.X.X.X.X.o.O.O.O.O.O.O.O.O.O.O.O.O.O.O.O.X.X.X.X.X.X.[ [ [ [ [ X.#.#.7.d.A.K.f.O.#.f.A.f.5.7.#.@.#...) _ S.R.G._ l h ) #.G.gXmXmX+XZ.Z.#.K y 9 u 8 9 9 9 y y y u d y y y y 9 9 y y y q y y N P 7.H.Z. .Y T T T T T T T W T ] Z.H.@.] q...) {  .' D D D D D D D D D D D W '  . .D D D D D D D D S S S D D D D D D D D D D S S S '  .5.O.| ,.7.7.6.] D S S S S S S S S D D D D Z Z S S Z Z Z Z Z Z Z Z Z Z Z Z Z N N N N N N N N N N N B C #.J.Z._ l y = > > 7 g ( D B B p r r 9 r y y r r r t a i r q e n E 6.`.`. .N n n n n p p e e w i r r y p N B D D D D D D W '  .5.7.Z.H.L.L.`.{.`.L.F.Z.#.) h a q q q w w w w i i i i w 0 0 0 w w w w q r r r r r r 0 0 0 0 q 0 q q q i B A ] @.5.6.5. .' U ] ] K y 0 0 0 0 0 r ; < < ; ; ; ; 1 1 1 ; ; ; 1 1 1 1 ; ; 1 1 ; - - - ; ; - - - - - - - - - - - - - - - - - - - - - - - - - - - - - - - - - - - - & & & & & & & & - - & & & & & & ",
"2.*.*.*.2.4.4.2.*.&.&.^ ^ &.&.&.^ ^ &.^ ! ^ &.&.&.*.*.>.*.*.*.>.3.>.o.^ ~ W ! E Q Q E W X.J.{.L.L.K.K.K.K.A.7.5. .W } } } } } ~ ~ ~ ~ ~ } ,.8.:.~ W W ~ W W W W W ~ ~ | ~ ~ ~ ~ W W W ~ | | :.:.| ' E E J J S E E ^ o.2.,.,.,.| } W H J J J J E E E E E E E E E J J J J J J J E E J E J E E E J E E E E E E E E E } ,.:.W E E E E E E E E E W | f.H.Z.O.T E Y E E E E | H.@XL...( C C P ..7.Z.H.H.A.O.Q Q Q Q Q Q ~ ~ ~ Q Q Q Q | | ^ Q Q Q Q Q [ [ [ | o.5.1.Q C ( K K h g g K K K K h g g C ) @.O.X.O.1.1.O.O.O.O.O.O.O.O.X.o.o.o.o.[ o.o.X.X.X.X.[ [ [ X.X.X.[ X.X.X.X.X.X.o.X.X.X.X.O.O.O.O.X.O.O.O.O.X.X.X.X.X.X.X.[ [ [ [ [ +.H.L.K.Z.L.@X{.Z.5.f.A.Z.5.#.#.X.#.q.#.Z.%XgXS.) ( ( ) #.Z.P.gXgXS.Z.@XS.l 9 6 9 6 8 8 s y y g d y y y y y y 8 s s y q q y f A @.Z.h.O.Y Y T T T D T T ( ( ] @.H.7.( h g C '  .' D D D D D D D D D D D D D D D D D A A A D D S S S S S S S S N N Z Z Z Z N N D ' @.7.7.6.H.6. . .U S S S S S S S S S S S S Z N N B A Z N N N N N N N N N N Z A A Z N N N N N N N B B B L 7.G.Z.K u 9 8 8 > 9 u K g f a y r r r 9 9 9 t t t g g a a a B A [ 5.).`.7.D N N S D N N e e p r r r r i p p N N D S S D W ' | 5.h.H.`.{.+X+X&X@X+X+XL.Z...L p y w w i i r r q q q w w w 0 0 0 0 0 0 r r r r r r r r 1 0 0 q p B A N p i r p p p p p p q 0 0 0 0 ; ; 1 ; ; 1 1 1 ; 1 ; ; ; ; 1 1 ; ; ; ; ; 1 1 1 ; ; ; ; ; ; - - - - - - - - - - - - - - - , , , - - - - - - , , , , - - - - - - - , , & & & & & : & & & & & - & & & & & & & ",
"4.2.=.*.*.2.3.2.=.*.*.&.^ ^ &.^ ^ ^ ^ ! ! ^ ^ &.&.&.&.*.*.*.>.4.s.4.<.>.>.>.^ ^ Q E Y ( ) q.G.Z.Z.f.5.O.O.O.| | ' } 8.8.8.,.} ~ ~ ~ ~ ~ ,.H._.c.} W ~ ~ W W W W W W ~ ~ ~ W W W W W } :.8.8.8.8.8.,.W E J J S E W ^ | :.:.| | ~ W W J J J J J E E E E E E E E E J J J J J J E E E E J J E E J E E E E E E E E E J E W W W E W E E E E E W E ' 7.L.H.A.5.[ W E E E E E  .K.J.@.D V A C B A { 6.6.7.h.<.Q ~ ~ Q Q ~ ~ Q Q Q ~ Q Q | | Q ~ Q Q Q Q [ [ [ [ o.1.1.[ Y ( C K C h h C h h h h f g K ( [ [ X.X.o.o.o.O.O.O.O.O.O.X.o.o.X.X.o.X.X.X.X.X.X.X.[ X.[ [ [ [ [ [ X.X.[ [ X.o.X.X.X.X.X.O.O.O.X.X.O.X.{ { X.X.X.X.X.[ [ [ [ [ [ X.A.L.A.#.f.L.`.L.H.f.f.f.A.Z.Z.) l K ) _ S.S.` ( [ ) ( ` S.Z.S.Z.` #.G.q.l u 9 9 6 8 8 l u y u 9 9 9 y u l s 8 y y 9 q q f K C C { 5.{ T D D T D D T ) #.Z.e.@.7.Z.@.K B D ' [ T D D D D D D D D D D D D D D D D D A A A D D S S Z Z S S D S N N Z Z S S N N D D { 5.7.7.5.' J U J H H J S S S A S S S S S Z N N B B N N N N N N N N N N N N Z Z Z N N N N N N B B B B K e.L.Z.) s y t 9 > 9 9 t y y u t 9 9 9 > 9 9 9 9 t l a t K ]  .O.,.5.H.`.H.' S J ' | ' D N n p r r r r r r p n N D J J W W | o.5.j.K.{.&X&X&X*X*X*X@X`.H.@.P B i i i i r r r q q q q w w w w 0 0 w i r r r r r r r r r 1 q p P  . .' B i r r 0 0 0 0 0 0 1 1 1 1 1 ; 1 ; 1 1 1 1 ; 1 ; ; ; ; ; ; ; ; ; ; ; 1 1 1 1 1 ; ; ; ; - - - - - - - - - - - - - - , , , , - - , - - , , , , - - - - - - - , , , - & & & & : : & & & & - & & & & & & & ",
"2.2.2.3.2.&.&.&.&.&.^ ^ ^ ^ ^ ^ ! ^ ^ &.*.*.&.^ &.*.&.&.*.2.4.!.).c.3.>.<.<.<.>.o.O.7.G.P.P.R.R.R.L.Z.{ T T T W ~ } ,.8.8.,.~ ~ ~ ~ ~ ~ | 4.c.,.~ W W W W W W W H J W J W H H W W ~ | :.} } } } ,.| W S J J J E W ~ | | | | ~ ~ ~ ~ ~ W J J J J J J E E E E E E J J J J J J J J J J J J J E E E E E E E E E E E E E E E W W W W E E E E J W } h.5.{ [ [ +.5.O.W E E E | H.7.' S D ( D A B '  .{ O.5.o.Q ~ ~ Q Q ~ ~ ~ ~ ~ ~ ~ ~ Q Q Q Q Q Q Q Q [ [ [ [ [ o.<.o.T Y ( ( ( Y ( [ K C C K C C ] { [ [ X.[ X.o.O.O.X.[ [ X.O.O.O.+.O.o.[ X.X.X.X.X.[ [ X.X.[ X.[ [ X.X.[ [ [ [ X.o.X.X.X.X.X.X.X.X.X.X.X.| [ | [ [ [ [ [ [ [ [ [ [ [ [ X.5.f.O.X.f.L.'.H.A.Z.Z.H.L.Z.) y y g l ) ) [ [ [ [ ( ) Z.L.G.#.( ( ) l ) I l u 6 8 z _ l y 9 6 9 9 8 _ ..l 8 7 9 y g ) #.Z.7.] C { 5. .T D D D D D ..L.+XZ.{ @.Z.Z.) h ] @.' D D D D D D D D D D D D D D D D D D D A D D D S S S Z N S D D N N V V S S S V B P 7.7.{ @. .U J J J J J J S S A D S S S S Z A N N N B N N N N N N N N N N N N Z Z Z N N N N N N N B B D ] Z.+X+XS.q._ _ _ l u 9 9 9 9 t 9 > > > > 6 > 6 > > 9 9 9 g ] 7.5.5.5.H.`.).,.W ~ | ,.| ' D N e q q 0 0 0 q p n N D W W ~ | :.<.h.K.{.XX&X&X*XuX-X*X&X+XK.5.( N i i i i r r r q q q r w w i w w w i i r r r r r r r r r 0 i B ..7.6.{ B t r r r r r r r r 3 r 3 3 3 ; 1 ; ; ; 1 1 1 1 ; ; ; ; ; ; ; ; 1 ; 1 1 1 1 1 1 ; ; ; ; - - - - - - - - - - - - - - - - - - - - , , , , , , - - : & - - - - & & - & & & - & - - & & & & - - & & & & & & ",
"=.=.2.2.2.*.&.&.&.^ ^ ^ ^ ^ ^ ^ ^ ^ >.2.9.2.&.&.&.&.*.&.>.2.c._.XX).x.<.<.<.<.<.5.K.&XvXnXnXZXZXZXnX8XL.#.' W W W ~ ~ } } ~ J J W W ~ ~ ~ 2.2.} W W W W W W W W H H J J J H H H W | :.| J Z M S E W E J J J J J W } | ~ W W W W | :.:.} W J J J J J J J J J J J E J J J J J J J J J J J E E E E E E J J J J E E J J J J W W W W E E E E J W } 4.,.Q | | O.5.5.| E E E ' 5.5.' D ' @.' D D  .r.7.7.j.,.Q W W Q Q Q E E E ~ ~ ~ ~ Q ~ ~ ~ Q Q Q Q Q [ [ [ [ [ o.O.X.[ O.O.O.X.O.+.{ ( ( ( K ( { [ [ [ [ [ X.o.o.X.X.X.O.+.f.h.f.d.5.O.[ [ [ [ [ X.[ [ [ [ [ [ X.X.X.[ [ [ [ [ X.o.X.X.X.X.X.[ X.X.X.X.[ | | | | [ [ [ [ [ [ [ [ [ [ [ [ 5.A.5.Z.`.@XJ...) ) ) #.#._ h f h C ) ( ) [ [ ( ( Y ) Z.L.S.{ ( h h h ) L L k 8 k q.V._ u y u s u k ..q.l 6 6 s ) q.J.L.`.J.Z.{ ' 5.7.@.D D D D ( Z.+XZ.) ( ..e.#._ ) ..@.( C C D S S S D D D D D D D D D D D D D A A D D S S S S N D D D N V V V S S S S D 7.L.e.( { 6.] D J S H H S S A A A D S S Z B B B B N N N N N N N N N N N N N N N Z N N N N N N N g I q.S.'.*XvXvX*X@X+X'.'.J.q.I u 9 9 9 > > > 6 > > # > > # = = 7 y ) e.@.[  .h.`.`.8.} | ,.,.| W D N p y y 0 0 q q p n A J } } | :.2.g.N.).XX&X&X-XuX-X-X&X&XXXK.5.( p w w r r r r r q q q q q i i i i i i r r r r r r r r r r 0 i B ..6.6.] g t r r 0 1 1 1 3 r 3 r 3 3 3 1 ; ; ; ; 1 ; ; ; ; ; ; 1 ; ; ; ; 1 1 1 1 1 1 1 1 < ; ; ; - - - - - - - - = - - - - - - - - - - - , , , , , , - - : - - - & & & & - & & & - - - - - - & & & & & & & & & & ",
"&.*.*.*.*.2.2.2.&.^ ^ ^ ^ ^ ^ ^ ^ &.*.2.2.>.&.^ &.&.&.2.2.4.c.m.N.c.4.3.>.*.>.4.K.&XuX*X*X*X*XjXvXnXnXnX+X#.' W W W J J J J W W J J W W ~ ~ ~ ~ W W W W J J J W H H H H J H H J W | :.:.~ S S W | | | W J J J J J W ~ } W J J J W } } W J J J J J J J J J J J J J J J J J J J J J J J J J J J W W J J J J J J J J J J J J J J J J J J J J J W | 1.1.,.| [ 5.f.5.Q E W W O.O.[ ' ( ' D D D  .5.O. .O.| W W W ~ ~ Q Q Q E ~ ~ ~ ~ Q W W W Q Q Q Q Q Q Q Q Q Q Q o.+.o.1.f.g.g.d.5.{ { ] P C C ( ) [ [ [ [ [ [ X.X.[ X.5.A.h.5.O.O.5.d.+.[ [ [ [ [ [ [ [ [ [ X.f.A.f.X.[ [ [ X.X.X.[ X.X.X.X.[ [ [ [ [ [ [ [ | [ [ [ [ [ [ [ [ [ [ [ [ [ 5.A.A.@XjX@X#.h f f f h g d f h ) [ [ [ [ [ ( Y Y ( ..Z.G.7.{ X.#.{ ) ) g k u 6 k _ ..) l l l l l l l l 8 8 d _ J.+XL.H.Z.e.e.7.{ { e.Z.] D D D ' Z.Z.] D { #.Z.q.q...) P D D D A D D A A D D D S S S S S Z Z A A D D D D N N S S N N N N S S S S S D D S ( Z.J...C (  .' J S S S S S S A A B D S Z A B B B N N N N N N N N N N N N N N N N N N N N N N B K ` P.gXvXnXvX-X&X+X`.`.J.L.`.+XG.0.k 9 8 8 6 8 8 # # # # # # 6 > 9 l #.e...' ' O.H.).8.:.,.,.,.| E D D ' { ( B f B N N Z J U } } :.2.4.c.).XXXX&X-XuXuX-X&X&X{.K.f.{ A e q q q r r r r r r r r r r r r r r r r r r r r r r r r 0 0 0 p P ] ] L p r r r r r r r r r r 0 3 1 1 1 1 1 1 ; 1 1 1 1 ; ; ; ; ; ; ; ; 1 1 1 1 ; ; 1 1 - - - - - - - - - - - - = - - - - - - - - - - - , , , , , , , , : : - - - - & & - - & & & & - - - & & & & & & & & & & & ",
"*.*.*.&.&.&.*.*.*.^ ^ ^ ^ ! ! ^ ^ ^ &.&.*.^ ^ ! &.&.>.2.2.<.2.4.s.s.4.>./ ^ >.c.{.{.`.A.7.5.7.Z.H.L.%XvXkXL.@.W J J J J W W W W J J J J J J J W J J W J H H H H H H H H H H H H W ~ | } | W W | ,.,.} W J J J J J J J W J J J J J H J J J J J J J J J J J J J J J J J J J J J J J J J J J J W W W J J J J J J J J J J J J J J J J J J J J J E W [ | [ E ' 5.5. .E E W W [  .,.O.[ ' W ' ' ' ' W W W W W W W ! ! E Q E E Q Q E Q ~ W ~ W ~ ~ ~ ~ Q Q Q Q Q Q Q Q [ +.g.j.H.K.H.h.@.' ( ( C D ( [ [ [ [ [ [ [ X.X.[ O.f.7.{ Y Y Y X.5.5.X.[ 5.h.O.[ [ [ [ X.F.+X@X{.A.X.[ [ [ X.X.[ [ [ [ [ [ [ [ [ [ { ..#.#.{ [ [ [ [ [ [ [ [ [ [ [ [ O.+.f.'.@XJ.) h f f h C g h K ) X.{ ) ( ( T Y Y Y ( #.S.L.7.X.#.A.A.#.( d l k 8 8 _ q...l l d d d d d s y d q.P.+XS...) K ( { 7.7.@.@.@.' D D D (  . .Y [ 7.H.Z._ ....K A A A D A A A A A D D S S S S S S Z Z A A D D D D N S S S N N N N Z Z S S S S Z S P 6.7.] ] ( D J J D S Z S S S A A B A Z Z P ..K B N N N N N N N N N N N N N N N N N N N N N N P V.%XmXmXnXvX&X`.c.4.,.,.@.H.{.`.'.P._ 8 6 6 > > # # # # # # 6 k k l _ .._ ] ] '  .6.h.4.,.,.,.,.| W W ,.H.K.H.7.7.5. .J H J J } :.2.8.c.).).XXXX&X-X-X&X&X{.`.H.7.{ A y q q q q r r r r r r r r r r r r i i r r r r r r r r r r 0 0 0 r p a a p r r 0 1 1 r r r r r r 0 3 1 1 1 1 1 1 ; 1 ; ; ; ; ; ; ; ; ; ; ; 1 1 1 1 ; 1 1 1 - - - - - - - - - - - - = = - - - - - - - - - - , , , , , , , , : : - - - - & : , , & & & & - - - & & & & & & & & & & & ",
"*.=.&.&.&.&.=.*.*.^ ^ >.>.^ ~ ~ ! ! ! &.*.&.^ ^ &.&.&.&.*.*.3.s.N.).).c.4.4.N.[.).c.1.[ W W W ' ' { e.L.*X@XH.} J J J J W W W W J J J J J J J H J J J J H H H H H H H H H H H H J W W } W W W ~ | ' W D J J J J J J J J J J J J J S S J J J J J J J J J J J J J J J J J J J J J J E E E E E W W W W J J J J J J J J J J J J J J J J J J J J J J E S S S E ' [ E E E E E E | 5.5. . .O.5.,.| [ ' W W W ~ ~ W ! E Q E E E Q Q Q Q Q Q ~ ~ ~ ~ ~ ~ Q Q Q Q W Q Q Q Q o.g.K.).K.K.K.h.{ ( ' ' ' [ [ [ [ [ [ [ [ X.X.X.O.5.[ V V V V Y X.+.[ O.K.L.5.Q [ [ [ Z.+XL.Z.A.K.5.[ [ [ [ [ [ [ [ [ [ [ [ [ X.#.S.L.+X+XL.A.O.[ [ [ [ Q Q Q [ | [ [ [ { #.#.#.@.{ h C ) ) ( ( ) ) ) ( T T T T T Y Y ( #.Z.L.Z.#.f.f.f.#.( g l l u 8 _ _ _ u 9 9 9 y y y 9 9 l J.@XS.) g y f f C { 7.@.( P D D ( P P ] 7.#.7.7.#.) C C K A A A A A D V V V V D N S S S S Z S N N B B D D D D N N S S S S N N Z Z Z Z N N Z N A ' @.@.7.@.D S D S S S S S S A A A Z A A ..J.] B A N N N N N N N N N N N N N N N N N N N N P S.gXmXFXFXvX@XH.2.*.~ W E  .L.+XH.Z.G.q.s > > # # # # 6 6 6 6 8 l _ ) ) l h L P (  .,.4.2.,.,.,.,.| W [ h.`.&XXX{.`.`.h.,.} ~ ~ ~ :.2.4.c.)._.XXXXXXXXXX{.).H.7. .' B p q q q q r q q q q r r r r r r r r 0 r r 0 0 0 0 0 r r r r 0 0 7 0 0 r r r 0 0 0 7 1 3 3 3 r r 0 0 3 ; 1 1 1 1 1 1 1 ; ; ; ; ; ; ; ; ; ; ; ; 1 ; ; ; ; 1 1 - - - - - - - - - - - - - - - - - - - - - - - - , - , , , , , , : & & & - , , : , - - - & : : , & & & & & & & & & & & & ",
"&.&.&.&.&.&.*.&.^ ^ ^ >.>.^ ~ ~ ! ! ^ &.^ ^ ^ &.^ ! &.&.&.*.3.z.m.).).).c.m._._.c.,.| ' T D D N A D T { Z.`.`.6.~ J J J ~ ~ ~ ~ J ~ ~ W J J J J J J J J J J J J J J J J J J J J H J J W J J J J D D D D D J J J J J J J J J J J H J J H J J J J J J J J J J J J J J J J J J J J J J J J J W W ~ W W J J J J J J J J J J J J J J J J J J J J J J E S S J E E E E E E E E E E [ ,.6.6.5.,.[ | O.O.| W W ~ W W ! E E E E E Q Q Q Q Q ~ ~ ~ ~ ~ ~ W W Q W W W W Q Q Q Q +.h.H.c.j.A.5.[ T W ' [ [ [ [ [ [ [ [ [ | X.[ X.[ Y Y Y V V Y [ o.[ [ +.+.[ W Q Q X.A.G.#.Y Y O.1.[ Q [ [ [ [ [ [ [ [ [ [ { Z.+XgXgXgX*X@X+XJ.@.[ [ Q Q Q Q [ Q W W ' ' Q T O.A.7.( C Y ( ( Y ( ( Y [ [ W W T T Y Y [ 7.f.A.A.A.f.@.7.e.#.l u u s 8 l _ l 8 6 = = 6 6 6 6 6 l S.S._ d y y y y f B ] { P A D D ( ( D ( e.L.Z.7.( A V V D D D A A A D A V V V N N S S S S S S N B B B A D D D N N S S S S Z Z Z N Z A N N N N N ' 5.Z.H.7.P D D Z Z Z S S D A A Z Z Z A ] 7.] B B N N N N N N N N N N N N N N N N N N N B e.gXmXmXnXjX@XH.>.^ E J S S ' 7.7.) { #.#.l 6 = 6 6 6 8 8 8 6 8 k l ) ) L u y g C ] 5.5.1.,.5.5.5.,.| W W 4.).XX&X&X&XXX).H.8.:.~ ~ ~ :.4.c.c.).).).).).K.j.5.O.' B p i w 0 r r r r r r r r r r r r r r r y p a a f f p p e p q q 0 0 0 7 7 7 0 0 r r 0 0 0 0 0 0 0 0 0 0 0 0 ; ; ; 1 1 1 1 1 ; ; ; ; ; ; ; ; ; ; ; ; ; ; ; ; ; 1 ; - - - - - - - - - - - - - - - - - - - - - - - - , - - , , , , , : : & & - - : : , , - - & & , , & & & & & & & & & % & & ",
"2.2.2.:.:.:.&.^ ~ ~ ~ ^ ^ ! ! ! ! ^ *.:.*.>.2.2.2.&.^ &.&.&.*.>.>.3.4.4.s.c.).c.4.| ,.| D Z N N N N Z S ' 7.H.,.~ J J J ~ ~ ~ ~ ~ } } } ~ J H J J H H H H H H H J J J J J J J J H H H H H H H H H H H H J J J J J J J J H H H J H H H H H H H H J J S S S S H H J J S S S S H H J J J J J W } } } W J J J J J J J J J J J J J J J J J J J J J E E E E E E E E E E E E E J J J '  .| ' '  .h.H.H.5.[ W W W W E E E E E E W W E E E E E E E E E W W W E E W W W E Q Q [ o.O.o.X.X.[ Q W W [ | | [ [ [ [ [ [ | | o.O.X.Y Y C C C C C Y [ X.X.X.@.[ Q Q Q O.f.d.[ V V T [ [ Q [ [ ) [ [ [ [ [ [ [ Z.%XkX%XG.Z.q.Z.H.L.H.@.[ Q Q Q Q Q Q Q W W W Q Q @.H...Y C Y [ X.{ [ ( ( O.{ [ [ W W T T [ O.#.f.h.f.@...Z.H...l k u l s s l z 8 6 = # # # 6 6 6 s _ ` l y y 9 y l K g C ( C C C P D D C P ..r.e.7.] D D D D D D D D D A A V V V Z Z Z A B B Z Z N N N N N N N B B B B A A A A Z Z Z A A N Z N N N N ( {  .( D D S D D D S A A A Z Z Z A N B L B B B B B N N N N N N N N N N N N N N N N N K J.jXvXgXP.L.h.| E D S N N B Y { @.X.) ) ` l 6 6 6 6 8 d u y 9 y u d l L l y y f K @.H.Z.h.A.L.L.K.7.:.~ ~ 2.N.XXXXXX&XXXXX_.c.4.:.J J ~ :.2.4.c.c.c.h.8.,.| D N p e w i i r r r r r r r r r t u u k u l _ ..#.7.7.7.5.,.,.} ' S N p r q y a l L ) ] ] D n e e e p n p i w 0 0 1 1 3 1 1 ; ; ; ; ; ; ; ; ; ; ; ; ; ; - - - - - - - - - - - - - - - - - - - - - - - - , , , , , , , , - - - - - - - - : , - & & & : , : : : & - - - - & & & & & & & & & & & & ",
"*.2.2.:.&.&.~ ~ ~ ~ ~ ~ ! ! ! ! ! *.>.2.>.2.4.4.2.*.*.*.*.*.*.*.&.*.<.4.s.c.!.c.,.} ' D Z Z A B N N Z Z D ,.6.} ~ J J J J J ~ ~ ~ } } ~ W J H J J H H H H H H H J J J J J J J J H H H H H H H H H H H H J J J J J J J J H H H J H H H H H H H H J J J S S S H H J J D S S H H H J J J J J W } } } W J J J J J J J J J J J J J J J J J J J J J J E E E E E E E E E E E E J J J D J E W | 7.7.5.5.,.[ W W W W W W E E E E W E E E E E E E E E E W W E E W W W W E W W Q Q Q Q Q Q Q Q ~ W Q Q Q Q Q Q Q Q | | | +.5.X.Y Y C C ( C C Y _ #.V.G.P.S.` [ Q [ 5.5.X.[ [ [ [ [ [ [ [ [ [ [ [ [ [ ( @.L.jX%XL.` h f V ) 7.H.7.[ W Q Q Q Q Q Q Q Q Q Q [ O.5.{ Y Y ( [ O.{ ( T ( [ [ #.X.[ W T T ( [ X.@.#.#.@.@.e.#.I u u k l k 6 8 8 6 6 6 # + 8 k s 8 s l l g y y y l ..@.K C K C g C D D C A C D ' ] ] P D D D D D D D D D D A V V V Z Z Z A A A A A N N N N N N B B N N B N Z A N N N Z Z N B N N N N N N B B B D D S D D D A Z A A A Z Z Z N N N N B N B B N N N N N N N N N N N N N N B N f ) F.+XL.q.) [ ' D V B N p y f K { @.{ C h _ l 8 s s s 8 s s u d d s y g g d y f g ) Z.L.J.`.*XjXuX&XH.2.^ >.c._.XXXXXXXXXX_._.c.2.~ G G J ~ &.&.:.} } } W D N p e w i i i i r r r r r r r r 9 k I 0.q.S.P.+X@X*X&X&XOXXXXX_.).c.4. .D B I ..S.J.L.+X`.`.7.:.J S Z G G A A n w 0 1 1 3 1 1 ; ; ; ; ; ; ; ; ; ; ; ; ; ; - - - - - - - - - - - - - - - - - - - - - - - - , , , , , , , , , , , , , , , , : - - & - : : , , : : & - - - - & & & & & & & & & & & & ",
"*.*.*.&.&.^ ^ ~ ~ ^ ~ ~ ! ~ ! ! ~ ! &.>.*.>.:.>.:.*.&.&.^ ^ ^ ^ *.4.c.).!.c.c.4.| ' D Z A P U D A A S '  .,.,.} J J J J J J J J J W ~ ~ ~ ~ J H J J H H H H H H J J J J J J J J H H H H H H H H S H S S J J J J J J J J H H H H H H H H H H H H J J S S S S H H J J S S S S H H J J J J J W } } } W J J J J J J J J J J J J J J J J J J J J J J J J J J J J J J J J J J J J J J J E W  .5.{ T T W W W W W W E E E E E E W E E E E E E E E E E E E Q Q E ~ ~ W ~ W W Q Q ~ Q Q Q Q ~ ~ ~ Q Q Q Q Q Q Q Q Q | | o.O.X.( C C ) { ( ( #.P.R.gXkXcXjXR.e.[ Q [ +.+.[ [ [ [ [ [ ) ) ( ( [ [ [ [ ( #.+X+XG.A.) h f f f ) 5.7.{ Q T Q Q Q Q Q Q Q Q Q Q [ O.{ [ { O.X.[ [ W W [ [ #.L.Z.[ Q W T Y [ ( [ @.@.@.@...K d y 8 8 k s 8 6 6 6 8 6 # # s I l y d ) ) d y y a K @.@.] { { C f B P P D C D C C D A A D S D D D D D D D D D V V V A A A A A A A A B B N N N N Z Z Z Z A A A A A A N Z Z N N N N N N N N N N B A Z A A A A A Z N Z Z Z Z A Z N N N B B N N N N N N N N N N N N N N B B B N C #.K.F.#.K f f f f y y p p y y g ) ..#.) h ) ) h l ) _ l y s d d y y g l g h h C ) 7.L.`.L.@XnXCXvX&XK.4.2.c.XXXXXXXX_._.).c.8.2.&.G G G ~ &.! H H Z Z N n e w w 0 i i i r r r i r r r r r r u _ S.R.kXcXmXmXnXvXvXuX-X-XXXXX.X).c.8.5.Z.P.gXkXnXnXvXuX-XXXc.,.:.%.:.:.:.U S n 0 1 1 1 1 ; ; ; ; ; ; ; ; ; ; ; ; ; ; ; - - - - - - - - - - - - - - - - - - - - - - - - , , , , - - , - , , , , , , , , : , & & - - - , , - & & - - - - & & & & & & & & & & & & ",
"2.2.*.&.^ ~ ~ ! ! ! ^ ~ ~ ~ ! ! &.^ &.&.&.&.&.&.&.^ &.^ ^ ^ ^ ^ *.4.c.).).c.s.>.W W D Z D ' ' J J S S W }  .} J J J J J J J J J H H J ~ ~ ~ ~ J J J H H H H H H J J J J J J J J H H H H H H H H S S S S J J J J J J J J H H H H H H H H H H H H J J S S S S H S J J S S S S H H J J J J J W } } W J J J J J J J J J J J J J J J J J J J J J J J J J J J J J J J J J E E J J J J J E W W [ D V S D T W W W W E E E E E E E E E E E E E E E E E E Q Q Q Q ~ ~ ~ ~ W W Q E E T T E Q ~ ~ Q ~ ~ ~ Q W W W W Q Q Q [ [ [ [ Y D ( { ( q.R.nXnXkXgXgXkXjX@XZ.[ Y [ [ T ( _ 0.q.V.V.q.` ) [ [ [ [ [ 7.L.7.{ { C h y y f A [ @.{ [ W Q Q Q Q Q W W Q Q Q [ o.O.O.5.5.O.T T W ' [ O.H.F.#.[ W Q Q [ [ Y [ ..@.{ { ( l l k y 9 9 8 8 8 9 y 8 6 6 6 d l l g d ) K d g K K ) { ..@.7.#.P f B ( ( ( P P D D D A S D D D D D D S D D V V V V V A A A A A A A A A N N N N N Z Z Z Z A A A A A A N N N N N B N N N N N N B N N N A A A A Z N N Z Z Z Z A Z Z Z N N N N N N N N N N N N N N N N B B B B B ] Z.K.L.A.) C y y a y y y y y a g ) e.J.#.) ) #.) ) ) ` _ K l K l g h g g K K C ( @.A.H.H.J.@XvXvXuX+XH.4.9.).XXXX_._.c.8.8.:.:.J G G G &.:.:.:.J Z b b e w w w i i i i r r r r i i r r r t z 0.P.kXmXGXLXGXGXCXvXuX&XXXXX_._.!.c.h.J.+XjXmXGXGXGXFXCXvX-XXX).8.:.:.;.2.:.:.J Z b 0 1 3 1 1 ; ; ; ; ; ; ; ; ; ; ; ; ; ; - - - - - - - - - - - - - - - - - - - - - - - - , , , , , - - - , , , , , , , , - - & & & & - & - - & & & & - & & & & & & & & & & & & & ",
">.*.&.^ ! ! ~ ~ ! ^ :.^ ~ ~ ~ ! &.^ ^ ! ~ ! ^ ^ ^ ^ *.>.*.^ ^ ^ ^ >.4.c.).c.4.>.| Q W E J D D S S Z N Z S J J J J J J J H J J J J J H J J J J J J J J J H H H H S S H J J J S S H S S S S S H S S S S S S S J J H H H H H H H H S S S H H H H H S S S S S S S S S S S S S S S S S S S J J J W W W J J J J J J J J J J J J J J J J J J J J J H H H H J J J J J J J J J J W W W W J J J E T D S D T T W W W E E E E E E E E E E E E E E E E E E E E E E E E W W W W W E E T T Y T E E E E E Q Q Q W W W W Q Q Q Q Q [ [ ' T [ { #.R.nXjXR.S.q.q.S.R.@X+XZ.[ ( ( ` S.P.gXkXcXkXjXR.G.#.[ [ [ [ 7.j.O.W C f y y f f V ( O.[ Q T Q Q W W Q Q Q T T T T [ o.,.5.5.' T W W T [ X.f.@.[ Q T Q Q [ [ Y ) ....{ ) K ) q.q.l y t l l d y t y 9 9 u g g h h l _ _ _ q.e.7.#...#.@.#.@.P C P ( ) ( ( P D D D D D D D D S D D D D V A S Z Z Z B B B B N N B B A A N N N N A Z N N N N N N N N N N N N B C D B B B B N N N N N N N N N Z A N N Z Z Z Z Z N N N N N N N N N N N N N N N N N N N B B f C { 7.h.A.#.( K l a u a u r 9 y y f K #.q...( ) #.) l h ) #.e.Z.Z.#.` ) ) h h h K { @.{  .O.h.`.&X&XXX`.c.c.c.!._._.!.9.2.:.G G G G G G G :.8.8.:.J Z b e w 0 0 r r r r r r r r r r r r r k 0.P.hXmXKXLXLXLXLXFXCXuXOX[.!.c.9.9.2.7.P.jXGXLXPXPXLXLXGXCXuX&X_.9.2.&.&.&.;.:.:.G m v w 0 3 1 1 1 1 1 ; ; ; ; ; ; ; - - - - - - - - - - - - - - - - = - - - - - - - - - - - , , , , , , , , , , , , , , , , , , , , - - & & - - - - & & & & & & & & & & & & & & & % ",
"^ ^ ^ ^ ! ! ! ! ^ :.&.! ~ ~ ~ ~ ! ! ~ ~ ~ ~ ! ! ^ ^ 2.4.4.2.^ ^ ^ ^ >.>.4.4.4.2.4.4.2.,. .| ' D D S S D J J J J J J J J H J J J H H H J J J J J J J J J H H H H S S S S J J S S S S S S S S S S S S S S S S S S H H H H H H H H H S S S H H H H S S S S S S S S S S S S S S S S S S S H J J W W J J J J J J J J J J J J J J J J J J J J J H H H J J J J J W J J J J J J W } } W J J J D E T T T [ [ W W W E E E E E E E E E E E T T E E E E T T Y E E E E T ( [ { ..' ( T T Y T T E E E Q ~ ~ Q W W W W W W Q Q Q Q [ [ [ { @.L.jXjXG.{ P C C ( { Z.L.L.#.) q.R.cXmXZXZXmXmXmXnXjX+Xe.[ [ [ O.5.[ W A B f f C C C ( O.[ Q T Q Q W W W E T T T T T E Q [ o.[ W W W W T T [ { [ [ [ Q Q Q [ [ ( ( { { { ) ) #.P.e.L u l ....I d d u 9 y y g f f f K q.J.L.'.+XL.7.#.e.#.{ ] C C K P K C C D D D D D D D D S S D A D S V V Z Z Z Z B B B B N B B B A A N N N N A A N N N N N N N N N N N B D @.@.D B B B N N N N N N N N N N N N N Z Z Z Z N N N N N N N N N N N N N N N N N N N N B f f B { @.5.h.#.K K ) l t y 9 7 7 9 u d h l l K ) ) ..) h C { 7.H.L.L.L.J.G.Z.` ( ) X.@.) C B D ,.H.`.).H.c.c.9.c.c.c.9.2.:.G F F F F F G G J :.8.8.:.J Z b e 0 i r r r r r r r r r r r r r u 0.gXmXKXLXPXPXLXLXGXFXvX&X_.c.9.2.:.} r.@XmXKXPXPXPXPXPXGXFXvX&X_.Q.2.&.$.$.$.$.%.%.G F m b 0 0 1 1 1 1 1 ; ; ; ; ; ; ; - - - - - - - - - - - - - - - - = = - - - - - - - - - - , , , , , , , , - - - , , - - - , , , , - - & & - - - - & & & & & & & & & & & & & & & & ",
">.>.2.2.&.! ! ~ ~ ~ ! ~ ~ ~ ~ ~ ! ! ^ ^ ^ ^ ! ! ~ ! &.2.4.2.^ ! ~ ~ ~ ^ >.>.>.| ,.2.,.4.8.,.5.,. .} | :.,.} J J J J J J J J J H H J J W } } W J J J J J H H H H S S S S J H S S S S D P D D ' ' J S S S S S S S S S S S H H H H } } H S H H H H S S S S S S S S S S S S S S S S S S S H J J W W J J J J J J J J J J J J J J J J J J J J J J J J H H J H J ' W J J J J J W } } W J J J J D T W ' [ | ' W W T T T E E E E E E E E T T T T E E E T Y E E E W ( #.S.L.L.Z.#.[ T Y Y E E E E Q | Q W W W W W W W W W W W Q Q [ [ #.+X*XL.) C B B B f f K #.A.f.q.R.mXZXcXgX%XR.R.R.R.@X*X+X7.[ ( [ O. . .' D A C Y C C (  .[ T T Q Q W W W T T T T T T T T T E E W W W T T T [ [ O.5.o.Q Q T Y ( { C C ( { @.....q._ l B ) ....) l L l y y h ) ) g ) S.'.L.H.J.+XL.f.#.Z.7.] P C C g f f g B B D P ' P D D D A A A A Z Z V V N N Z Z Z N Z Z Z Z B B A Z Z N N B B A N N N N N N N N N N N B ] 7.@.( A B B N N N N N N N N N B N N N N Z Z Z N N N N N N N N N N N N N N N N N N N N N f f g ( [ O.5.O.C C K u y 9 6 > 9 t g l l d l _ q.) ) l d l #.H.`.+X@X@X@X+X`.A.f.f.f.X.C y q B  .7.8.8.4.4.8.9.9.9.2.:.J H F m m m m Z F G J :.8.8.:.J Z b e w r q q q 0 0 r r r r r r r r l S.kXGXLXPXPXPXLXLXFXvX&X_.Q.9.:.:.' #.@XmXLXPXIXIXPXPXLXFXvX&X.X!.9.:.$.$.G G $.$.$.G F m m e 0 1 1 1 1 1 1 ; ; ; ; ; ; - - - - - - - - - - - - - - - - - - - - - - - - - - - - , , , , - - , - - - < r r < - - - , , - & & : : : : & & & & & & & & & & & & & & & & & & ",
"4.4.4.8.:.~ ! ! E E ~ ~ ~ ~ ~ ~ ! *.:.>.^ ^ ^ ~ ~ ~ ~ ~ } ~ ~ ~ ~ ~ ~ ~ ~ ~ ~ W W ~ ,.8.8.,.8.6.| ' ' }  .' J J H J H H H J J J J W } :.,.,.} J J J J H H H H H S S S S J J S S S  .7.H.7. .,.6.} S S S S S S S S S S S H H H J } } H S H H H H S S S S S S S S S S S S S S S S S S S H J J W W J J J J J J J J J J J J J J J J J J J J J J J J H H S H } 6.6. .J J J J W ~ ~ W J J J D D D D T W ' T W T T T T T E E E E E E E T T T T E E E E E E W W ' 7.+X*X+XL.L.L.#.[ T Y T T E E Q o.^ ~ W W W W W W W W W W W W W T @.L.L...C f f f f f f f ( 5.F.P.cXmXgXP.q.#.{ { { X.#.H.{.L.@.( W  .O.5.5. .{ [ ( T T T ' T T T Q W T E E T T T T T T T E E E E E E T T T T ' [ [ O.[ T Q T Y ( { ( V C ) ..) ) K C K ( ] ) ( P ] @.) g h ..H.Z._ q.'.L.q._ Z.+XL.#...#.#.) C C C f y y f B B D '  .' D D D A A A B Z Z V V V Z Z Z Z Z Z Z Z Z B B A A Z N N B A A N N N N N N N N N N B B ( 7.7.@.' N B N N N N N N N N N D D N N N N Z N N N N N N N N N N N N N N N N N N N N N N f f f C B ' O.[ C C h y 9 7 9 8 d d d l g d g ) ) l g d s h { f.K.{.+X+X`.L.J.K.L.L.f.[ C f q B { 5.,.} } } :.:.:.} } J Z Z n b b m m n m A J } :.:.} H Z b e w r r r r q q 0 r r r r r r r l q.gXmXKXLXLXLXLXFXnX*X{.!.9.:.:.~ ' S.gXKXPXPXIXPXPXLXGXvX&X.X!.9.2.$.G F F F G G $.$.G F m n w 0 1 1 3 1 1 ; ; ; ; ; ; - - - - - - - - - - - - - - - - - - - - - - - - - - - - , , - - - , < < r t y y t r r < - - - - & & & : : & & & & & & & & & & & & & & & & & & & ",
">.>.:.:.! ~ ~ ~ E ~ :.>.^ ~ ~ ~ ~ ~ ~ ~ ~ >.4.c.2.^ ~ W W W ~ ~ W W W ~ W W W W W W | :.| | } ' W E J W W J J W J H H J J J W W J J W ~ ~ ~ J J H H H H H H H H S S S S S S H H ' 6.`.`.`.7.| } J S S S S S S S H H S S S S H H H H S S S S S S S S H H H H S S S S S S S S S S H H H H J J J J D D D D J J J J D S S S S S H H H H S S S D S D S S S J 6.H.H.6.' D J D J W W W H H S S S S D D D D D E T T T T Y Y Y Y E E E E T T T T T E E E E E E E  .J.'.S.#...#.7.A.X.T Y T T T E Q ~ ~ W E E E E W W W W W W Q Q Q T { A.#.K f y f y f f f h Y f.+X*XnX%XV.` ] ) Y Y Y Y Y { 7.K.7.' T [ O.7.H.j.h.5. .[ T T T T T T T T E E E E E Y Y E T T Y Y E E T T T T T W [ [ [ | Q E W T T ( { { C B C ) ) ( C C ( {  .' Y ( { @.{ [ [ f.`.H.` Z.L.q.) ) ..q._ K K ] ) ) C C C f y a B B C C ' ..' D D A A A A A N N B A A A A Z N N N N N N N N N N N N B B B B N N N N N N N N f f N N B { #.7.] B N N N N N N N N N N A N N N N N N N N N N N n n n n n N n n n n n n n n n N p p f f y e K @. .) g y y 9 9 y g g d y d g d d d d d d d f d C #.A.L.{.L.f.@.O.H.{.K.X.( [ D N V '  .' D B A P D A A A B n p p i i i i p n B A G J J J A N p w q r r r r r r r r r r r r r 3 t z S.gXkXcXmXmXvXjX@X`.c.4.>.} W H D q.%XmXKXKXKXKXFXnXvX&XXX!.z.2.&.G F F m m F F G %.%.J G M b i i r 3 1 3 ; ; - ; ; ; - - - - - - - - - - - - - , , , , , , , , , , , , , , , , - - - r u L L L L L f a y t r > - = = - - - - & & & & & & & & & & & & & & & & & & & & ",
"^ ^ ! E ~ ~ ! ~ ~ ^ 2.4.:.~ ~ ~ ~ E ~ ~ ^ >.c.c.4.| ^ >.| ~ ~ W W W W W W W W W ~ W W W J S S S S J J J W ~ } } } ' H H J J W W J J J J J J J J H H H H H J J H H S S S S H J J J  .r.J.H.5.' ' } J S Z S S S S H H S S S H H H S S S S S S S S S S H H H H S S S S S S S S S S S S H H J J J J J D D J J J J D D S S S S S D S S S S S S D D T D D D D ' ..,. .| J S J J J W W ' J S D ' J D D D D D J E E T T T T T T E E E E T T T T W  .O.' E E E W O.H.7.( ( 5.5. . .) Y ( T T T E E E ! ! E E E E W W W W E E E W W W [ @.{ P B g B B C ( ) ) [ Z.@X*X+XV.) ( D K D C C C C C ) 7.f. .T T | 5.H.H.H.h.O.W T T T T T T T T E E Y T Y Y Y E T T Y Y T T T T T T T T ' [ | | Q W W W [ [ ( ) D A C { @.{ [ [ ' [ O.[ T D ' [ { +.+.f.#.{ { f.7...) h l l u d g K ) ] K g g f f f B C C C ' ..] D B B A A Z B N N B B A A Z Z N N N N N N N N N N N N B B B B N N N N N N N N N N N B N C ..Z.@.B N N N N N N N N N N N N N N N N N N N N N N n n n n n n n n n n n n n n n n p p f f y e B { { ' g y h g y y g d y y d h d d f d d h g f f h X.j.K.XXXXA. .[ f.H.5.( 5.7.O.' T ' ' D f f g g a a a p y t r r 9 < < 9 t i i p B B A A B N y q r r r r r r r r r r r r r 3 3 r t l 0.w.S.S.S.J.J.H.7.8.:.} W S Z B ) S.P.gXgXgX%X@X@XXX).N.4.2.~ H M v v v v m F G %.:.:.J S m n i r 3 3 3 ; ; ; ; ; - - - - - - - - - - - - - , , , , , , , , , , , , , , , - & - < u I ..7.e.7.7.@.] B a y r < - = - - - - - & & & & & & & & & & & & & & & & & & & & ",
"~ ~ E ! ! ! ! ~ E ~ | | ~ W ~ ~ W ~ ^ :.:.>.:.| ^ ~ :.4.2.:.~ W W ~ ~ W W W W W W W E W W W E E E J J W W ~ | } } ' J J J J W W J J J H J J J J H H H H J } } J S S S S S S H H D D '  . . .| ,.7.6.' S S S S S H H S S S S H H S S S S S S S S S S H H H H H H S S S S S S S S S S S H J J J J J E W W E J D D D D S S D D D D D S J S S W 5.5.O.' T T E | 6.6.6.} J J J W '  .7.6.[  .5.,.' D D D D D J J T T T T T E E E E E E D D T [ 7.f. .W E W W  .,.W D [ 7. .' [ X.#.7.7.@.T T E E ! ! E E E E E E W E T E E E E T [ { { { ] K ] { ] {  .O.[ 7.L.L.f.X.( C C B C C B f g f C { 7.@.( T W | 5.h.j.h. .T T T T T T T T T E E T T Y Y Y Y T T T T T T T T T T T T T T [ [ W W W W [ [ Y Y C V C { Z.@.{ {  .| [ ' Y Y [ [ { f.f.@.Y V [ @.{ ] K d d u u g h K K ] K g h g f B B B A A D ( P B B B A N A B N N N B N N Z Z N N N N N N N N N B N N B N B B N N N N N N N N N N B ] ] A P @.] A N N N N N N N N N N N N N N N N N N N N N N n n n n n N n n n n n n n n N N n p p f f y y P @...K g { ..) K C C h h C C h h h h f h h h C ) +.j.K.XXXXH.5.5.5.O.D ' h.K.h.@.[ ' ' D C B l l g u y r 9 9 6 > > > = = > 9 t a a B B B B B f p r r r r r r r r r r r r r 3 r t a g l k d l K {  .,.:. .} W S Z N N ( ] ..0.0.0._ #.7.h.8.,.} W A n i w i i i m F G J :.:.:.H A m i r 1 3 1 ; ; ; - ; ; - - - - - - - - - - - - , , , , , , , , - - , , , , - - - ; u ] e.e.r.r.r.r.e.@.( B a t < - = - - - - - & & & & & & & & & & & & & & & & & % % & ",
"E ~ ~ ~ E E ~ ~ E E E E E W ~ ~ ~ ~ ~ ^ | ~ E E ~ ~ ^ :.,.| ~ ~ | | | | ~ W W W W J E ~ | :.:.} ~ W W W ~ ^ ~ ~ ' W H H H J W W J J J J J J J J H H H H J J J J S S S S S S S S S D Z S S S ' ,.6.6.} S S S S S H H S S S S H H S S S S S S S S S H H H H H H H S S S S S S S S S S S H J J J J J E W W W E J J D D S S D D D D S S D D W 5.K.H.A.5.' E E W |  .} W J J J J ' 7.J.Z.,. .O.5.[ D D D D D J J E T T T D J J W W W J J D W [ { { ( T W W W |  .W D T ' D T @.H.J.H.H.H.7.[ E E ! E E E E E E E E T T T E E E T [ O. .{ ) { @.{ ) ( [ [ [ 5.Z.5.O.[ ( C B B B K K C g f f ( @.@.' T T T ' [ [ [ W T T T T T T T T T E E Y Y Y Y Y Y T T T T T T T T T T T T Y T Q W W W W ' [ [ ( ( ( Y A ( { ) ( [ ,.O.O.[ Q [ O.+.{ @.7.{ C V [ { ) K d y y a a g K ] ) ) ] ] ( g f N f f f N f N N B B B B N A A N N N N N N N N N N N N N N N N B B N N N N B B N N N N N N N B B L @.H.7.] ' [  .D N N N N N N N N N N N N N N N N N N N N N N n n n n N N N n n n n n n N N N p p p B B p q p ( ] ( ( { O.{ @.#.7.#.7.@.[ Y ) Y h C ) #.f.Z.K.Y.{.U.K.K.`.{.L.7.T V [ Z.K.H.5.[ ' ( P P ) L l l u t 9 6 = = # # # # # > 9 u a a g B B B B B y r r r r r r r r r r r r r r t K L I L g g g P ]  . . . .} ' S N N D ' { ] K g f f B P ' T D N f p r r r r r r p m G U U } U J G B p r 3 3 1 ; ; r r ; - - - - - - - - - - - - - , , , , , , , , - - - - , , - - - r L e.H.H.H.H.H.H.r.7.] L a r < - = - - - - - & & & & & & & & & & & & & & & & & % & & ",
"~ ~ ~ E E E E E H H H H W W W W ~ | | ~ ~ ~ ~ ~ ~ ~ ~ ~ ~ ~ ~ ~ ^ | | | W W W W W J E ~ :.,.2.,.| W W | | ~ ~ | } W J H J J J W } ~ J J J J J J H H H H H H H H H S S S S S S S S S S S S S ' ,.6.:.J Z S S S S S S Z Z S S S Z S S S S S S S S H H H H H H H H S S S S S S S S S S S S J J J J J E W W W W J J S S S S S S S S S S W  .7.A.h.@.{ [ T T E E E }  .} W W J J '  .@.@.Z.Z.6.,.' D D D J J D D D D ( P D D ( @. .' D J J ' { ( [ @.[ W W W [ | ' D D D V ' f.H.7...@.Z.J.5.W E E E E E E E E W W T T T E E T E [ 5.O.[ T [ [ Y Y Y [ T [ O.5.O.| ' D B B B P ....) K C V Y O.@.' T T T T T D D T W T T Y T T T T T T T T T Y Y Y Y Y Y Y Y T T Y T T T T T T T T T T T T ' O.O.( (  . .( T ( T T [ O.1.5.5.o.O.1.5.5.5.@.( C [ O.O.) C a y y u a a K { ..{ @.#...K B B f p f f y p f N N B B N N N N N N B B N Z N N N N N B B B B N N N N N N N N N N N N N N N N B ] S.e...7.Z.@.' B N N N N N N N N N N N N N N N N N N N N n n N N n n n n n n n n n n n n n n n p p p p p q q B D '  .[ [ +.j.K.`.{.{.K.h.+.f.+.X.Z.f.A.{.&X&X&X&XXXY.Y.+X*X+XZ.( V [ 7.7.@.[ [ [ C C K ) I l d s 8 8 6 = # # # # 6 > 6 t l l l u a h B B g f p r r r r r r 3 r r r r r r K ] ......] ( ' { @.,.,. . .} ' U D D '  ... .' D C f f f f f y y 9 9 9 9 9 9 9 9 r n m H J U U J A B a r 1 < ; ; < t t r - - - - - - , , , , , , , , , - , - - & & , , , , , , , - ; y ] r.J.J.J.J.J.J.H.7.] B p r ; - = - - - - - & & & & & & & & & & & & & & & & % % & % ",
"~ ~ ~ E H H H H H H H H J W ~ ~ ~ ^ ^ ~ ^ >.:.>.:.| ~ ~ ~ ~ ~ ~ ~ ~ ~ ~ W W E J W E J W | ,.4.2.| ~ | 2.2.:.^ ~ E W ] ....] J ~ ,.,.~ J J J J H H H H H H H H H H S S S S S S S S S H J H S J ' } J S S S S S S S S Z Z S S S S S S S S S S S S H H H H S S S H S S S S S S S S S S S S J J J J E W W W W W J D S S S S S S S S S J O.H.`.K.h.O.W T T T E E } h.H.H.,.W J J J W ' 5.H.7.6.,.' D D D J J D P ] q.S.Z.q.) @.J.r.] D J J T ( T O.7. .W W W W W W D N B D @.Z...K C ( { 7.7.[ E E J E E E E T T T T T T T E E E E [ o.[ T T [ [ { X.[ [ { 5.5.1.O.' D V C ( ....( C C C ( ( {  .' T T T T T T T W [ [ T T T E T T T T T T T Y Y Y Y Y Y Y Y Y Y Y Y Y Y Y Y T T T T T T T T ' { {  . .@.' T [ O.{ [ [ +.d.h.5.g.j.j.h.f.7.) [ 5.5.' C B f y a a y y h ] { ..#.e.#.{ C f p B B f y p p p N N N N N N N N N A A Z Z Z N N N N B B B B N N N N N N N N N N N N N N N N N ] e.@.@.e.7.P N N N N N N N N N N N N N N N N N n n n n N N N N N n n n n n n n n n n n n n n p p p p p p e p L ] @.7.1.+.g.K.{.XXOXXX{.K.j.h.h.L.@XL.K.{.&X&X&X&X&X+XL.F.Z.Z.X.( V ' 5.O.( ( O.O.( f g l l u 8 8 6 6 > # # # 6 8 8 8 u u l l u y t g l h f f a i r r r r r r 3 3 3 3 1 t L @.e.r.7.@.{  .@.5.,... . . . .] ' '  .,.5.O.[ ( C C g f f y y 9 9 9 9 9 9 9 9 7 7 e n N A A A A A B m r r < ; ; ; < 9 < - - - - - , , , , , , , , , , , , - - & & , , , , , , - - r f ] Z.J.`.L.J.J.J.H.6.] B i 3 ; - = = - - - - & & & & & & & & & & & & & & & & O % % % ",
"E G E W W W W H H H H H W ~ } :.~ ~ ~ ~ ~ ~ ^ | :.^ ~ ~ ~ W W W W W W W W W E J E W E W ~ :.:.| ^ ^ >.4.4.,.| ^ W ,.J.`.`.Z.' W } } J J J J J H H H H H H H H J J J H S S S S S S S S H S S S S S S S S S S S S S S Z Z S S S S S S S S S S S S H H H H S S S S S S S S S S S S S S S S J J J J W W W W W W J D S S S S S S S S S | O. .5.7.5.5. .D D T E W ,.H.H.H.6.} J J J J W  .6.,. .| J D D D J D ) q.P.*XjXgX@XS.e.H.e...' T E T T T [  .' W W W W W D V N B P 6.@.K f N B A ' ,.' T E E Y T T T T T T T [ [ W T T Y Y Q O.X.T T O.Z.h.+.X.#.A.A.5.1.o.W Y C ( { 7.@.) ( ( ( ( ( { [ D D T T T T D D W |  .W T E E E T T T T T T Y Y Y Y Y Y Y Y Y Y Y Y Y Y Y Y T T T T T T T T T O.7.5.[ ' ( T { e.7. .| 5.j.K.).`.K.K.H.f.@.{ O.@.X.Y C B f y a y y y h ] { ..#.#...{ C f p B C N p p p p p N N N N N N N N A P A A Z N N N N B B B B N N N N N N N N N N N N N N N N N L #.H.e.{ D N N N N N N N N N N N N N N N N N N N N N N N N N N n n n n n n n n n n n n n n n p p p p p p p y p P 5.`.).N.m.K.XX&X&XXX).K.K.D.h.L.`.Z.Z.A.Z.L.`.L.H.Z...K g f A T D T O.| Y ( O.#.( y y u s 6 6 6 6 6 6 6 6 6 8 s k k k l k u 8 9 y g l g a a a i r r r r r r 3 3 3 1 1 r P @.r.Z.e.5. . . .@. .] ] ] {  . .{  .O.6.5.@.[ ( P C C B B f a y 9 9 9 9 9 7 7 7 7 y y f B B B B B B a i r < ; - - ; ; ; - - - - - , , , , , , , , , , , , - - - & , , , , , - > r f C ] 7.J.J.`.`.`.J.r.@.P p r 1 ; ; = = - - - - & & & & & & & & & & & & & & & & O O % % ",
"~ J | e.S.S.e.} J H H H H J } :.} W W W W E J W W W W W W W ~ } | | ~ W E E J J H E E E ~ ~ ~ ~ ^ | >.,.>.| | | ,.6.H.J.J.7.' E J J J H H H H J H H H H J J J W } } W H S S S S S Z Z Z S S S Z S S Z Z S S S Z S Z Z S S S S S S S S S S S S S H S H H S S S H '  .} J S J ' J S S S S J J J J J W ' ' W E J S S S S S S S S S D } } '  .O.O.O.' D D D S ' 5.6. . .,.} J J J J J W ' W J D J D D D J ' e.@XgX@XP.P.+X+XZ.7.e.r.] D T T T T T T T T T W W T T ( D D ] 7.{ B f f V D T [ W T T E T T T T S T T T  .O.' T T T E ,.h.5.[ [ X.f.5.+.A.L.J.f.,.+.[ W ' ( [ 7.L.J.7...) ( ) { { ( D D T T T T T D T W T T D E J J T T T T T T Y Y S Y T T D D D T T T T Y Y T T T T T T T T T ' 5.@.{ ( ( T D ( @.5.5.O.h.K.`.XX{.).K.K.5.[ [ [ { O.[ ( P C B h f a f C ) { { #.@.) ( B f p p f N N p p p p p N N N N N N N N A Z N N N N N N N N B N N N N N N N N N N N N N N N N N N B P ..] A N N N N N N N N N N N N N N N N N N N n n n n n n n N n n n n n n n n n n n p p p p p p p p p p p p B C { K.XXXX[.K.).XX&X&X&X&X&XL.f.Z...C L L B ( ] P K f p q q e N ' ( D {  .( ( X...( y y y y 6 6 6 6 6 6 6 8 8 8 s d l l l d s 8 6 8 l l u 9 r t r r r r r r r 3 3 3 1 ; r B ..6.7.7.@.[ ' ( ( P P P P ] {  . . .O.5.,. .[ ( C C C C C C f y 9 9 9 9 9 9 7 7 7 y u g g a a p p a i i r ; ; - ; < < - - - - - - - , , , , - - - - - - - - - - - , , , , - - < a P P ( { 6.H.J.J.J.Z.@.P B p 0 1 ; ; ; = - - - & & & & & & & & & & & & & & & & & @ @ % % ",
":.} Z.@XvXvX@X7.J J J J H J J W J W W W E H J E W E E J J J } ,.4.4.:.W E J J H H E E W ~ ^ | >.>.>.^ | ^ ~ | :.,.,.,.5.7.5.' J J W W W W J J H H S S S J J J J J J J H S S S S Z Z Z Z Z S S S Z Z Z Z S Z Z Z S Z S S S Z Z S S H S S S S S S S S S H S S S } 8.7.7.| } ,.5. .J S S S S J J J J | ,. .W J D S S S S S S S S S S J J S W W D D S D D S D ' 7.7. . . .' J J W J J J D D D S D J D D U @.L.@XL.#.) ) ..Z.Z. . . .' D D D D D T T E E W W W ' @.5. .[  .,. .( B B D T ' [ W D D T Y Y Y Y S Y Y T W ' W E E Y W ,.5.f.5.[ ' [ [ 5.H.f.{ [  .[ [ { O. .[ 7.J.7.Z.J.Z...{ @.{ D D D D D T T T T T D T T T T D D E E T T T D T T T T D D T T T T T D D D D D D T T D T T D D [ O.[ { ' ( ( T D Y ' [ [ f.K.`.).`.`.`.K.7.O. .@.7.7.5.@.@.{ ] { P B B C D ) @.7.@.T C C f f p p N N N p p p p p n N N N N N N N N N N N N B B B B B B N N N N N N N N N N N f p n n N N N B B B N N N N N N N N n n n N N N n n n N N n n n n n n n n n n n n n n n n n p p p n p p p p p p p p p p p C P P Z.&X&X&X&XXX{.XX&X&X{.J.#.] P a q q e e e e w q q w q w e p P P B P { ' ( ( ) L t 9 9 9 9 7 y y s d h g d u u g l l l d d s s u u u 9 9 9 r r 3 r 3 3 3 3 3 3 3 1 ; 0 p P { @. .] P A B f f f B B P ( ] {  . . . .' Y C A A C D P L B y 9 9 6 6 6 6 6 9 y u g l g y y y r r r r r ; ; - ; < - - - - - - - - , , , , - - - - - < 3 4 3 < , , , , , , < t B ] ] ] ] { ..6.e.6...P N p p q 0 0 7 ; ; - = - - - - & & & & & & & & & & & % & & % % @ @ ",
":.:.7.+X*X*X`.,.J J J J J J W ~ ~ ~ ~ E ! W ' | | [ E S D D '  .@.O.[ E E E E J J E ~ >.>.>.2.4.4.>.*.^ ~ :.:.,.2.8.5.6.7.7.| W W W W J W J J J S D S S J J J J J H H S S S S S Z N N Z S S S Z Z Z Z S S Z Z Z Z S S S Z Z S J } } J S S S S S S S S S S S S } 8.6.,. .8.5. .' J S S S S S J J J } ,. .W D S S S S S D S S S S S S S Z S S S S S S S S S ' 6.6.,.:.} J J J W J D D J D S D D J D D ' 7.L.S.) B N N B (  . .' D D D D D D D T T W E W W ' 5.7.O.( ' O.5.5.5.[ ' [ ' [ [ W D D D T Y Y Y Y Y Y Y T T T T T Y T W ' { { W T W [ 5.5.' T T ' [ O.5.5.5.O.@.@.{ Z.`.`.#.' ' ' D D T D D T T T T T T T T T T D D E E W T D D D D D D D D D D T T D D D D D D D D T T T T D D T T [ 5.] ( Y D D D Y Y T O.H.K.h.j.`.`.`.`.A.H.H.Z.5.7.7.f.Z.7.7.@.{ ] P D ( 5.Z.@.Y C C f p f B N N N n p p p p p n n N N N N N N N N n n n n N N N N N N N N N N N N N N N N p p n n N N N N N N N N N N N N n n N n N N n n n n N N n n n n n n n n n n n n n n n n n p p p p p p p p p p p p p p y p p f { J.`.+XXXXXXX`.K.e.] L f p p e q e e e e w w w i i i i p p n B p B {  .( g g u 9 9 9 y u g h ( ( ) ` ` ) K K ) ) ) ) l h d d s 8 8 u l a r 0 3 3 3 3 3 3 3 3 3 1 1 0 r B P ( ( D B p y y r y a a B C P ( ' '  .{ ( C A B B C P ( P B a 9 9 6 6 6 6 8 y s u l l d y 9 9 9 9 9 9 ; ; ; - ; - - - - - - - - - , , , , - - - < r a L L B u 3 , , , , < r y B P { { { ] ] ] ] ( D B N N p p p r r 0 ; ; - - - - , - & & & & & & & & & & % & & % % O O ",
"G G ~ ..6.@. .J J J J J ~ ~ ~ ~ ~ ~ ^ ^ >.,.h.H.L.Z.O.' { e.S.L.P.L.Z.@.[ ' ' } W W ~ :.2.2.4.4.4.2.>.^ ~ } | } :.8.H.H.6. .W W J J J H J J J J J J J J W } W J H S S S S Z Z Z Z Z M Z S S S Z Z Z S ' } S Z S ' | } S Z S } 6.7.7.} S S S S S S S J }  . .' ,.8.8.,. .6.8.8.| J S S S S S H J J ' | } J S S S S S S S S S S S S S Z Z Z Z S S S S S S S D ' [ | } J D J J J J J J J J S D D D D D ' 7.H.` C B N Z N N '  .D D D D D D D D T T T J J T [ 7.O.( D D ' @.7.5.5.5.5.O.[ ' T D D D D Y Y Y Y S Y Y T T T T T D T T T T T T W W [ ,.,.' ' W '  .5.5.5.5.7.O.O.7.Z.Z.@.] ] ' P D D W D T T T E J T T E E E E D T E E T D D D D D D D D D D D D D D D T T T T D T T T T T ' T T T ' [ ( D D D D D T T T T [ { ' 5.H.H.H.K.Z.H.A.h.O.5.f.f.7.@.O.5.7.Z.5.{  .5.7. .{ #.] f a f B B N N N N p p y y p n n N N N N N N N N N N N n N n n N N N N N N N N N N N N p p p p p p N N N N N N N N N N N N N N N N n n n n n n n n n n n n n n n n n n n n n n n n p p p p p p p p p p p p p p p p p N P ] ..@.5.7.@.P B p p p e e e w q p p p i i i i i i i i p w 0 0 f { { C a y y r r r u K ( ] ) { #.#.A.f.7.7.f.Z.A.Z.#.` l l s 8 k ) ..I t 3 3 3 3 3 3 3 3 3 3 1 0 r p f A D C B f p 0 0 0 r y y y a f B D P ' ' ( D A A A D ( ( P C a y 9 9 9 9 8 y u d d l l d 8 9 9 9 9 9 7 ; ; ; - ; - - - - - - - - - , , , , - < 3 a L L ] ] ] L a 3 - - < r t p f P ] ] ] ] ' P C B B B D D D B B B p y r 3 < - - , , , - & & & & & & & & & & & & % % % O ",
"G G G H H H H J J J J J J J J J J J ! >.s.H.`.&X&XXXL.H.`.*XvXnXnXnXvX@XS.{ J J J J J ~ | ,.2.2.>.>.^ ~ W W W W W } ,.:.' J S S S S S S J W } } W J J J ' J J H S S S Z S Z Z Z Z M Z Z Z Z Z Z Z Z S J J S J ,.7.H.7.} Z S } ,.,.,.' S S H S S S D ,.H.J.H.6.,.8.8. .' ,.6.6.} J S S S S S S H S D J J D S S S Z Z Z S S S S S S Z Z Z A A D D S S S S S S D D D D D D J J J J D D D D S S S S D S ' 7.7.{ C V B N A D U ' D D D D D D D D T T D D D D ' @.' D D D T '  .5.7.7.@. .' T D D D D D T Y Y Y Y S T D D D D T D T W T T T T E W W | O.O.5. .' [ 5.5.7.7.h.7.5.h.H.@.) ) 7.5.' P D T D D D D J J J D W E E E D D J D D D D T T D D D D D D D D D D D T T T T D T T T D ' ' ' T T D D D D D D D D D D D D D D D (  . . .O.{ O.@.O.( { 5.f.7.5.[ { O.7.Z.H.J.Z.@.) @.Z...B p p p p N N N N N p p y y p n N N N N N N N N N N N n n n n N N N N N N N N N N N N p p p p p p p N N N N N N N N N N N N N n n n n n n n n n n n n n n n n n n n n n n p p n n p p p p p p p p p p p p p p p p p p e e e e n n p p p w i i w e e w p p p p i i i i r i i i i 0 1 1 p P { L a r r y y y f K ] { ) ) { #.A.K.L.`.`.{.+X{.L.Z.` ) l l _ ....L r 3 3 3 3 3 3 3 3 < 3 r p f B B A A A B B a y r q y p y y y a f B D ( ' ' P D D D D ( ( P L f y y y y y u u d l l l k u t 9 9 9 r r r r < ; ; > - - - - - - - - - , , , , - < t L ] ........] L t < ; < r y a f C P ( ( P P D B N D D ' ' ] ' U P B B p t 3 < - , , , , - & & & & & & & & & & & % % % % ",
"E E E G G G J J J J J J J H H H G J &.2.c.K.`.`.{.+X&X*X*X*X*X@X%X*XvXvX*XJ.] S S J J J J ~ | | | | ~ ~ ~ W W J W W W W W J S S J J J J J W } } } J J H J S S H S Z Z Z Z N N N M N N Z Z Z Z Z S S Z S Z S } ,. . .| J S S W W J S S S S S H H H ' 5.6.,.,.:.} ,.8.} J W ' ' D S S S S S S S S S D D D S S S S D D D A S S S S A A D D D D A A S V S S S S S S S S S S D D D D D D D D S S S S D D D  .@.@.{ ( A D ' ' ' ' D D D D D D D D D T D D T T '  .{ ' T ' W D T ' { [ ' T T D D D D D T T Y T D D D D D D D D T D ' | W D T T T T T W ' O.5.[ W T { 5.f.A.A.A.J.J.L.H.#.@.7.@.( D D D D D D D D D D D D D D D J J J D D D T T D D D D D D D D D D D D D D D D D D D D T T T T ' ' D D D D D D D D D D D D D A A D D D D C A D T Y D T O.7.7.7.5.O.@.5.H.+X@XJ.{ C ] 7.@.P B y p p p f N B N n p p y p n N N N N N N N n n n n N N N N N N f f N f N N N N N N n N N N p p n n N N p f N N N N n n n n n n n n n n n n n n n n n n n n p p p p p p p p p p p p e e e e e e e e e p i p p p i p e e e e e e e e i i i i w w w w i i r r w w w w q r r r r 0 1 1 r P ..] f p f C C V V C ) ) ( C C { 7.H.{.@X&X-X*X*X@XL.Z.` ` q.q.q.L t 3 3 3 3 3 3 3 3 3 < r t L ] ] ( D A C P L C B f f f f g y y y y f B P ' ' ( P P D D P P L B f a u a g h l l l l l l d u u y 9 9 r t t r r 9 ; , - , , , , , , - - , , , , - < a I ..@.@.@...] P p < ; ; 9 r a f B B B B B B B B B D ' ]  . . .} U U P B B t 3 , , , , , , & & & & & & & & & & & & & & & ",
"! E E E ! ~ ~ J J J J J H H H H H H ~ 4.h.5. .{ 5.H.{.{.L.Z.7.7.#.Z.J.@X*X@Xe.' J D D D J J } } | | } :.:.} J J J J W W W J W W W W W W J ~ | 8.8.:.W S S S S S Z Z Z Z N N B K _ _ _ P B N Z Z S S Z Z Z S } } W J J S S S S S S S S Z S S H H H } ,.,.:. .} J ' } J S D S S S S S S S S S S S S D D D S S S D  .7.5.' S S S S Z A D D D D B N N N N V N S V S S S S D D D D D S S S S S S S D D D D '  . .[ ) ( '  . .' J D D D D D D D D D D D D D D T '  . . .[ W D D D D D D D D D D D D D T T D D D D D D D D D T T T W [ W D D T T T T T T ' ( D D D T ' @.f.H.H.H.A.A.H.Z.e.@.( D D D D D D T W D D D D D D D D J J D D D ' ' D D D D D D D D D D D D D D D D D D D D D T D D D W T D D D D D D D D ' D D D D A D D D D D A D D ( ' ' T ' 5.h.H.H.7.Z.H.`.@X'.q.K g L @.@. .B p p p p y f N N N N N f f N N N N N N N N n n n n N N N N N N N f N N N N N N N N n N N N p p n n N N p p N N N N n n n n n n n n n n n n n n n n n n n n p p p p p p p p p p p p e e e e e e e e e e i p p i i i e e e e e e e i e e e w w w w w i i r r w w w i r r r r r r 1 1 1 a ] @.P N ( O.5.O.[ [ [ ' C f f Y @.H.{.&X-X*X-X*X@XL.Z.Z.P.@XP.q.u r 3 3 3 3 3 3 r 3 3 < r a U @...{ T A D P ] ] ] L B B f f f y y y y f C P P P D D D D C B B f a a h K K ] ) ) ) L L l l d u y y 9 r t t r r < ; - - , , , , , , , - , , , - - < u I @.6.7.6.@.] P p ; ; ; > 9 t a a p p p p p p B B P ]  .,.,... .} ] U P L a r < , , , , , , & & & & & & & & & & & & & & ",
"G G E ~ ~ ~ :.} J J J J H H H H H J :.g.g.,.| ' O.H.H.h.6.' D D D D ] 6.H.`.H. .' ..6.,.' J W } } } ,.,.,.} } J J J E J W W W W } | | ~ W | :.8.8.:.W S S S S D J H Z N B ( q.S.R.@X+XP.S._ C D Z Z Z Z Z J :.,. .:.:.W S Z Z Z S Z Z S S S S S S } 6.8.8.6.} D S S S S D S S S S S S S S S S S S D D D S S S [ 5.Z.J.7.P A A A B B C C L L I I L ) C B N V V S S S S S D D D D S S S S S S S D D D D D ' { O.{  . .,. .W D D D D D D ] ] ] D D D D D D D D ' ' ' W D D D D D D D D D Y D D D T [ T D D D D D D D D W W W '  .[ T D D T T T T T T D D D D T T T T [ O.@.{ [ ) @.7.@.( D D D D D D D T W D D D D D D D D D D D D T ' ' T D D D D D D D D D D D D D D D D T T D D T D D D D D T D D D D D D ( ] ' D D D D D D D D A A ( ..,.6.@.' (  .7.Z.Z.7.h.J.`.J.#.K g g K ] ] P B f y y y y y f N N N N N N N N N N N N N N n n n n N N N N N N N N N N N N N N N n n n N N p p p n N N N p N N N N n n n n N n N N n n n n n p p p p p p p p p p p p p p p p p p p e e e e e e e e e e e e e e e e e e e e e e e e w w w w w w w w i i i i w w w i i r r r r r r 1 ; r B ] P V ' 5.c.K.j.h.j.d.O.Y V D  .Z.`.+X@X&X-X*X*X`.Z.G.%XgXP._ 9 ; 3 3 3 3 3 3 3 3 3 3 r a ] ..@. .( D P ( { ..] P B f f f y y y y y a B C C D A B B B N f p a a f K ] ..@.@.@...) ) L L l u u y 9 r r r r 9 ; - - - - , , , , , , - , , , , - , r L ..#.#.@...] K r ; - - , , < r r r 0 0 0 0 r p B P ]  .,.,.,... .} ' P K B i 3 < , , , , , , & & & & & & & & & & % @ @ ",
"G G E E ~ ~ J J J J H H H S S S S J | h.c.h.4.,.4.8.8.:.' S Z N N N N Z ' 6.6.} 6.`.@XXXH.} J J } :.8.,.:.,.,.} ~ W W | ,. .} } :.,.} W W W ~ | } | W S S S J ,.6.,.J N ] J.*XjXjXjXvXkXjX+Xq.P Z Z Z Z Z H  .,.:.:.:.J S Z Z S Z Z S } J S Z Z Z J  .,.6.6.' S A S S S J J D S S S S S S S J ' J J S S S S D  .7.Z.Z. .D Z A A B B _ q.P.P.P.P.P.P.S.0.K C V S S S S S S S S S S S S S D D D D D D S S D T [ [  . .' D S D D D D P ..J.J.H.@.D D D D D D D D D D D D D D D D D D D Y Y D D D '  .W D D D T T D D D ' ' T [ 7. .T D D D T D D D D D D T T D T T D D T D C D C D ( P C D D D D D D D D D D D D D D D D D D D D D D D D D D D D D D D D D D D D D D D D D T T D D D T D D D D T T T T D D D D D D A D D D D D D D C ] H.J.Z.,. .' ( D ( { { { { @.@.] C f f f h B B B N f p a y y y y N N N N N N p p N N N N n n n n n n N N N N N N N N N N N N N N N n p n N N p p p p N N n p n N f N N n n n N N N N n n n n p p p p p p p p p p p p p p p p p p p p e e e e e e e e e e e e e e e e e e e e e e e e w w w w w w w w i i i i i i i i i r r r r r r 1 ; 0 p B B V Q <.N.[.[.[.{.{.K.5.P D ( @.e.J.`.`.@X-X*X+XH.Z.P.P.0.u ; ; 3 3 3 3 3 3 3 3 3 3 r p P ] { ] P D P ( ] ..] P g y y y y y y y y y y g f a p p p p p y y y p B P { 5.7.7.f.7.#.#.] ) K l d y 9 9 r 9 < < , - - - - , , , , , , , , , , - - , < r K L I ] I K a < - - - , , - - - ; - ; ; ; 3 i B D ' ] .... . .} ] U P A B i 3 < , , , , , , , & & & & & & & & % % @ @ ",
"G G G G G G J H H H H S Z Z Z S D ' ' ,.,. . . .8.2.} | } U S Z N N Z S }  . .} 6.`.XX`.6.} J J W } ,.:.} } ' W W W W |  . .| | } :.,.} W J W :.6.6.,.W H S J ,.6.,.' { J.*X*X'.S.S.S.P.%XjX@Xq.A N Z Z Z Z H ' } } U Z Z Z S } ' S S J S Z Z Z Z Z S J J J S Z Z Z Z S S S S S S S S S S J  .,.} J S S S S S  .Z.J.Z.] A A A A K q.P.kXmXZXGXGXGXGXmXfXC._ C N S S D D S S S S D S S S S S S S A A S S S D T E J J S D S D D D D ] r.J.H.Z.6.' D D D D D D D D D D D D D D D D D D D D D D D T ( D D D D ' ' T Y Y T T T '  .' W D J J D D D D D D D D D D D D D D D C A C C C A C C C D D D C C C D C D D D D D D D D D D D D D D D D D D D D D D D D D D D D D D D D D D D D D U D D D D T T T D D D D D A D A D D A A D B A ) L.@XJ...P C B D D A A A D A D D B B N p y y y y p N f f a y y y y p N N N N p p p f f N n p y p p p B B B n n p p n N N N N N N n n n p p p p p p p p N N N N n p p p n n p p p p p p p p p p p p p p p p e e p p p p e e e e e e e e e e e e e e e e e e e e e e e p w w w w q q q q w q q q w w w q w w w w r r i i r 0 0 0 r r r 0 1 r L ] ] ' o.1.m.[.XXXX&X-X&XH.] B a g L ] ..7.`.*X*XL.#._ _ I u < ; 1 1 1 1 1 3 ; ; 3 3 3 3 r a L P P A B B P ] ] P P f a a f f g y y 9 7 9 9 9 r y y a p p p p N Z D ' O.7.H.H.H.H.A.Z.7...] K l a r < > , - - ; - , , , , , - - , , , , , , , - - - ; 3 r t u t t r - - & & , , - - - - - - - - , 3 p B P U ] ]  . .] ' P P B p r 1 < , , , , , , & & & & & & & & & O O O O ",
"~ ~ G G E ~ J G G H H H S D { e.J.L.P.L.S.q...O.,.} } }  .' S Z N Z D S ' } ' J ' ..@...' J ' J J J ' J J J J J W W W W W W ' |  .,.8.} W W ,.6.H.7.6.} J H S D ' D ' Z.+X'.H.] P C C ) q.L.+XS.P Z H S Z Z Z Z S S Z Z Z Z J ,. .S Z Z Z Z Z Z Z N Z Z Z Z Z Z Z Z S S S S S S S S S S H J :.,.} J S S S S S ' 7.7.@.' S A Z P S.%XnXmXmXcXkXkXcXmXmXmXcXR.q.K N N S D S S D D D D D S S S S S S S S S S S S S S S S D S D D D D ] 7.#.) ..@.] D D D D D D D D D D D D D D D D D D D D A A D D D C C C P ( ( D D Y D T W W D D D T D D D D D D D D D D D D D D D D D D A C C C C C C C D D C C C C A A D D D D D D D D D D D D D D D D D D D D D D D D D D D D D D D D D D D D D D D D D D D D D D D D D A D D D D A D D D Z D e.*X@X#.P A B f D { D A A B B N B B N N p p p q e y f f f p y y p p n n N N n y p a a f f y y p r p p B B n n n n p n p N N N N N N n n p p p p p p p p N N N N n p p p n n p p p p p p p p p p p p p p p p e e p p p p e e e e e e e e e e e e e e e e e e e e e e p p w w w w q q q q w w q q w w w q w w w i r r i r r 0 0 0 0 r q 0 0 0 B ] ,.5.g.m.)..XXX&XyXuX&XH.' p r r r r f ) Z.L.H...K t r < ; ; 1 1 ; 1 1 1 1 1 ; < 3 3 ; 1 r p p B B B B B K P P P B B B B L C g y 9 7 ; ; ; 9 9 y a f B N Z S W }  .6.c.K.`.`.`.`.`.K.A.#.{ K f y 9 < , , < < < , , , , , - - , , , , , , - - - - - - - , < < < , - - & & , , , - - - - - - - - < r p B K P P U ' P P A B p r 1 ; - , , , , , , & & & & & & & & & O O O O ",
"4.:.~ ! &.&.~ ~ ~ E ~ W [ f.`.*XvXnXnXnXvXgX+XL.Z.,. . . .} W S S S S S ' ' S S S S S S S S J J J H H H W ~ } } } } ' W W | } } } } } J W } 6.H.H.6.} J H S S S S D @.K.J.7.{ C B N N N D { e.e.' Z H S Z Z Z Z Z Z Z Z S S S J S S Z Z Z Z N N Z Z Z Z Z Z Z Z Z Z S S S S S S S S S S S S U ' J J S S S S Z D '  .{ D A Z D Z.jXnXvX%XL.S.Z.Z.S.L.+X%XjXjX@X#.B N Z D D D D D S S S S S S Z Z S S S S S S S S S S S D D D D D Y ] #.#...7.e.] D D D D D D D D D D D D D D D D D D D D D A A C ] #.e.Z.q._ K C D D T T D D D D D T T D D D D D D D D D D D D D D D D D C C C C L L L L C C K K ) K C C D D D D D D D D D D D D D D D D D D D D D D D D D D D D D D D D D D D D D D D D S D D D D D D D D V D ' ' D S D S S Z P Z.+XH.( ( D B B ( @.' V B B N N B B B N f p y y q p y p a a y y p p n n n n p p y y y a y y p y r p p B B B n n n p p p p p N n N N N f p p p p p p p p N N N N p p p p n n p p p p p p p p p p p p p p p p e e p p p p e e e e e e e e e e e e e e e e e e e e p p i i w w w w i i q w w w w w i i q q q q w i r r r r r r r r q q q q q q p P ..5.c.)..XXX&X-X-X&X).,.B r r r ; ; r K ] ] L a r 1 1 1 1 1 1 1 1 ; 1 1 3 1 < < 3 < ; ; 1 0 r p B B B B B B P P P P P P P K g f 9 9 = = = > 9 y g B A D W ' ,.,.8.H.).`.XXXXXX&X&XXXL.H.7.) f y r 3 < < , , < < , , , , , , , , - - , , - - - - , - - - - - - - - - - - , , , , - - - - - - - - < r i a B B L L B B a p r 1 ; - - , , , , , - & & & & & & & & & O O O O ",
":.:.~ ~ ~ ~ ~ ~ E E W | j.XX*X*X@X%X*XjXvXnXnXvX*XJ.6.,.,. .} J J J D J } } J S S S Z S H H H H S H J J ~ W W W W W W W ' W W W J H H H J } ,.6.6.} H H H S ' @.7.5.5.h.5. .{ ) B B N N D D ' { D Z S Z Z Z N N Z Z Z Z S S Z N N N N N N N N N Z Z Z Z Z Z Z Z Z Z S S S S S S S S S S S S H S S S S S Z Z Z Z S D D A Z D #.@XvX*XL.7.| ~ E J J '  .7.H.+X@XS.( A D S D D D D D S S S Z S N V S S S V V V V V V V V A D D D D D ( ..@...#.@.P D D D D D D D D D D D D A A D D D D D D D D P ..L.*X*X*X@XL.#.( D D T D D D D D D W D D D D D D D D D D D D D D D D D D D C C C L L L L _ q.S.P.P.S.q.` ] P A D D D D D D D D D D D D D D D D D D D D D D D D D D D D D D D D D D D D D D D D D D D D D D D D D D S S S S S Z D @.7.@.( ) ( D ( @.7.] B B B N N N N N N N f p y q e y y a y y y p p n n n p p p y y y p y y y r r p p p B B n n p p p p p p n n N N N f p p p p N n p p f f N N p p p p p p p p p p p p p p p p p p p p p e e e p p p p e e e e e e e e e e e e e e e e e e e e p p i i w w w w i w w w w w w w 0 0 q q q q w i r r r r r r r r r r r r r r i B D ( 1.c.[.XXOXOXXX).5.' f 0 ; ; ; ; ; r t t r r r 1 1 1 1 1 1 1 ; 1 1 ; 3 1 3 < 3 < ; < ; ; 0 p n B B n B B P P P ( ( ( ( K g y y 9 = = = = 9 r f B D ' | ,.4.h.H.`.`.XXXX&X&X-X&X&XXXL.Z.{ g y r t 3 < , , < < , , , , , , , , - - , , - - - - & & - - - - - - - - - - , , , , - - - - - - - - , ; < r i a a a p p r r 1 ; - - - , , , - , & & & & & & & & & & O O O O ",
"~ ~ ~ | ~ W ~ ~ H J } h.`.XX`.H.f.7.Z.Z.L.+X*XjXvX+XH.,.,. .} } U S Z D J ' ' S Z Z S J } J S S S S H J W J W }  .W S S S S S S S S A S S H J J J H H H S S ..L.+XL.6.6.Z.S.P.J.S.e.#.] P  .O.[ D N Z Z Z N N N J ' S N N Z N N N N N P D S Z Z Z Z Z Z Z Z Z Z Z Z Z Z Z Z S S S H S S S Z S Z Z Z Z Z Z Z Z Z Z Z Z Z Z { `.uX*XH.O.E R Z M M n N Z S ' e.`.`.7.D N N S S S S N Z Z N B N N N N A A V B B B C V A A C D D D C D ( { @.@.] ( A D D S D S D D D D D D D D D D D D D D D D D #.+XjX@X'.L.L.+XL.#.P D D D D D D D D D D D D D S S D D D D D D D D D D D D D D D C P P ..S.R.kXmXmXmXkXgX@XS...P C D D D D D D D D A B A A A C C A A A A A A A A A D D D D A A A A D D D D D D D D D D D V V V V V D A Z D S Z Z D D ] 5.{ O.O.5.5.7.@.P B B B B B N N N N B B f f y y y p y y y p p p f B B B p p y y y r r y y y p p p n B n n n p p p p p p p p p p p p p p p p p p p p p p p p p p p p p p p p p p p p e e e e e e e e e e e e p p p y e e e e e e e e e e e e e e e e w e e q q q w w w q q q q q q q 0 0 0 0 0 0 0 q r r r r r r r r r r r r r r r r r r r i i p D O.c.).).).K.d.f.H.#.a 1 ; ; ; ; ; ; < < 3 3 3 3 3 3 3 3 3 1 1 1 1 ; ; ; ; 1 1 ; ; ; ; 0 i B B B n p B A P P P P P P L h g y y 8 9 9 = 7 r y f D '  .5.h.H._.`.XX&X&X-X-X-X-X&XXX`.7.' f p r 3 < < , , , < - - , , , , , , , , , , , , - - & & & & - - - - & & & & - - & & - - - - - - - - - - - ; < < ; 0 r r 7 ; ; - - - - , , , & & & & & & & & % % % % @ O O O ",
"~ >.4.c.2.W H H J } H.XX&X{.c.<.Q W W E ' O.7.L.+X`.H.,.,.6.6.,.} J D D S S S Z Z Z S J J S Z S Z S J ~ J H W } } E S J J J D S Z Z Z A S S Z Z J ~ W H S S ' 7.e.7.7.`.*XvXnXvXvXvX*XL.e.@.,. .J Z N N N N N Z ' ' S N N N N Z D Z U 6.,.| | ' S Z Z Z Z Z Z Z Z Z Z Z Z Z Z S J H S S S Z Z Z Z Z Z Z Z Z Z Z Z Z Z Z D Z.*X&XA.o.E S S M b b p n n n Z  .Z.`.J.{ D N S S S S V V N N N N B B B h C K L l l K C C C C D D C C ..S.L.+X+XL.Z._ D S S S D D D D D D D D V V V V D Z S S D { L.*XP.q.) ( ) #.H.H.{ D D D D D D D D D ' ' D D D D D D D D D D D D D D D D D D D C ) q.+XvXmXmXkXjXgX%X*XgXgX'.#.P D D D D D D D D B B A A A A A A A A A A B B A A D D D D A A A A S S D S D D D D D D A V V V V V B A D ] ] D A D A ' 7.7.7.7.7.7.7.( B B B N N N N N N N B B f f a y y y y y y p p n N n B B p a p y r r r r y y p p p n B B n n p p p p p p p p p p p p p p p p p p p p p p p p p p p B P B p p p p p p e e e e e e e e e e e e p p p p e e e e e e e e e e e e e e e e w e e q q q w w q q q q q q q q 0 0 0 0 0 0 0 0 r r r r r r r r r r r r r r r r r r r r 0 0 p B ' o.o.o.[ { J.@X'.I 3 1 ; ; ; ; ; < < < 3 3 3 3 3 3 3 3 1 1 1 1 ; ; ; ; 1 1 ; ; ; ; 1 r B B B B p p n B B B C C C C C h h g g u y 9 7 7 y f A '  .5.h.H.`.XX@X&X-X-X-X-X&XXX`.H.@.A e r r < < , , , , , - - , , , , , , , , , , > , - & & & & & - - - - & & & & - - - & - - - - & & - - - - - - - - - - - ; - - - - - - - - , , & & & & & & & & & & % % @ O O O ",
"^ >.4.8.>.W J E | H.&X-X-XXXh.| E S Z N Z Z S  .6.H.H. . . .' ' J J J S S S Z Z Z Z Z Z Z Z Z Z Z Z J } ~ J H W J S J J } ,.} D S S S S S S Z S W } W H S H S J E { H.*XvXgX@X@X@X*XjXgX'.e. .| W S S Z N N M M Z S N N N N D  .,.} D  .,.,.:. .D Z Z M Z Z Z Z Z Z Z Z Z Z Z Z Z Z S S S Z S S Z Z Z Z Z Z Z N N N N N { `.&XK.>.W S N n e e e w p p p n D @.h.H. .D N S S S V V V N N N N B K ) _ q.S.C.C.S.q._ ( h C C A C ..P.gX*X@X@X*X*XG.] D S S D D D D D D D D V V N V D D S S D #.+XL.#.g y y f C { e. .D D D D D D D S D ' ' D D D '  .' D D D D D D C C D D D D D ) V.%XnXvXgX@XJ.e.q.q.e.J.'.@XJ.{ D D A A D D D D A C C C C C C C A A A A A A A A A V V V V V V V V S D D D D D ' D D D S N N N V C K #.H.H.{ ( { { ' 5.Z.H.H.Z.7.{ C B B N N N N N N N N B B f f f a a y a p p p p N N n B p p a p y r r t y y y p a p n B B B B p p p p n n p p n n n n p p p p e e p p p p p p p p n U 7.P p p e e e e e e e e e e e e e e e e e e e e e e e e e e e e e e e e e e e e w w q q q q q w q q q q q q q q 0 0 0 0 0 0 0 0 r r r r r r r r 0 r r r r r r r r r r r 1 0 0 q e p e e e p ..S.e.L 3 1 0 7 7 ; ; ; < < 3 3 3 3 3 3 3 3 1 1 1 1 ; ; 1 ; 1 1 ; ; ; ; ; 1 p B K A B p p p p p B B C C K K ) ) ) K h y q 7 y f B P } ,.8.H._.XXXX&X&X&X&X&XXX`.H.,.P p 0 1 < < , , , , , , , , , , - - , , , , , , > , & & & : : : : : : & & & & & - - & & - - - - & & & & & : , - - - - - , , - - , , , - - - - - & & & & & & & & & & & & @ O O O ",
"W ~ W W W W E | H.&X-X&X`.7.' J S Z Z A N Z Z J :.8.,.U D S D S D J D A D S S Z Z Z Z Z Z Z Z Z M Z H J J J J H H S S J  .8.} J S S S S Z Z Z Z S S Z S J } :.~ ~ 6.`.@XL.Z.#.....q.Z.L.+XH. .D S S S N M N N M M Z N N Z ' 6.H.h.,.'  .H.7.6.| S Z M M Z Z Z Z Z Z Z Z Z Z Z Z Z Z S S Z Z Z Z Z Z Z Z Z Z Z N N N N N 5.XX`.5.| W S N e q q q 0 r p p p C ( @.h. .D D S S S V B B B A B C ) q.P.gXkXmXZXZXcXgXR.S._ l C A _ P.gX+XS.` q.q.P.+XH. . .' S D D D D D D D B N N V S S A Z D 7.H...C y f f y p B { { D D D D D D D D D D D D D ' 6.H...D D D D D D A A D D D D Y q.%XnXjXL.Z.5.' D D D D P @.Z.Z.,.( A A A D D A A C K I _ 0.0._ ) K A A A A A A A A V V V V V V V V S S D V D D U D D S S N N N N A @.L.L.Z.{ ( 7.Z.@. .@.@.5.@.) C B B N N N N N B N N N B B B f f f f f p p p p p N N N f p f a y y r r t t r y p p p n B B B n p p p n n n p p n n n n p p p p e e e p p p p p p p p P ] B p e e e e e e e e e e e e e e e e e e e e e e e e e e e e e e e e e e p p i w w q q q q q q q q q q q 0 q q 0 0 0 0 0 r r r r r r r r r r r 1 r r r r r r r r r r r r r 0 0 0 0 0 0 0 0 t a a r 1 1 1 7 7 7 ; ; < < 3 3 3 3 3 3 3 < 1 1 1 1 ; ; 1 1 1 1 ; ; ; ; ; 1 r B K P P B p w q p p B C ( ] { @.#.#.{ ( h f y y a B D ' } ,.7.H._.`.XXXXXX`.`.H.7.{ L p 1 ; ; < , , , , , , , , , , , - - , , , , , : , , & & & : : : : : : & & & & & - - & & & - - - & & & & & & : - - - - - , , , , , , , = - - - - & & & & & & & & & & & & @ O O O ",
"E W H W ^ ~ ~ ,.`.XX).A.,.} | } J D D D A N Z U ,.,.} S A A J ' J S S S S S S Z Z Z Z Z Z Z Z M M Z Z S S H S S H H S S J W H S S S S S Z Z Z Z M M Z J ,.c.h.:.,.H.`.H.5.' D D A C Y #.L.J...D D D Z M n N S S N N N Z D 6.7.6.5. .} ,.H.H.5.' S Z Z N Z Z Z Z Z Z Z Z Z Z Z N Z Z Z S Z Z Z Z Z Z Z Z N Z Z A A N N N  .H.5.| W D B f q 7 7 y 7 7 r y y f ( @.H.@.D D S D S B B B B A C _ P.kXZXGXZXZXmXZXmXZXmXkXR.q.) P e.@XP.q.K g g l _ e.J.r.r. .D D S D D A A D A B B B V Z Z Z P ,.@.C f y f B f e f ( ' D D D D A A A D D D D D D ' 7.5.{ D D D D D A C A D A D D ) P.kXvXL.#.' S Z N n p p p C ] @.5.{ D A A D B B L _ V.P.R.gXgX@XP.e...P D D D B B A A A A A A V V V V V N A A A D D D Z A A A A Z P 7.J.#.( D D @.Z.{ Y D A D A B B N N N N N N N N B B N N N N N N N N N N N N N p N B B p p y y y r r r r r r r y p p a n n n p p p p p p n p p p p p p e e p p e e e e n n n n e e e n B p p e e p p p p p p p y y y y p p p p e e e e e e e e w w w w e e q w w i i i i i i r w 0 0 0 q q w w w i i i r r r r r r r r r r r r r r r r r r 3 3 r r r r 3 3 r r 3 3 3 1 1 1 1 1 1 0 0 ; 0 r 3 1 0 0 ; ; 1 1 1 1 < < < < < < < < ; ; ; ; ; ; ; ; ; ; < < ; - - ; 0 p B U U P Z n e p N D '  .5.Z.A.K.A.f.@.) K C B f f B D W | ,.8.c.H.K.K.H.f.5.{ P a r ; - - - - , , , , , , , , , , , - - , , : : : & - - & & & & & & & & & & & & & & & & & & & & & & & & & & & & & & & & - - , , , , , , , - & & & & & & & & % % % % % % % % O O O O ",
"~ ~ E | >.~ ~ 3.H.c.4.,.| ,.6. .S N Z Z N N N A U } J S Z S '  .' S S S S S Z Z Z Z Z Z Z Z Z Z Z Z Z Z S H H J ~ J S Z Z Z M Z Z Z Z Z Z Z Z Z M Z S  .5.8.| } ,.H.H.6.} E ' ,.O.| W ' 7.r. .W W ' D N M N J ' J N N N Z } 5.6.7.6.}  .6.,.' Z Z Z Z N Z Z Z Z Z Z Z Z S U U D N Z S S Z Z Z N N N N N N Z J  .,.U N Z | 6.| D B B B g y y y y y y 9 7 7 7 g ..7. .D Z S D S A B B B L q.R.nXFXZXmXgX+XR.+X@XgXjXnXmXgXP...e.J.@.L f f f f f P ,.6. .U D D D ' { ' A B B B B N V V V V D { ' B f f B A C B A ( ' D D D D A A A D D D D D D D {  . .T D D D D A A A D A C P 7.@X*XL.#.D Z B B p p t y y y f P @.@.) C C D A ) q.R.kXmXZXmXnXvX*X+X`.r...P A B A A A A A A A V V V B B B B A A B D A Z A A A A A U 7.7.{ D D D { 7.{ ( N N N N B N N N N N N N N B A A N N N N N B N N N N N N N n N N B p p y q y t y r t r r r r p p B n n n p p p y y p n n p e e p p p e p p e e e e n n n n e e e e e e e e p p p p p p p p y y y y p p p p e e e e e e e p i i i i i i r r i i i i i i i r 0 0 0 0 q w w w r i i i r r r 0 r r r r r r r r r r r r r r r 3 r r r r 3 3 r r 3 3 3 3 3 3 3 3 3 3 3 3 1 3 1 1 1 1 ; 1 1 1 1 1 < < < < < < < < ; ; ; ; ; ; ; ; ; ; < < - - - ; 1 0 p A U } J S N N A ' @.h.H.`.{.XX{.`.A.5. .] ( C A A D D ' } :.,.6.6.5. .' C p r ; ; - - - - , , , , , , , , , , , , - - - , : : : & - - - & & & & & & & & & & & & & & & & & & & & & & & & & & & & & & & & & & & - , - - - & & & & & & & & & % % % % O O % % O O O O ",
"~ W W ~ :.| | 4.c.8.:.W J } ,.} S Z S S A N N N S } ' H S S J U J S Z Z S S Z Z Z Z Z Z M Z Z Z Z M M M Z Z Z S J J H Z Z Z Z M Z S Z M M M M M M M Z J W D S W 5.H.h.4.,.| ,.6.,.| W W  .,.' N Z S S Z N Z S J S N N D S S } 6.H.6.' W ' J Z N N N N N N N N Z Z Z Z D  .,.,.] A Z Z Z N N N N N N N N N Z ' ,.,.' S S | ,.| D N p y y y d d l l l y y y 9 h {  .' D Z S S S A A A A ..+XnXnXjX@XL.Z.#.{ @.@.e.S.+XgXkXhXP.q...K f f f B C f B ] 6. .S D D ' 6.7.@.P B N N N N V V V V D ' ' P D ( ( ( ' ( D ( D D D D A A A A D D D D D D D D ( ( D D D A A V V V D D D ( H.+XJ.@.D N B B p y r r r 0 y f P { 7.{ C A A ) S.kXmXFXnXjX%X+XL.L.J.`.`.H.@.P B B A A A A A A V V B B B B A A N N A A A A B B Z A ' 6.7.{ T ' ' @.Z.#.C B B B B B N N N N N N N N N A B N N N N N B N N N N N N n n n N N p p q y L ) K p p p y r r p p n n n n p n n f f p p n n p e p p e e e e e e e e e e e e e e e e e e e e e e e e e e e e e e e e e e e e e e e e e e e p r r r r i r r r r i i i i i i i 0 w 0 0 q q w w r r i i r r 0 0 r r r r r r r r r r r r r r 3 3 r r r r 3 3 3 r 3 3 3 3 3 3 1 3 3 3 3 3 1 1 1 1 1 1 1 1 1 1 1 1 < < < < < < < < ; ; ; ; ; ; ; ; ; ; ; ; - - - - ; 1 r n A U } } J ' ' ,.h.K.XX&X&X&X&XXX`.H.7.@.] P C C D ' }  .,.:. .] P B y q ; - - - - - - - , , , , , , , , , , , , - & , , : : - & - - & & & & & & & & & & & & & & : : & : & & & & & & & & & & & & & & & & & & & & & & & & & & & & & & & & @ O % % O O O O O O O O ",
"J J W } } ~ :.4.4.,.} W } 8.c.5.' ' J S Z Z Z D J } ' H S Z Z S S S Z Z S Z Z Z Z M M S H H Z Z N M M M Z Z Z Z Z S S ' ' J S Z J } S N M M M Z Z Z Z Z N N S J ,.h.8.4.g.8.6.,.| | ~ |  . .' Z S S S N Z Z S S Z P ..6.,.' D ' ] ' S S Z N N N N N N N N N N N Z Z Z D  . .' D Z N N N N N N N N N N N N N J  . .} S S ' ,.,.W N r 7 7 y u y d l u y y y y l ( ( D N N N N N A A A ] P.vXvX*XK.+.[ D V S D D S ' @.e.P.'.P.q.] ( P B f f C C D ] ,. .D D D  .,.] ] ( B N A D ( ( D V V D D ' {  .{ ' ( ' ( D D D V V V A A A A D D D D D D D A D D D D A A A A D D A D D { J.H.{ D A B B f y r 9 r 9 r y g ( { 7.@.D V K S.kXFXmXgXP.Z.@.{ ' { ..6.6.r.H.6.P B A A A A A A V V B B B B A A A V B A B N N N N N D  .@.{ ' ( ( ..#._ K B B B B B f N N N N N N N N N N N N N B D P A N N N N N n n p p p p y y l #...P n p p y y y p p n n n n n n B ) P f p n p p p p p e e e e e e e e e e e e e e e e e e e e e e e e e e e e e e e e e e e e e e e e e e e p r r r i i i r r r i i i i i i i w w 0 0 0 0 w w r r i i r r 0 0 r r r r r r r r r r r r r r 3 r r r r r 3 3 r r 3 3 3 3 3 3 1 3 3 3 3 r 1 1 ; ; ; 1 1 1 1 ; 1 1 < < < < < < < < ; ; ; ; ; ; ; ; ; ; ; ; - - - - - ; 1 i n J } } :.,.5.h.K.{.&X-X-X-X-X&XXXL.H.,.] P B C P  .6.6.6.5. .U n i 1 ; - - - - - - - , , , , , , , , , , , , , & & - & & & - - - - & & & & & & & & & & & & & & : : : : & & & & & & & & & & & & & % & & & & & & & & & & & & & & & & & & @ % % % O O O O O O O O ",
"} } J J J W } ,.,.,.,.:.,.g.h.4.8.6.| S S S J ' ' W J Z S Z Z Z Z Z Z Z Z Z Z N Z M Z H } } J Z M M M M N N N N Z D } ,.,.} S Z S S Z N N M N S J S Z Z Z Z S ' ,.H.H.c.g.8.8.5.,.,.| :.6.6. .D N N Z N N Z Z N D ,.H.H.H.6.D N Z Z Z S Z N N N N B I ..] L B B B N N A } @... .J Z N Z N N N N N N N N N N Z J ' D Z Z D ,.5.' B f y 0 y y y 9 y y d g g y l ] ( D N S N Z N N N P Z.*XjX+XH.O.E S N N N N N Z Z D P ) ....) ( ( ] D f f B A ( ] ' D S D S '  .]  .] A A D  .6.5.' V V D D '  . . .{ { @.{ ( A V V V V V D D D D D D D D D D D A A A D A A A Y  .@.] P D  .H.7.P B B g g y y y y r y y y g C ) #.#.( D q.gXmXnX@XZ.{ Y B N B B A D P ] r.r.] B N A A A A A B B N N N N N B A A B B B N N N N N N ' 5.7.5.{ #.Z.G.Z.#.] B B B f f N N N N N N N N N N N N N A ' ' B N N n n n n n p p y a y y h ....L n n p a a p p p p n n n b n P #...B e e p p y y e e p e e e e e e e e e e e e e e e e e e e e e e e e e e e e e e e e e e e e w w q q q q i i i i r i i i q q w 0 0 0 w w w w q q 0 0 0 0 r r r r r r r 0 r r r r r r r r r r r r r r r r 3 3 3 3 3 3 3 3 3 3 3 3 3 3 3 3 ; ; ; 1 ; ; ; ; ; 1 1 1 ; ; ; 1 < < < < < < < < ; ; ; ; ; ; ; ; ; ; ; ; - - - - - - 0 p n S U :.8.h.H.K.`.XX&X-X-X-X-X-XXX`.H.,.( B N B ' ..7.h.7.5. .P i 3 ; - - - - - - - , , , , , , , , , , & & & & & & & & & - - & & & & & & & & & & & & & & & & & : & & & & & & & & & & & & & & & & & & & & & & & & & & & & & & & & & & @ @ @ % % O O O O O O O O ",
"~ J H H H H J ~ } ,.8.,.2.4.4.2.4.4.| W J S D J W J Z M Z Z Z Z Z Z Z Z Z Z Z Z Z M Z H } :.J Z M M M M M N Z S J J J ' U S Z N N N M N N b N S S Z N N N Z Z A ' 5.c.g.,.,.,.,.,.,.| ,.6.6.' D N Z D N N N N N A P ] ] ,. .S N Z Z Z Z Z Z N B P e.`.+X'.Z.] B N Z N Z U ..r.H. .Z Z Z N N N N N N M N N N N N N N Z N S } 5.| P ] P B B g f y f g f d d u l L C V D D N N N N V ..+XuX+XZ.| S Z N n a a p f N N N A B B f B ( @.@.] L P C ( { ' D N Z Z D '  .....' B D ' 5.5. .D V A A A D ' { @.@.@.5. .( A V V V V A D D ' {  .[ ' D D D A C A A A A A A ] H.L.H.5.'  .H.7.P B K g u y y y y y y g g h h C ) @.( ] P.nXjXP.q.) C B f p e e y f B A ] @...P B A V V N D D N N N N N B B N N B A C C N N N N Z ' Z.H.h.7.G.@X@XJ.e.@.P B B N f n p f N N N N N N N N N N B D B B N N N n n n n n p p a y q a P U B n n n p a a p p p b n b e n B ] ] B e e p e y y e p p B p e e e e e e e e e e e e e e e e e e e e e e e e e e e e e e e e e e w w q q q q i i i i r i i i q q q q 0 0 0 0 w i q q 0 0 0 0 r r r r r r r r r r r r r r r r r r r r r r r r 3 3 3 3 3 3 3 3 3 3 3 3 r r 3 3 ; ; ; ; 1 1 ; ; 1 1 ; 1 ; ; ; 1 < < < < < < < < ; ; ; ; ; ; ; ; ; ; ; ; - - - - - ; r B A D } :.8.c.).`.`.XX&X-X-X-X-X&X{.).7. .B p p p P  .6.6.6...] B r < , , , , , , , , , , , , , , , , , , & & & & & & & & & & & & & & & & & & & & & & & & & & & & & & & & & & & & & & & & & & & & & & & % & & & & & & & & & & & & & & & & @ @ & & O O O O O O O O ",
"} ~ J H H H H H J } ,.,.2.4.2.| | ,.,. .' D S S D ' ' J S Z Z Z Z Z Z Z Z Z Z N Z M b Z S J S Z M M M M M Z S D ' J S J  .,.' N M M n n N n N N n n N N N N D J J ,.7.4.8.8.,. .,.4.5. .' P D A D D ' D N N A P ] ] P P ' D N N N Z Z Z Z N S ' e.'.@X@X@X@Xr.P N Z Z Z D ' ..,.U Z Z N N N N N N Z N N N N N N N N N N Z S ' W D }  .' ' ( D C K C g y g L L f B D D S N N N V A Z.&X{.f.| D N n p p y y y f C P P ' ' ( C C ] 7.7.@.6.7.@.{ ( D D D S S N A D U P D N A ' @.5. .D N V A B N D ( { ' P ( ( C A B B V V D (  .7.7.5.@.{ ' D D A A C A A A A A { J.`.7. .W { Z.7.] ..q.I d u u u u g K ) h h g g K ' D @.+X*XG...( C B f a p y q e p p N B '  .] A N A A N A A N N N N N B A B B C @.7.,.( N N N N P 5.O.O.H.@X+XS...] { { B f N N n p p N N N N N N N N N N N B N N N N A B n n n p p p q q y a f B n n n n n p y y p p n b e e p p B B p e p p e e e p L #.@.P p e e e e e e e e e e e e e e e e e e e e e e e e e e e e e e e e e w w w w q q i i i r r r i i q q q q 0 0 0 0 0 0 q q 0 0 0 0 r r r r r r r r r t a t r r r r r r 3 3 3 3 r r 3 3 3 3 3 3 3 3 < < < < 9 < < < 1 1 ; 1 1 1 1 1 1 1 ; ; ; ; ; ; < < < < < < < < ; ; ; ; ; ; ; ; ; ; ; ; ; ; - - - ; r a B A P U ,.8.H.).`.XXXX&X&XXXXX`.H.6. .D p 0 0 q B P ] .. .] K a < , , , , , , , , , , , , - , , , , , , - - & & - & & , , - & & & & & & & & & & & & & & & & & & & & & & & & & & & & & & & & & & & & & & & & & & & & @ @ & & & & & & & & @ & & & O O O O O O O O ",
"J J J J S S S S S H W | :.:.:.>.,.,.,.| J S Z Z W 8.H.H.,.J Z Z Z Z Z Z N N Z Z Z Z b b M Z M M M M M M M Z S '  .} W ,.H.J.6.A M n M M n n n n n n n N N Z ' ' S '  .,.6.7.7.7.h.h.6.| S N N N A D P D D D ..Z.J.H.6.] D N N N N Z Z Z N N ' H.J.H.e.q.q.e.r.] N N Z J ,. .U A N N N N N N N N N Z Z N N N N N N N N N Z Z D W D '  . .,.O.O.{ ' K C h ) P K f B D S S Z N N N T A.`.f.[ W V N p p y y y y K { ] U  . .{ ) C K @.7.7.7.e.6.' A B D D B A Z Z Z B A A N D ' { .. .D B N B B B D ' C f y y f A C A B V D (  .5.@.] ( ( ( ' ( D A A V A A A A A { Z.e.] ( ' ..7.#.@.H.J._ g d g g g K ) ) h h h g C ( D @.L.H.] C g g g a p y r 0 q q e p B P U ] D N B N B B N A P D N N D P N B ..J.L.7.{ D N N N N D C { L.+Xq.) f B D ( C f f N n p p p f f f N N N N N n N N N N N B B N n N n p y p q y p y p p n n n n n p p p p p e e e e p p e p e y p p e e e p ..`.H.P n e e e e e e e e e e e e e e e e e e e e e e e e e e e e e e e e p w w w w w q i i i r r r i i q q q q 0 0 0 0 0 r r r r 0 0 r r r r r r r r r t I ..L r r r r r r 3 3 3 3 3 3 3 3 3 3 3 3 r r < < < < 9 < < < 1 1 1 1 1 1 1 1 3 3 3 ; ; ; ; ; < < < < < < < < ; ; ; ; ; ; ; ; ; ; ; ; ; ; - - - - 0 i a p p n P } 6.6.7.H.H.H.H.H.r.6.] C a q ; ; ; ; 0 p B L K a i < - - , , , , , , , , , , , - , , , , , , - - - - - & & , , - - - & & & & & & & & & & & & & & & & & & & & & & & & % % & & & & & & & & % & & & & & @ @ @ @ & & & & & & & & @ @ & @ O O O O O O O O ",
"J H S S S H J J H S S S S J E W W J S Z Z Z Z Z J 7.`.`.7.J Z Z M M M M M N Z H H Z M M M M M M M M M M M Z W } ,.,. .,.7.7. .D N b b n n n n n Z S N N N Z D S S Z J ,.7.6.8.6.,. .} W J S D ] ..] C N B ] H.`.`.`.`.e.P A B A D D Z Z Z N ' H.H.5. .' D P ] D N N N U ,. .D N N N N N M M M N N N N N N N N N N N N N N M S ' ' } 8.H.H.H.H.h.,.' P D D B B B D S S Z N N N N T h.j.[ V f y a a y y y a y g h f f B P P C C C P ] @.@.{ ( C A A D D B B A B A B A A A D } ' ' D B N N B B B P P f q q q y P ] D B N D { ,.{ B y p B A ( ) D B B B P _ ] ] P ] @.@.) { #.7.Z.7.7.e.e.) K K ) C C K K K K K K K K D ( 5.Z.{ B f y f f y y r r r r 0 r a B L P ( D B N N N N N ' 6.( B N B A N C 6.H.@.P D D N N N N N V @.K.Z.K f f B B ( K f a p p N N n n n n N N N N N N N N N N N N N n N N n n p y y y p p p p p p n n n p p p e e p p p p e e e e e e e e e e e N { Z...P B p e e e e e e e e e e e e e e e e e e e e w w w w w w p p p i w i i i i i i i q q 0 0 0 0 w w r r r r i i i i r r r r r r r r r r r r r r 0 r L r.r.I t r 0 0 r 3 3 3 3 3 3 3 1 1 1 1 ; ; 1 3 1 1 1 3 ; ; ; ; 1 1 1 1 ; ; ; ; < < < < < < 3 < < < < < < < ; ; ; ; ; ; - - - - - - - ; ; ; - - - - ; ; r 1 1 0 i B K U U U U P P L B a t 1 ; ; - - - - - < < < < < - - - - - , , , - - , , , , , , , , & & & & - - : : & & & & & & & & & & & & & & & & & & & & & & & & & & & & & & & & @ @ & & & & & & & @ @ @ O O & & @ @ @ @ @ @ @ @ @ @ O O @ @ @ @ @ @ @ @ O % % % ",
"J H Z S J :.8.8. .S Z S S S S S S Z Z S S S S Z S } 6.,.U Z Z N N S D S N N b Z M M M M M M M M M M M M Z S ' W J | ,.7.H.H.6.} Z b n n n n n n Z S N N n N S J J S S J ' }  .,.:.} J J J ' 7.H.J.H...B N { 7.6.@.@.e.6.P B A P ' ' A N Z N D  .4.4.h.7.,.' ' U N N N B ' P N N N Z Z N M M M M M M M M N N N N N N N N N M N S J  .H.`._.`.`.H.6.,. .} D N N D S S Z S N N N S W h.7.( f a a a y r a g f y y g K f y y f B ] ] B B D C C D A A D P D B N A A A B B Z A D D D A A N C ( ] C B D C y q q e f P ] D B A D  . .C e q e f A ( ' ( C K q.J.'.L.Z.@.{ ] ( ( )  ...@.Z.7.{ ) ) ( [ ) ) ) ] ( ) K K ) ] ] C ( 7.Z...C f f f y y y r r 9 r 9 r y g L ( ( C B N N N B B P  .D B B D A N P 5.,.D N D D D N N N N V { Z.@.( D V B B K K g g g K B p p p n n N n N N N N N N N N N N N N N f n n p p y p p p p p p p p p p n p e e e p n p p e e e e e e e e e e e e P 7.,...P p p e e e e e e e e e e e e e w w e e e e w w w w w e p p p i r r i i i i i i q q 0 0 r r w w r r r r i i i r r r r r r r r r r r r r r r 0 r l e.e...g r 0 0 1 3 3 3 3 3 3 3 1 1 1 1 1 1 1 1 1 1 1 3 ; ; ; 1 1 1 ; ; ; ; ; ; 3 3 < < < < 3 3 < < < < < ; ; ; ; ; ; ; - - - - - , - - ; ; - - ; - - - - ; ; ; ; 3 r r r r 3 1 3 ; ; ; - - , , , , - - , , , - - - - - - - - - - - - - , , , , , , , , & & & & - - : : & & & & & & & & & & & & & & & & & & & & & & & & & & & & @ @ @ @ & & & & & & & & @ @ @ @ O O O O @ @ @ @ @ @ @ @ + + O O @ @ @ @ @ @ @ @ O % % % ",
"J H H H W ,.H.H.,.S S S S S S Z Z M Z J } W S Z Z Z Z Z N N N Z U ,.8.,.S N N N N Z N n n n M M M b n Z S D S S S ' :.,.,.,. .J N n n n n n n n n N N n N N Z Z Z S S Z Z S J ' J S Z Z ' ,.6.,.6.6. .D N T { { U D P P B B B B A A N N N Z N D | ,.8.6.,.:.,.U N N N N B N N N N Z N N M M N N N N M N N N N N N N N N M n N N Z D  .7.H.).).h. .} ' D N N Z S D S Z Z N N N N T 5.5. .D L K y r y K P l y y L ..L a y f L ....P B B B B D D B B B N N N B A B B Z Z N B N N N N A ] e.Z.@.C A B y f f f N B B B B B D ' ' B e e f B D ' ' D K V.%XjX@XL.H.Z.@.( C D D D D ' { @.{ [ X.{ { { { #.#.) ..] ) ) ) P B ) 7.H.f.] C h f y y y r 9 9 9 9 r y f C ] ] C B N B N N N B D D ' ] ..' B D  ... .' { ' A N N N B B ( 5.7.@.{ T A B A C L ..q.e.) B p n n n n n p p N N N N N N N N B N N f p p p p e e e p p p p y p y y y p p e e p p p p e e e e e e e e e e e e B @.e.6.K p w e e e e e e e e e e e e e w w e e e e e w w w p p p p i i r r r i r r i i q q w w r 0 0 w i i r r i r i r r r r r r r r r r r r r r r r 0 r I q.e.L r r r 3 3 3 3 3 3 3 3 1 1 1 1 1 1 1 1 1 ; 3 3 ; 1 1 1 1 1 1 ; ; ; 1 1 3 3 3 3 < < < 3 < < < < < < ; ; ; ; ; ; - - - - - - - - ; ; ; ; ; ; - - - - - ; ; ; ; ; ; 1 - - ; ; ; - , - - - - - - - - - - - - - - - - - - - - - - - , , , , , , , , & & & & - : : : & & & & & & & & & & & & & & & & & & & & & & & & & & & & & @ & & & & & & & & & & @ @ @ @ O O O O O O @ @ @ @ @ @ @ @ + O + O O O O O O @ @ O O O ",
"Z S H J } ,.8.,.W J S S S S S Z M M N S J S Z Z Z Z Z N M M N Z } 6.6.} S N N Z S S Z b b b b b b b M S } ,.J N Z J ' } |  . .' Z n n n n n n n n n n n n N N Z J ' J S S J U J S S Z S  .6.,.@. .' C N N ' 5.6. .D B B B B B B B B Z Z Z Z N S | 6.4.8.,. .' A N N N N N n N N N N N n N N N N N N N N N N N N N N N N N N N N N N Z D '  . .' A N N N N Z S S D S D Z N N N N D ,.5. .D C B y 0 r g L K a y g L g y a f L ] { P B N B B B B B N p p p N B B B N N N N N N N N N P ,.7...( C P C N B f f N N N B B B A D ( A f e N B P ] ] ( ..+X%XP.q._ ] ..@.] P D D B B B D { #.#.7.f.7.#.#.f.f.e.Z.Z.#.] L h g ( @.H.Z.{ K g y 0 r r r r 9 9 9 r y y f K ] D B B B N N N N N P @. . .@.' B U 6.6.6.,.' N N N N N B A { 7.7.5.O.{ ' ] #.J.'.L.J.e.] N n n n n p p p N N N n n n N N N N f p y y y y e e e p y p y p p y y y p p e e e p p p e e e e e e e e e e e e p B P L p e e e e e e e e e e e e e e e e e e e e e e w i w p p p p i i r r r r r r r i q w w w i i 0 0 i i r r r r i r r r r r r r r r r r r r r r r r r r l L t r 7 r 3 3 3 3 3 3 3 3 1 1 1 1 1 1 1 1 ; ; 1 1 1 1 3 3 1 1 ; ; ; 1 1 1 3 3 3 3 < < < 3 < < < < ; ; ; ; ; ; ; ; - - - - - - - - ; ; ; ; ; - - - - - - - - < < - ; ; - - - - - - - - - - - - - - - - - - - - - - - - - - - - - - - - , , , , , , : & - - - & : & & & & & & & & & & & & & & & & & & & & & & & & & & & & & & & & & & & & & & & & & O @ @ @ O O O O O @ @ @ @ O @ @ + + + O O O O O O O O @ @ O O O ",
"Z S H } :.} J H W } W S S J S Z S Z Z Z Z Z Z S J } ' Z N M M Z U } } S N N N Z J J Z N N n b b b n n D } ' D N A S S '  . .' D Z N n n n n A Z N n N N N N Z Z U U J J S S S S Z H U ' ' |  .6.,.P N N N ( 5.h.H.Z.S.S.S...L B B B A Z Z N N Z ' ,. .' ' D Z N N N N N N N N N n n n n n n N N n n n n n n N n b n n N N n n N N N n n N N N N N n N N N Z S D D D D D N N N N S | ,.{ B f C B y r y L ] L h a a a f f f C P P C B B B B B B n p p y B P P B N N N N N N N N N N D .. .' D D A B N N N f N N B N N B B A D D A f f K @.e.Z.Z.J.P.S.) g g f B P ' P D A A A C ) e.J.H.A.A.H.H.H.A.H.J.`.L.e.] ) K K ( X.7.@.) K h f y y y y t y 9 9 9 y y g K ) P B B B N N N N N B P ] @.6. .B A ..7.6. .D N N N N N N f C ..@.7.7.7.@.e.+X*XP.#._ @.{ D N N N N p p p n n p p n n n n N N f f y y f f p f y f y y a p y e p p e e p p e e e e e e e e e e e e e e e e e q q q q q w w e e e e w w e e e e e e e e e e e e e e i p p p w w w w i i i i q q q q 0 0 0 w q w w w r r r r r r r r r r r r r r r r r r r r r r r r < < r r r 9 7 0 3 3 r r ; ; ; ; ; ; ; ; 1 1 ; ; ; 1 1 1 1 1 1 3 1 1 1 1 1 1 ; ; ; ; ; ; ; ; ; ; ; ; ; ; ; ; ; ; ; ; ; - ; ; ; ; ; - - ; r r r 7 ; ; ; ; - - - - - - , , - - - - - - - - - , < < ; ; < ; ; ; ; - ; ; - - ; ; ; ; - - - - - - - - - - & & , , - - & & & & & & & & & & & & & & & & & & & & & & % & & & & & & & & & & & & & @ & & & & & & & O O O @ @ O O @ o @ @ O O O O O O + + O O O O O @ @ @ @ O O O O ",
"Z H J J H S S J } :.W S S S Z J } J S S W J H S } ,. .S N M M N N N N b M b Z Z H S N N N N p p N n n n B B B N B N N D D A N N n n b n n Z J J S Z Z Z n n N Z A A N Z Z Z Z Z M Z J }  .|  . .] B p n N N ' 5.`.*XvXvXvX@Xe.L B B A Z N N N N Z D Z N A D A N n n N N n n n n n n n n n n n n n n n n n n N B B n n n n n n n n n n n n n n n n n n n N Z S J D D D B N N N N S '  . .B f P C C C C P P B P P C B B B P ] L C B B B B B N n p p y f L { ] B N N N N N N N N N N D ] ,. .D B N N N N N N N B D A N N N N B A A B C @.J.J.Z.J.L.Z.l d f f p p B P P C B C _ S.L.+X@X`.L.H.J.L.L.H.L.'.'.S.@...] { { [ ) { { ) C g f y y y u u 9 9 9 9 y d g h K C B B B N N N N N N N P ,.@.U N N A P P A N N N N N N f f f K 7.Z.@.{ ] J.*XJ._ g f K  . .D N N N f p p n p p p n n n n p p p p y y f p f f f l _ _ _ _ L f y e e e p p e e e e e e e e e e e e e e e e w q 0 0 0 0 q q q e e e e w e e e e e e e e e e e e e w p p p p w q w w i i i i q q q q 0 0 w w q w w w r r r r r r r r r r r r r r r r r 0 r r r r r r < < < 9 < < < 3 3 3 r r ; ; ; ; ; ; ; ; 1 ; ; ; ; ; 1 1 1 1 1 3 1 1 1 1 1 1 ; ; ; ; ; ; < ; ; ; ; ; ; ; ; ; ; ; ; ; ; - ; ; - - ; - ; r t y t r r ; ; ; - - - - - - - , - - - - - - - - - - < ; 9 r r r r r r ; < < ; ; < 3 3 3 ; ; - - - - - - & & & & - - , , & & - - & & & & & & & & & & & & & & & & & & & & & & & & & & & & & & & & & & & & & & & @ @ @ O O @ O O O @ @ @ # # j j j # + + @ @ @ @ O O @ @ @ O o o o ",
"H J J J W } } } } ' S Z S Z J J W S Z Z S S S Z S J S Z M M M M b b n b M M Z S J D C L _ q.q.q.q._ L f L ] B N N N N N N N N n n n n n n n N Z Z Z S Z N n n n N n n A S Z Z Z M Z J :.,.,.5.6.{ N e p e f ) J.*XuX*XgXvXvX*Xe.L n Z Z N N N N Z N N N } 6...P N n n N n n n p n N N N n n n n n n n n n N ' ,.,.P n n n n n n n n n n n n n n n n n n N Z S D D D D B N N N N N D  .,.' B C C D ( { ' P C C ( P B f C { { P B B B B B N p p p p a f g B B B N N N N N N N N N N N D P D B N N N N N N B N B A B B N N N B N A B P 7.Z...] ..e.) g f B N f N D ' ' C K q.R.jXjX@XL.L.J.H.H.Z.H.A.L.J.Z.e.e...L C ( [ ( ( { ] P C f f K ) ) L t 9 9 y y d d g C B N N B N N N N N N N B P D B N N B n n n n N B n n n n f f ..J.@.D A ..L.J._ f f f B  .7. .B n N N N N n n p p N n n n e e y y p p e e f ) q.P.%X%X*X@XL.e._ B f e p p p e e e e e e e e e e e e e e w q 0 0 0 7 7 0 0 q q e e e e e e e e e e e e e e e e w w e p p i q q q w i i i i w w q q 0 0 0 q q q w w r r r r r r r r r r r r r r r r r r r r r r r r < < < < < < < < 3 3 r r 1 1 1 1 ; ; 1 1 1 ; ; ; 1 3 1 1 1 1 1 ; 1 1 1 1 ; 1 ; ; ; ; ; ; < < ; ; ; ; ; ; ; ; ; ; ; - - - - - - - ; - < t y a a y r < ; - - - - - = - = = = = - - , , - - - - ; ; r r y p p p p p a t t t r r r r r < < < - - , - & & & & - - & & & & & & & & & & & & & & & & & & & & & & & & & & & & & & & & & & @ @ @ & & & @ & @ @ @ @ @ @ @ @ @ @ @ @ @ # k 0.C.P.P.C.q._ k 6 # @ @ @ @ @ & = = * * % ",
"J W J W :.,.:.J S Z Z Z Z S J S Z Z Z N Z Z Z Z M N N M M M M M n n b b M N Z N P q.S.P.gXkXnXnXkXgXP.q._ ] K B A U A N n N N N N A P A n n n n n N Z n N n n N n n N J U Z n Z Z J ,.8.,.,.5.7.{ B e e e C 7.`.`.H.e.e.e.S.P.S.L n N N A Z N N Z Z N A } 6.e...B p p p p p p p e N D D B n n n n n n n n D  .,.6.' N n A P A N n n n n n n n n n n n n N N A D D D D B N N N N N S '  .' A ( [ [  .O.[ ' ( C C C B f C ] P B B B B B N p p p p y y a a y y y y N N N N N N N N N N N N N N N N N N N N N N N N B B B N N N B B B P ,.@.( D ( @.P B B B B A D ' ' P K q.%XkXjXP.q...#.Z.A.7.7.Z.Z.A.e.@.e.J...h B C ( ( ( { { { ( B f ) e.#.@.L u y d d f d d h g N N N N N N N f f f N N N N N p p p p n n B B n n n n f K 7.H.] A B ] Z.@.( C P P D @.H.7.' N N N N N n n f f N n n n e p f f p p f f _ P.jXnXnXnXvXjXjX@XJ...B p f B n e e e e e e e e e e e e e w q 0 0 0 7 7 7 7 7 0 q q w w w q q q q q q w w w w w w w w q r r r q q q q q q 0 0 0 0 q q 0 r r r r r i i r r r r r r r r r r r r r r r r 0 0 r r r r r r < < < < < < < < < < r r 1 ; ; ; ; ; 1 1 1 1 ; ; ; ; ; ; ; ; ; ; 1 1 1 1 ; ; ; ; ; ; ; < < < ; ; ; ; ; ; ; ; ; ; - - - - - - - - - ; r t a a a y t r ; - - - - - - - = = = - - - , , , - - - ; 7 r y a B B K K L L L L K a p i t r r < < , - , , & & & & & & & & & & & & & & & & & & & & & & & & & & & & & & & & & & & & & & & & @ @ @ @ @ @ @ @ @ @ @ @ @ @ @ @ + + O + @ k r.gXmXGXGXmXkX%XS.` l d y y d g h C K C g f ",
"Z S S J :.,.} H S S S S H W W S N M Z Z J J S Z N N M Z Z M Z M b b b b b N A ..P.gXcXmXZXZXFXFXGXGXmXhXP.q.] C D U N N N n N A U  .6.} A n n n n N n N n n n n n n A ' U A Z Z Z U 8.H.h.6. .P B e e e n @.L.L.@.T D D A P ..#.P n n N S D Z N N N N A ]  . .P n p a K L a p y B )  . .] B p p n n n n N U  . .' P N B ] 6...A n n n n n n n n n n n n N N A S D D A N N N N N N Z D D T T [ @.5.5.@.@.@.{ ' { { ( B C C B B B C B B p p B B y p y a a a f f a p p N N N N N N N N N N N N N N N N N N N N N N N N N N B B N B N P 6.6.] { { @.( D P P D ( ' { ' D ] P.jX%XS._ h f ( #.Z.f.Z.#.7.Z.e.7.Z.e.] C P ) { ) ( [ [ { ( B g ] @.@.7.#.{ L K g g C K C f N N N f p n N N N N N N N N p p p p n N N N N f N N p p f ] @.....{ ] @.@.@.6. .] ] 6.7...] B p p p p p p N N n n n n p B ..] f p B _ P.vXVXvX%X+XJ.S.J.H.e.7. .C B P N e e e e e e e q q q e e w q 0 0 7 ; 7 ; 7 7 7 7 0 q q q q q q w w w w w w w w w w w w r r r r r r r r i i r r r r r r r r r r r r r r r r r r r r r r r r < < < < < < 3 r r < < < r r ; ; ; ; ; ; ; ; < < ; ; ; ; ; ; ; ; ; ; ; ; ; ; ; ; ; ; ; ; ; ; ; ; ; ; ; ; ; ; < < < < ; ; ; ; ; ; ; ; ; ; ; ; - - ; ; ; ; ; ; - ; 9 t y p p t t r < - * * - - - - - - - - - , , , , - = - < r y a K P U U ] ] ..@...] L B a p t r r < < , , , - : & & - & & & - & & & & & & & & & & & & & & & & & & & & & & & & & & & % % % % & @ @ @ + + + + + + + + + + X + + X @ @ > z P.kXFXGXLXGXGXnXjX$XL.D.j.j.j.H.K.K.K.K.c.g.",
"Z Z Z Z S H S Z Z Z Z Z H J S Z N M N Z S S Z N N N M Z Z M b b b n N b b B @.+XkXnXjXgX%X@X@X%XgXkXmXZXmX%XS.I N N N N N N N D ' } 6. .D S A N N N N n n n n n n n A  .} U S Z Z J 6.H.H.7.' N e e e b B e.`.H. .D ' ' ' ] ,.@.P N n N Z Z N N n n n P 6.6.' B p K ..S.J.e.) f A  .@. . .P n n n n n n D  .5.,.U N n N U  . .B n n n n n n n n n n n n n N Z A D A N N N N N N N N N D ' @.5.h.f.5.5.H.7.@.{ #.@.( N B B B B B P P f p p p p p p p p p p f B f p p p n N N N N N N N N N N N N N N N N N N N N N N N N B B N B N A ] ' ( @.{ ' ) ' ..@.{ ' ' ' D B #.@X@Xq.K f f h ) Z.J.A.#.{ 5.Z.Z.7.7.] ( { @.7.@.] ' ( Y ( ( C B C ( { @.7.7...( C C C C f f N N N p p n n N N f N n n n n p p p p N N N N N N N f p f D 6.J.`.H.] { @.7.H.6.,.r.Z...P D N f f p p p p N N p n n p p ] Z...f f ) J.vXjXgXP.#.] P D C C P ] ..@.P B p e e e e e e e q q q q w w 0 0 0 7 7 ; ; 7 7 7 7 7 0 0 q q q q e w w w w w w w w w w i r r r r r r r r i i r r r r r r r r r r r r r r r r r r r r r r r r 9 r < < 9 < < < r < < < 9 < ; ; ; ; ; ; ; ; ; < ; ; ; ; ; ; ; ; ; ; ; ; ; ; ; ; ; ; ; ; ; ; ; ; ; ; ; ; ; ; < < < < ; ; ; ; ; ; ; ; ; ; ; ; - - - - ; ; ; ; - - ; r t t t r r < ; - * * * - - - - - - - - , , , , - - - > r t g L U ] ..6.e.r.H.e.6.] P B p t t r 3 < , , , - - & & - - & & & & - - & & & & & & & & & & & & & & & & & & & & & & & & % % O O & @ @ @ + + + + + + + + + X O X X X @ > 8 k 0.P.jXZXFXGXHXFXCXbXuXuXyXyXyXyXyXyXyXOXOXOX",
"Z Z Z Z Z M M M M M Z Z Z S Z S S N M M N b b M n n N Z N n b b n Z Z n N @.+XvXuX+XH.e.....@.7.e.S.P.*XvXvXgXe.B n n n N N N A S U  .} U J A N n n n n n n n n n b Z U U U S n N Z J } } P N e e y p n B 6.H.h.O.[  . .} ,.7.6.P N N N N N N N N n N A } ' N N L e.'.@X'.'.J.) f ) O.{ ] A n n m m n N D |  .' A N n B ' ' ' B n n n n n n n n n n n n n n N A A N N N N N N N N N N D 5.H.H.A.A.Z.f.Z.@.( C P L f B P C B B B B f p p p p p p p N N N p p p p e p y p N N N N N N N N N N N N N N N N N N N N N N N N B B Z Z N N B N D ( D D ( { 6.7.@.' ( D D D 7.L.e.K f y g ) { ..Z.Z.#.#.Z.Z.7...{ ....#.7.7...C D ( Y Y ( ( C C Y { O.5.7.@.( ) P f f f N N N N p p n p p p p p n n N N p p p p p n N N N N N N f f C 6.H.H...P P @.e.H.r.r.J.e.P N N n N f N N p n N N p p n n p P e.] B B #.@X*XL.q.) B N p e e N f N ] 6.] B p e e e e e e e e e q w w 0 0 0 0 0 0 0 0 7 7 7 7 7 7 0 q p p f y e w w w w w w w w w i r r r r r r r r i r r r r r r r r r r r r r r r r r r r r r r r r r r r r r 9 r < < < < < < < < ; ; ; ; ; ; ; ; ; ; ; ; ; ; ; ; ; ; ; ; ; ; ; ; ; ; ; ; ; ; ; ; ; ; ; ; ; ; ; ; < < < < ; ; ; ; < < ; ; ; ; ; ; - - , - , , ; - - - ; < 9 r r < < ; - - * * * - - - - - - - - - , , , - - = > 9 y f L P ] ..e.H.J.J.H.6...] B p p t r r < < , , & & - - - - & & , , & & & & & & & & & & & & & & & & & & & & & & @ & & & O O % % & % O @ @ + O + + + + + . # # # # j k 0.0.q.S.P.%XvXCXFXFXCXCXCXCXCXNXdXdXdXdXdXdXyXyXyX",
"Z Z Z Z M M Z Z Z Z Z Z Z Z H } ' S N M M M N N N N P ..6.] A b N Z N N { `.*X@XH.,.J H S Z S S S J | 7.J.+X@Xe.D N b n N N N Z Z S J S N Z N n N n n n n n n n n b n n N Z n n N n N N n p p f f p p p n ,.c.c.h.5.' W J '  .' D A Z N N N N N N N N N Z n n B ..H.Z.e.q.r.H.] f B A B B a a m n m n n B ' ' S n n n n A A B n n n n n n n n n n n n n n n N N N N N N N N N N N N N N ' @.7.H.L.K.7.{ P B L ..@.P C ( B B B B y p p p p p p N B f B B L B y e e e y p N N N N N N N N N N N N N N N N N N N N N N N N B B B B L L K C A V N V A P {  .' D D A A P 7.Z.] f y y f K K h _ Z.L.J.#...@.7.@.#.@.#.#...L f B P ( ' { { { { [  .O.5.7.@.{ @.( B N N N N N N p p n n p p p p N N N N p p p p p n n n N N N N p p B ] 7...P B B ] 6.H.H.H.7.P N n n N N f f N p p N p B P B n p B P B f L Z.@X`.@.P B p y e q f C p p C ..@.B p e e e e e e e e e q q 0 0 0 0 0 0 q r q 0 0 0 7 7 7 7 0 B ....L p w w w w w w w w w i r r r r r r r r i r r r r r r r r r r r r r r r r r r r r r r r r r r r r r r r < < < < < < < < ; ; ; ; ; ; ; ; ; ; ; ; ; ; ; ; ; ; ; ; ; ; ; ; ; ; ; ; ; ; ; ; ; ; ; ; ; ; ; ; < < < < ; ; ; ; < < < ; ; ; ; ; , , , - - , , - - - - ; ; < < - - - - - - - - - - - - - - - - - , , , - - - - < r p B L ] ..e.H.J.J.Z.6...] B a p t r r < < , , & & & & - & & , , , , - & & & & & & & & & & & & & & & & & & & & @ & & O O O O % % & O @ @ O O O X . # $ k x 0.w.w.C.P.gXhXkXkXnXnXCXCXCXCXCXCXCXCXCXdXdXdXdXdXyXyXyXwXwX",
"M Z Z Z Z Z Z Z Z Z Z Z Z S J } J Z M N S ' J Z Z ' H.+X@XJ. .J W | ' { J.&X+XH.} S M M b m m n b b M D { Z.J.7.D N n n N N N Z N Z Z Z Z Z Z n n n n n m m m n n n n n n n n n m n n n n A ..7...B p e n } 8.c.c.5.[ T  .,. .D S A N n n n N Z Z Z Z n n b n P 7.6.] D P ] ..' f f L _ q.q.q.0.I B p p n N Z N n n p p n n p p n n n n n n n n n n n n n n n N N N N N N N N N N N N N V D ) 5.f.7.7.7.......J.J...P C B B f p y e e p a p f B C B C @.e.] f e e e e p n n N N n n n n N N N N N N N N N N N N N N N N B B L ..V.S.S.q...P V V B B B A B N N N N ' 7.@.) g f f f g f h ..'.@XS.) ] #.Z.7.] L L L K f f f A P '  .@.@.O. .O.O.5.5.O.' ( A N N N N N N p N N N N p p N N p p p p n n p p p p p p N N f f p f D @.6.7...P P P P ] ] ] P N p p p p p p p p N f e f ] e.] n n p p p f P H.`.H.{ C B y q q q B B p e N P ..P p e e e e e e e e q q 0 0 1 1 0 q q q q w r r q 0 7 7 7 y ..r...B p p i w w i i w w 0 0 i r r r r r r r r r r r 0 r r r r r r r r r r r r r r r r r r r r r r r 3 < < < 9 < < < ; ; ; ; ; ; < < ; ; ; ; ; ; ; ; ; ; ; ; ; ; ; ; ; ; ; ; ; ; ; ; ; ; ; ; ; ; ; ; ; ; ; ; ; < < < ; ; ; ; < ; ; ; - - - - - - - - - - - - - - - - - - - - - - - - - - - - - - - - - - - - , , - - - - = - ; r a B P ] ..7.e.e.7.7...] C p p t r 3 < < - - : : & & & & - , , , , & & & & & & & & & & & & & & & & & @ @ & & O O @ @ @ @ O O @ @ @ O O X X . # $ x w.fXhXcXcXmXmXGXKXKXLXGXGXFXFXCXCXCXCXCXdXdXdXdXyXyXwXwXwX=X=X=X=X",
"Z Z Z Z Z Z H H H S Z Z Z Z Z Z Z M M Z } ,.J Z S 7.@X*X@X`.H.h.,.| | h.`.`.h.' Z n n p i i i i w w p A ] @.7.@.D N n n b n n N Z Z m Z S J S M n n n n n m n m n n n n n n n n n n n n A ..r.r.7.L p n N J ,.H.`.K.g.5.7.h. .D A Z N n n n N N N n n n n n n P 6.} D D '  . .P L q.P.*XvXvXvXgXP.q.L p n n b b n n p p p p p p n n n n n n n n n n n n n n n N N N N N N N N N N N N N N A  .7. .' { ,.5.,.@.@.@.( B B B f p y p e e p p p f B B B ) e.H.@.C e y e e p n n N N n n N n n N N B N N N N N N N N N N N N N I S.%XhXgX*X@XL.7.( A B N N D ' D N N N ' 6.7.{ ) ( ( C h h h ] S.Z...K K ) #.e.) f f f f f a p B C P { @.@. .O.O. .| ' P A B N N N N N N n n p p p p p p n n p p p p p p p p p p p p p p p p p p P e.r.H.6.{ ] P N f N N N N p p p p p p p p f f e B e.H...B n n p p f C 7.H.7.' ] ( f a y 0 y p y y B P @.] a e e e e e e e q q 0 7 7 ; ; 0 q q w w w w w q 0 7 7 7 a ..@.P B B p i w w i i w 0 0 0 r r r r r r r r r r r 0 r 0 r r r r r r r r r r r r r r r r r r r r r r < < < < r r < < ; ; ; ; ; ; < ; ; ; ; ; ; ; ; ; ; ; ; ; ; ; ; ; ; ; ; ; ; ; ; ; ; ; ; ; ; ; ; ; ; ; ; ; ; ; < < ; ; ; ; ; ; ; ; - - - - - - - - - - - - - - - - - - - , - - - - - - - - - - - - - - - - , , - - - - - = - ; r y a B P ] ..@.@.@.] P B a i t r 3 < < - - - - - - : : - , , , & & & & & & & & & & & & & & & & & & @ @ & @ O O O O @ @ @ O O @ O X X X # $ x w.fXcXJXKXPXPXPXPXPXPXPXPXLXLXGXHXCXCXCXNXdXdXyXwXwXwX=X=X=X=X/./././.",
"W J Z Z Z Z H J J H Z Z Z M M M M M M N S S A N D @.H.K.K.`.+X`.7.W | H.H.7.[ V n p i i 1 3 9 7 0 0 i B '  .@.{ D A n n n n n N Z Z M M Z Z Z M n N n n A U } A n n n n n n n n n n n n U e.e.6. .B e e n U h.`.{.K.j.8.4.5.| D A N n n n N n n n n n b n n n A }  .}  .6.7..._ S.gXcXnXvXvXvXnXmXgXS.L n n b e e e p p n p n n n n n n n n n n n n n n n n n n N N N N N N N N N N N N D ' f.5.' ' [ [ { { ' { @.P B B f p y p y p p p p p f N N B { 7.5.' B f y q e p n n N N N N N N N N N N N N N N N N N N N N N N C S.gXkX@XL.S.Z.Z.Z.@.P A B N D { P N N N P @.@.@...{ X.) ) ) ( { ..{ ] K ] ] ] P h f f f B L f f f B B C P P P ' [ ' D A B B B f N N N n p p p p p n p p n n n p p p p p p p p p p p p p p p p p p B @.e.e.] @.@.] B p p p N N N p p p p p p p p p e f ) ..] B n n p p p B @.f.5.{ @.] g f g y 0 0 0 q B ] 6...B e e e e e e e q 0 7 7 ; ; 7 0 r w w e e e w w q 7 7 7 r P ....] P B p i i i i w w 0 0 i r r r r r r r r r r 0 r r r r r r r r r r r r r r r r r r r r r r r r < < < < r r r r ; ; ; ; ; ; ; ; ; ; ; ; ; ; ; ; ; ; ; ; ; ; ; ; ; ; ; ; ; ; ; ; ; ; ; ; ; ; ; ; ; ; ; ; ; ; ; ; ; ; ; ; ; ; ; ; - - - - - , - - - - - - - - - - - - - - - - - - - - - - - - - - - - - - - - - - - - - - - - ; < r t p a L P P P P B p p i t r 3 < < - - - - & - : : : & , & & & & & & & & & & & & & & & & & & & @ @ @ @ O O + + + @ @ O X X X # $ k x w.fXhXJXKXPXPXPXIXIXIXIXIXIXPXPXLXGXHXCXCXdXdXyXwXwX=X=X=X/././.Q.Q.Q.W.W.",
"H H Z M Z H J J J H S Z Z Z Z M M M N N A ] q.e.S.P.L.L.L.L.K.H.,.~ ,.H.8.| D f p t a a r t u 9 7 7 0 a P ..7...P A n n n n N A Z m M M Z Z Z Z n Z Z Z m U  .U A n m m n n n m n n n n ] e.6.6. .A b b N ' 7.H.K.c.j.j.h.h.5.' J D N n N N n n n n n n n n b n U ..,.6.,. .] J.gXvX%XP.S.S.G.P.%XgX@Xe.B n p e e e e p n n n n n n n n n n n n n n n n n n n n N N N N N N N N N N N D  . .7.@. .5.,.| ( ( (  .] B B f p p y e p p p p p p B B N D 6.H.5.D N y y y y p N N N N N N N N n N N N N N N N N N N N N N N N ] '.gXP._ L l h ( ..7.{ C B B B B B N N N B ( { @.#.@.{ ) @.#.#.@.{ ] ( ] @...( g f f f f B B a p f N N N N N N B D B N N f f f f f f f p p p p p p n n p n n n p p p p p p p p p p p p p p p p p p f B K L B ..@.] B p y p N N f p p p p p p p p p e y f g f p p p p p y f { 5.5.{ ) g y g ) g q 0 0 q f P ..] B e e e e w q q q 7 7 ; ; ; ; 0 r w w w e e w q q 0 7 7 7 a @.H.e.P p w w i i i 0 w 0 0 r r r r r r r r r r r r r r r r r r r r r r r r r r r r r r r r 9 r r r < < < < r r r r ; ; ; ; ; ; ; ; ; ; ; ; ; ; ; ; ; ; ; ; ; ; ; ; ; ; ; ; ; ; ; ; ; ; ; ; ; ; ; ; ; ; ; ; ; ; ; ; ; ; ; ; ; ; ; ; - - - - , , - - - - - - - - - - - - , , - - - - - - - - - - - - - - - - - , , , , , , - , - - - - - ; r t a a B a p a y y r r r < < - - - - - - : : : : & & & & & & & & & & & & & & & & & & & & @ @ @ @ O O @ + + + + X # $ x x C.fXfXcXJXKXPXIXIXIXIXIXIXIXIXIXIXPXPXLXGXHXCXNXdXyXwX=X/./././.Q.Q.Q.W.W.t.t.t.",
"Z Z H H H S S S Z Z M M M Z Z Z M N D ..S.P.gXvXnXmXmXnXvX*XL.Z.4.4.8.c.8.| A B f g a u t u u t 9 7 0 0 y P ....A n n n n n B A Z n n n Z Z n n N A S S N S }  .6...A b n n n n n n n n B K K A B n N P ' | 5.H.{.`.K.K.K.H.g.<.[ T V n N n n p n n n n n n n b N D ' ' P P Z.*X*XL.#.) K C K ) q.J.`.J.] f p p p n n n p p n n p p p n n n n n n n n n n n n n n n N p p n N N N N N U { ' { O.5.7.5.,.O.O. . .P B N p p e e e p y p p p p B B B C @.5.( N p y y y p p N N N N N n n n N N n N N n N N N N N N N N N B 7.`.S.) g p y y f C @.7.( B B N N N N N N N B C { #.7...#.Z.Z.Z.7.] K { @.7.e.{ g f f f f g a a f B C C B B N N n N N N N N f f p p n n p p p p e e p p e e p p p p e e p p p p p p p e e e e e p p p e p p p B C B N p p p f f p p p e p p n n n p e e e e e e e e e y y y ( 5.5.{ B y y g K y r 0 0 y y B P P p e e e e q 0 0 0 0 0 ; ; ; 7 0 q w w w w q w q q 0 7 7 ; r L 7.@.B p q q 0 r r w w w q r r r r r r r r r r r r r r r r r r r r r r r r r r 3 3 r r r r < < < < ; ; ; ; < ; ; ; ; ; ; ; ; ; ; ; ; ; ; ; ; < < < ; ; ; ; < < < < < < < < ; ; ; ; ; ; ; ; ; ; ; ; ; ; ; ; ; ; ; ; ; ; ; - ; ; ; ; - - - - - - - - - - - - = - - , , , - - - - - - - - & & , , , , , , , , , : : : , , , , & - - & - , > > > 9 r i a B B f a p y r 9 ; - - - - - - - & & : : : & & & & & & & & & & & & & & & & & & & O O O O O @ + + @ # j x C.fXhXJXKXIXIXIXIXIXIXIXIXIXUXUXUXUXIXIXPXPXLXHXHXNXdXyXwX=X(././.Q.Q.W.W.t.t.t.;.;.;.",
"S H } ~ H Z Z Z M M M Z Z Z Z Z N ( Z.@XjXnXvXvXvXjXkXnXnXvX*X`.8.8.8.8.,.W A P B g a t t t t r r y y y l _ @.] B n n n n n B A Z n n n n n n n N Z Z Z n S @.H.`.J.] n b n n n n n n n p p n n p n ] H.H.6.8.K.{.{.{.{.).K.h.5.o.W D N N n p p n n n n p p n n e b n n p ] '.@XJ.] N e q q q p B U 7.H...g a p p p p e p p n p p p p p n n n n n n n n n n n n n n n p f f B N N N N D ' A D  .7.H.H.5.6.7. .D B N n p p p p p a a p p p y f B B B L P V n p y y y p n N N N N n n n n N N n n n n N N N N n n n N N P H.`.@.f e e q y f C ..7.( B B N N N N N N N B B K { @.7.Z.Z.7.@.{ ] ] { @.e.Z.) f f f f f f K I _ ] ..@. .} ] ' A N N N N N f f p p p p p p p p e e p p e e p p p e e e p p p p p p e e e e p e p p p p p p p p p p p p p p p p p e e e e e e e n n p p e e e e e e e e e y ( f.7.[ A y y y y y a l K a y C C f e e e e q q 0 0 0 0 0 0 7 ; 7 0 0 q w w w w q q 0 7 7 7 7 0 a I ] a q q q 0 r r w q w r r r r r r r r r r r r r r r r r r r r r r r 0 r r r r 3 r r r r < < < < ; ; ; ; < < ; ; ; ; ; ; ; ; ; ; ; ; ; ; < < < < ; ; ; ; < < < < < < < < ; ; ; ; ; ; ; ; ; ; ; ; ; ; ; ; ; ; ; ; ; ; - - ; ; ; < - - - - - - - - - - - - - - , , , , - - - - - - - & & & , , , , , , , , : , : : , , : : & & & & : : > > > > r p B C L C B f y y r 9 9 ; - - - - - & - , : : & & & & & & & & & & & & & & & & & & & O O O O O @ O @ j 0.C.hXJXKXIXUXUXUXUXIXIXIXIXUXUXUXUXUXUXUXUXIXPXPXLXHXCXsXaXwXqX(.(.Q.Q.W.W.W.t.t.;.;.;.;.;.",
"H J } J H S Z Z Z Z Z Z H Z Z M ( H.*XjX*X@XL.J.S.Z.Z.J.L.L.J.7.,.2.8.8.:.W D C p y r t a t r r r y y a h ] ..P B n n n n n n n n n n n N n n S Z n n n n A 6.r.6...A b n n n n n n n n p p n n n B @.`.`.7.c.K.L.{.{.`.).K.H.h.5.O.' D N n p p p p p p p p p p p p p e n @.'.J...N p p r r r r p p P 6...B y p n n p e p p p p p p p p n n n n n n n n n n n n n n B ) q.q.q._ B N N D ( A D D ' @.6.5.5.,.' N N N p p p p p p f f p y p p p f B B f B f f y p y y p N B B N N n n n n N n n n n n N N N n n n N N N ] H.H.@.C f e y f f C ( ..K B B N N N N N N N N f g ) Z.L.e.{ P ( { 7.7.] ..@.@.K f f f f f I q.J.J.Z.Z.7.6.,.6.6. .D B B N n n p n n p n p p p p p p p p e e p p p p e e p p p p p p p p p p p p p p p p p p p p p e e e e e e e e e e e e e e e n n p p e e e e e e e e e p ( e.7.( A C f f f f L ] ..K a C C f e e e e 0 0 7 7 0 0 0 0 7 7 7 7 0 q q w w w q q 0 ; ; 7 0 r l e.e.L r q w 0 r r q q q r r r r r r r r r r r r r 3 3 r r r r r r r r r r r r 3 3 r r r r < < < < ; ; ; ; ; ; ; ; ; ; ; ; ; ; ; ; ; ; ; ; < < < < ; ; ; ; < < < < < < < < ; ; ; ; ; ; ; ; ; ; ; ; ; ; ; ; ; ; ; ; ; ; - - ; ; , , - , - - - - - - - - - - - - - - - - - - - - - - - - - - , , , , , , , - , , : , , : : : # # : : : : : > = > t a K K ) #...] L f y y y r 9 ; - - - & , : : : & & & & & & & & & & & & & & & & & & & @ O O O & O @ j w.hXJXPXIXIXUXUXUXIXIXIXIXUXUXUXUXUXUXUXUXUXIXIXPXLXGXFXNXdXyXwX=X(./.Q.W.W.W.t.t.;.;.;.;.;.$.",
"S H ~ } J J H S Z Z Z Z Z M N ' H.@X@XL.Z...] ' ' ' ' ' {  .O.o.:.2.8.c.6. .' D f e q p p a a g f f a f f f B B p n n n n n p n n n n n Z n Z U S n n n n n U } A n n b n n b n n n n n p p n n n B U 7.6.,.8.H.K.`.`.{.{.{.{.).K.h.,.' N N p p p p p p p p p B I ....) L ..J.6.D p p p r 3 3 1 0 q B { ..B p B A B n p p p p p p p p p n n n n n n n n n n n n n B ..J.@X'.P.H.{ B N D D D D A N A C D D D N N N N p p p p p N B C B y p y f B f f h _ 0.0.L p y y p N N N a y p n n n N N n n n n N N N n n N N N P ..7.5.{ ( T D A P P ( P ] C B B N N N N N N N f f g #.L.L.#.] ..] { 7.7.@.7...( C g f f f L S.*X*XL.e.#...]  ... . .] A B N n p n p n n p p p p p p p p p e e p p p p e e p p p p p p p p p p p p p p p p e e e e e e e e e e e e e e e e e e e e n p p p e e e e e e e e e e B ] ] ] { @.) { { ( ( ( ..] C ( ( B e e e q 0 7 7 7 0 0 0 0 7 7 7 7 0 0 q q q q 0 0 7 ; ; ; 0 r L e.7.I a r 0 0 0 0 q q q r r r r r r r r r r r r r < r r r r r r r r 0 r 0 r r 3 3 3 r r r 3 < < < ; ; ; ; ; ; ; ; ; ; ; ; ; ; ; ; ; ; ; ; < < < < ; ; ; ; < < < < < < < < ; ; ; ; ; ; ; ; ; ; ; ; ; ; ; ; ; ; ; ; - - - - ; ; , , , , - - - - - - - - - - - - - - - - - - - - - - , > > > , , , , , , , - , , , , , : : # # # # # : : # > > 8 k l I ..G.+X@X+XJ.e.#.#.] L p r 1 ; - - , , : : & & & & & & & & & & & & & & & & & & & @ O O O & O : k C.cXKXIXIXIXIXIXKXKXKXKXIXUXUXUXUXUXUXUXUXIXIXPXPXLXHXCXNXdXyX=X=X(./.Q.W.W.t.t.;.;.;.;.$.$.$.",
"S H J J H H S Z Z Z Z Z M Z } J.@X`.e.] D N D D ~ | | :.2.3.s.c.s.4.4.g.8.6.O.' ' D D D B D D B L L P ] U B p y p n n n n n n n n n m m n n n n n m n n n n n n n n n n b b b b b b b b n n n n n n A D W | 4.c.K.).{.{.&X&X&X&XXX).h. .S n p p p p p p i i B ..J.+X+XL...,.6.U B B a a a r 3 1 0 0 f ( ] B p B A B n n p p n n p p p p n n n n p p p p n n n n n P S.L.S.....7.@.P N A D D B N N N f N N N N N N B N p p N N B ] ( B f f B C ( C g _ P.gX%Xq.B f B B N p p y y p n n N N N N n n n n N N N N N N N D {  . .5.5.O.W T ' { ] K P B B B B N N N N N N B f f ) S.Z.@.S.P.Z.@.@.@.{ ] C f f h g f h q.@X*XP...) ( P B K P K P P P B N n n p p p y y e e e e e e e e e p p p p p p e e e p p p p p p p p e p e e e e e e e e e e e e e e e e e e e e e e e e e e y y e y f f f p p f e e e f ] H.H.7.5.A.H.Z.Z.#.,.....] C p e e e q 0 0 0 1 0 q q q 0 7 7 7 7 7 7 0 0 0 7 7 ; ; ; ; 0 r t I ....L r 0 r r r i i r r r r r r r r r r < < r r r < < < r r 7 1 0 0 0 0 3 3 3 3 1 1 1 < ; ; ; ; ; ; < < ; ; ; ; ; ; ; ; ; ; ; ; ; ; ; ; < < < < < < < < < < < < ; ; ; ; ; ; ; ; ; ; ; ; ; ; ; ; ; ; ; ; - - - - ; ; - - ; - - , - - - - - - - - - - - - - - - - - - - - - - - - - - - - , , - , , , , - , , , : : : @ @ # # @ # # # $ k x w.P.P.P.R.jXnXCXnXvX*X@XXX`.H.,.' N q 1 ; - , , , - & & & & & & & & & & & & & & @ @ & & & & O @ @ : : j 0.P.hXcXJXcXhXhXhXcXJXKXIXUXUXUXUXUXUXUXIXIXPXPXLXGXFXCXdXaXwX=X(./.Q.W.W.W.t.t.;.;.;.$.$.$.$.",
"Z S H S Z Z S J S S Z M M U H.XXJ...S M M Z W | ,.4.4.c.c.m.m.c.c.c.s.s.c.c.g.5.5.5.5.,.{ ' D B D ' ] 7.6.] B p p p n n n n n n n n A n n m n n n n n n n n i e b n n n b i i i b b b b n n n n n n Z S W | 4.h.K.).{.&X&X8X*X&XXX).j.O.D p p p p p p i i p ..J.J.S.H.H.6.,. .P P B a p t i t a a y B P P f p p n n n n n p n n p p p n B n n n p p p n B B n n n ] Z.#.P B A P ' A N B P P C B N N N N N N N N B D D B N N N N C A B A P P C ( ( K _ +XhX+Xq.B B ( P N p p p y p p n N N N N n n n n D D N N N N n N D { @.7.7.O.o.[ ( ( { @.] K B B f N N N N N N N f f h ) ..{ e.S.e.{ ( ( K g f f g C C g ) J.@XS._ g y f B a p a p p a B B B n p p y y y y p p e e p e e e e p p p p p p e e e p p p p e e p p e e e e e e e e e e e e e e e e e e e e e e e e e e e e y p B ] @.{ ( P D P N e e f ..L.Z.Z.H.).`.`.{.`.H.Z.H.] f p e e e e q 0 0 0 0 0 q q 0 0 7 7 7 7 7 7 7 ; ; ; ; ; 7 7 0 0 r t l L t r r r r r i i r r r r r r r r r r 9 9 9 r r < < ; 3 r 1 1 0 0 0 0 3 3 3 3 1 3 1 < ; ; ; ; ; ; < < ; ; ; ; ; ; ; ; ; ; ; ; ; ; ; ; < < < < < < < < < < < < ; ; ; ; ; ; ; ; ; ; ; ; ; ; ; ; ; ; ; ; - - - - ; ; - - - - - - - - - - - - - - - - - - - - - - - - - - - - - - - - - - , , - - , , , , , , , , : : @ @ @ # # $ j x w.C.gXcXGXGXmXmXFXFXCXCXCXvXvXuX-XXX_.c.8.} D B i 1 - - - & & & & & & & & & & & & & & @ & & & & & O @ : : : : j k x w.w.w.C.fXcXKXIXUXUXUXUXUXUXUXUXIXIXPXPXLXGXFXCXNXdXyXqX=X(./.Q.W.W.W.t.;.;.;.$.$.$.G G ",
"F Z Z Z Z Z J U H S M M Z ,.`.J. .Z Z S J ^ 2.4.c.m.!.!._.).[.).!.m.m.m.N.N.c.g.g.g.h.6.,.O.[ D ( { P L L B p e p p p p p p p n n n A n n m n b n n n n n b b b b b n b b i i i b b b b b b b n n N S J } :.4.h.K.`.XX&XuXuX&XXX`.K.h. .V p e p i i i i i B ..e...' {  .'  .' A B a t t i a K L L B A D P P P D n n n n n n n n p p p n n n n n n p p n A B n n N ' 5.{ D C D T D B B B B B B N N N N N N f N N N B A P A B N B N B A P  .' B P ) K ) q.S.Z.] B B P D N p a y y p p n N N n n n n n N D P N N f n N N B D ' @.5.h.h.O.@.Z.J.`.L.e.) B f N N N N N N f f f ) @.@.{ ] ) ] ( C C K C f f g g f C #.J.Z...P a r r p t r r r r r p f B f p p p p y y p p p p p p e e p p p p p p p p e e e e e e e e e e e e e e e e e e e e e e e e e e e e e e e e e e e e p e p B 7.`.J.@.( D C ( A f e e C ..Z.`.).{.{.XX+X@X`.e...B e e e e e e q q q 0 q q q q q 0 7 7 7 ; 7 ; 7 7 ; ; ; ; r r r r r r 3 < < 3 r r r r i i i r r r r r r r r r 9 9 r r r r < r t t r ; 0 1 0 0 3 3 3 3 3 3 r r ; ; ; ; ; ; ; < ; ; ; ; ; ; ; ; ; ; ; ; ; ; ; ; < < < < < < < < < < < < ; ; ; ; ; ; ; ; ; ; ; ; ; ; ; ; ; ; ; ; - - - - ; - - - - - - - - - - - - - - - = = - - - - - - - - - - - - - - - - - - , , , - , , , , , , , : : # @ # $ x 0.w.C.fXcXmXKXPXPXPXPXLXGXFXCXpXuXuXyX-X&XXX.X_.!.c.8.,.} A i 1 - - & & & & & & & & & & & & & & @ & & & & O O @ : : : # $ $ j j x C.hXKXIXUXUXUXUXUXIXIXIXIXIXPXPXLXGXFXCXNXdXyXwX=X(.(./.Q.W.W.t.;.;.;.$.$.$.G F F ",
"Z Z M Z Z H U U H Z M M H 8.).8.W J W ^ >.4.c.m.).[.[..X.X.XOX.X.X[.[.).).!.c.4.g.c.c.g.5. .' D D D N e w w e n n p i i p p p n m n n n n m n b b b b b i b b b b b b b b i i i i i b b b b n n n Z J ' } ,.h.K.`.{.&X*XuX&X+X{.K.H.5.[ D L L B n i i i i m }  . . .:.:.'  .' A B B L L a p a a f N C ' ] ' P P N n p n n n n n p p p p n n n p p p p p n n n n Z J ,.5.@.O.{ ' D N B N N N B B B N N N N f N B N B C ( C B B B f C P C ( P D ' ' P C K ) ] { P B B f p p p p p y n n N n n n n n p n N N N N f p N N N f B ' 7.H.H.H.+X*X*X@X@X+XJ.] B f N N N N N f f K S.'.Z.] ) { @.( C _ @.{ P g f f f ) e.e.] ] ] B t r r r r 0 r r i p p N f p p p p p y p p p p p p e p p p p p p p p p e e e e e e e e e e e e e e e e e e e e e e e e e e e e q e q e e e e e e e n ..L.`.e.K f p f P { A B K f B @.K.`.{.XXXX`.`.Z.P p e e e e e e e q r r r q q q q q q 0 0 7 7 7 ; 7 7 ; ; 7 7 r r r r r r 1 ; ; 3 r r r r i i i r r r r r r r r r < 9 r r r r r L ..I a r 1 1 0 0 3 3 3 3 3 r r r ; ; ; ; ; ; ; < ; ; ; ; ; ; ; ; ; ; ; ; ; ; ; ; < < < < < < < < < < < < ; ; ; ; ; ; ; ; ; ; ; ; ; ; ; ; ; ; ; ; - - - - ; - - - - - - - - - - - - - - - = - - - - - - - - - - - - - - - - - - - , , - - , , , : , , : : @ @ # k w.fXhXmXJXKXKXPXIXIXIXIXPXLXFXCXuX-XXX.X_._._.!.Q.9.9.9.9.9.9.:.U n 1 - - & & & & & & & & & & & & & & & & & & O @ : : : > $ $ $ $ j z C.hXKXIXIXIXIXIXIXIXIXIXIXPXLXLXGXFXCXbXdXyXwX=X=X(.(.Q.Q.W.W.t.;.;.$.$.$.$.F F F ",
"Z Z m m Z H J H Z Z M Z } c.c.>.&.>.2.4.c.!.!._.[..XOXOXOXOXOXOXOXXXXX.X.X.X).N.c.H.c.8.4.5. .' D N e e p N A D B n i n p n n n n m m n n n n n p p i i i p p p n n n b i i b b n n b b b b n m M S J ' ,.8.H.`.{.&X-XuX-X&X+X{.{.K.A.Z.Z.e.6...P n e w e n } 8.r.6.6.6.U ' ] P P ' ..] P B B p p n B ( ] P B N n p p p p p p n n p n n p e e p n n p n p p n n N D ..e.7.5. ...D N N N B N N B B N f f n n n B B B B B f f f f C @.@.P A U U P ' ] P B B B C N p a p y y p p p p n n N n n n n n n n n p p N N N f f f f N A  .7.Z.@XjX@XH.#.#.e.H.e.P N N N N N N f f ] '.*XJ.q.e.H.e.) ..J.Z.@.] L g f C ..7...C C B a r < < r r 7 r p p a B B f y e e e p p e e e e e e e e e e e e e e e e e e e e e e e e e e e e e e e e e e e e e e e e e e f L L a y q e e e e e e P H.J.e.K y p y y D @...7.r.] f B ] 5.Z.H.H.@.] K p q e e e w w w q q q w w w w w w q q q 0 0 0 0 0 0 0 0 1 0 r r r r r r r ; ; < r r r r r r r r r r r r < < < < < 9 9 9 9 9 9 u q.J...K r r 1 1 1 3 r r < < < r r ; ; ; ; ; ; ; ; < < < < < < < < ; ; ; ; ; ; ; ; < < < < < < < < < < < < ; ; ; ; ; ; ; ; ; ; ; ; ; - - - ; ; ; ; - - - - ; ; ; ; < < - - - - , , - - - - - - - - - , , , , , , , , , , , & & - - : : : : : : : : : : : @ : @ > 0.hXJXKXKXPXIXIXIXIXIXIXIXPXGXCXbX-X.XQ.Q.Q.Q.t.9.;.;.&.&.;.9.9.8.8.} m i 1 - - & & & & & & & & & @ @ @ @ @ @ @ @ : : : > > > # # # # j 0.fXhXJXKXKXKXLXLXLXLXLXLXGXGXFXCXNXpXyXyXwX=X=X(././.Q.Q.W.W.;.;.&.$.$.$.G F F F ",
"Z Z Z m M m Z Z Z Z Z } 8.c.2.^ *.2.4.c.!.!._..XOXOXOXOXOXOXOXOXOXXX.X.X[.).).c.8.4.,.,.O. .( B y q e n N D D A n i i p n n n n n n n n n n n n e e i i p p p p n n b b i i b i n n b b b b n m M S J | 2.h.H.).XX&X&X-X-X&X&XXX`.`.{.+X`.Z.,.,.@.U n p n n U 6.6.6.@.U B A  ... . .] ] ,.5. .D B P B D B N n n p p p p p p p n p p n n p p e n n n n n p p n n n B D ] 7.Z.6. .A N N N N B B B N f p f B B B N B f f g g g g g P e.e.U U ' D A D P D B B B f p p y y y y y p N n n n N n n n n n n n n p p p N N N p f N B N B ] J.*XP.#.h y a B ) ..P N N N N N N N N B #.J.L.'.`.Z.) ) Z.J...K L ( P C P @.@.( B f a a r 0 < r r r r r p a P B f y e e e e p e e e e e e e e e e e e e e e e e e e e e e e p e e e e e e e e e e e e e e e q y I S.J.S...K y q e e e e p ..`.H.@.L y p y e B 7.J.L.J.] N y y f B K B a e q q w e e e w w w q q q w w w w q q q q q q 0 0 0 0 0 0 0 0 q r r 0 7 7 7 7 ; 7 r r r r r r r r r r r r r r < < < < r r 9 9 r r u ..e...L t 3 < 1 1 < < r < < < 9 < ; ; ; ; ; ; ; ; < < < < < < < < ; ; ; ; ; ; ; ; < < < < < < < < < < < < ; ; ; ; ; ; ; ; ; ; ; ; ; - - - - ; ; ; - - - - ; 3 3 r t r ; - - - , , - - - - - - - - , , , , , , , , , , , , & & - - : : : : : : : : : : : @ : : : k C.fXhXJXKXIXIXIXIXIXIXPXLXFXCXyXXX!.Q.t.9.9.;.;.&.$.$.$.$.&.:.2.8.2.U A b 1 - - & & & & & & & & @ @ @ @ @ @ @ @ : : : > > > # # # # # k x C.P.fXgXhXhXkXkXkXkXcXvXvXbXpXyXyXyXwXwX=X=X(././.Q.W.W.t.;.;.&.$.$.G G F F F ",
"M M M M M m Z Z Z Z J 8.c.4.>.*.>.>.4.c.!.)..XXX=XOXOXyXOXOXOX=XXX.X[.).m.x.<.| W J S A D B f y y y e p n A N p p i p p p p p p b n n n n n b b p i i i p p p p n n b b i i i i b b b b i n n n M Z W ^ 2.s.c.K.).`.XXXXXX+X{.`.).`.`.H.7.] ] 6.e...B p p i n P U P A n n n P  .6.6.,.6.H.H.@.( @.r. .B e e e e p p p p p p p p p p n n p p p p n n n n n n n n n N N L 7.Z.@.D N B B N N B B N f p B C A B B L _ 0._ _ 0.0.0._ I ) ( D D P D B P ] P B B f f a p y y q p p N B N n n N n n n n n n n n p p p p p p p N D C N N ] J.J.#.` K y q q B ] P B N N N n n n N N B P ..e...] ( #.J.Z.) B L ( L B C { { C B C B B a r r r r t r r r a P P f y e e p N B y e e e e e e e e e e e e e e e e e e e e e e e e e e e e e e e e e e e e e e q I P.kXgXS.#.#._ f e e p p p ..H.e.7.] f B y p ] e.H.7.] B p q q q q q q q q q q w w e e w w w w q w w w q q q q q q q q 0 q q q q q 0 q r r 9 7 ; ; ; ; 7 r r r r r r r r r r r r r r r r r 9 9 r r r r 7 0 r L q.S.q.u r ; ; ; < < < < < < < < ; ; ; ; ; ; ; ; < < < < < < < < ; ; ; ; ; ; ; ; < < < < < < < < < < < < ; ; ; ; ; ; ; ; ; ; ; ; ; ; - - - - ; ; - - - - ; r a B B a r 7 ; - - - - - , , - - - - , , , , - - , , , , , , & & - - : : : : : : : : : : : @ @ # # > j x w.fXKXIXIXUXIXIXIXLXGXCXuXOX_.Q.t.9.;.;.&.$.$.$.G G F G G $.:.;.:.%.G v 2 - - & & & % & & & @ @ @ @ @ @ @ @ : : > > > > > # # # # 8 k k z x 0.0.0.0.0.q.V.S.L.{.OXOXwXwXwXwX=X=X=X/./.Q.Q.W.t.;.;.&.&.$.$.G G F F F ",
"M M M M m Z Z Z Z Z J 8.8.2.2.4.4.4.c.m.!._..XXX=XOXOXOX=XOXXXXX.X).!.c.x.4.| E Z Z N n p p p B K h p p e e p p p i p n n p p p b n n n i i b b p p p i i p p p n n n b i i i i b b b b i n b b M J :.h.`.).K.H.c.H.K.K.H.H.H.H.K.H.7.' B N B U  .K n p e e e n n n n n n n n U 6.r.H.H.J.Z.,.6.`.`.e.D e e e e p p p p p p p p p p n n p p p p n n n n n n N N N N B ( @.@.( B P B N B C P B p f f B P D K _ C.gXhXgXgXkXkXkXgXP.S._ ) ]  .] B L U B B f a p y y y y y B B N N n n n n p n n n n n n n p p p p p p N P ,...C N { H.#.{ #.{ B p y L { ] B N N N n n n n N N p f B B A { 7.Z.e.] P ] ] L f B P P C C ] ] P B r 0 r r y r r r p P P N y y e p N N f y e e e e e e e e e e e e e e e e e e e e e e e e e e e e e e e e e e e e q g V.gX%XS._ l _ e.] a e p p p P 6.e.7.....] ] ] 7.H.r.P p y e e p p e e q q q q q e e e e w w w w q q w w w q q q q q q q 0 0 q q q 0 q 0 r 9 7 7 ; ; ; 7 9 r r r r r r r r r r r r r r r r r r 9 r r r r 7 0 ; t I ..I t 7 ; ; ; < < < < < < < < ; ; ; ; ; ; ; ; < < < < < < < < ; ; ; ; ; ; ; ; < < < < < < < < < < < < ; ; ; ; ; ; ; ; ; ; ; ; - ; - - - - ; ; - - - - 3 t L L P K a r ; - - - - - - , - - - - , , , , - - - , , , , , & & - - : : : : : : : : : : : @ @ @ # > > j 0.fXJXPXIXIXIXIXPXGXFXNXyX.X!.Q.9.;.;.&.$.$.G G F F F F F G $.$.:.:.%.F v 2 - & & & % & & & @ @ @ @ @ @ @ > t k k k l k u 8 8 8 k k k k k s 8 8 6 6 6 8 k K  .g.)..XoXoX=X=X=X=X/./.Q.Q.W.t.;.;.;.&.$.$.G G G F F F ",
"m m m M Z Z M M M Z J :.,.:.4.c.4.4.c.m.!.)..XXXXXOXOXOXXX.X.X_.).!.c.g.4.>.^ E S Z n b p p B ] ] B p i w w p p p p n n i i i i n m B n n n b n n n n n n i i i i i i i b b b i i i b b n n N Z W h.`.&XuXuX&X`.N.c.g.8.5.,.,.,.5.@.D N N n p n B n p p e e e e p n p p p n n n K U  .....] ] ..e.7.P f e e e e p p p p n n n n n n n n n p p p p n n n n N D A N N D { e.#.@.] @.] B B P ' B f N N D ( ..S.fXmXKXLXKXKXKXKXKXKXGXcXgXR.G.#.( B B B g a a a y r y r q f L B N p n n p p y y p p p p p p p p p p p p N P 6. .B f ( 5.[ Y K K P D C ] { ] B N n n n n n n p f p f p p B ( { ..7.#...7...P B P C C P ] { ( f a a y q p y r r r p B B f y f y e p p y e e e e e q q e e e e e e e e e e e e q e e e e e e e e e e e e e e e y e e L S.P.q.l g K ] r.e.P f y y a a L 6.6.6.e.Z.H.H.7.....B p e e e e e e e w q q q q q q w w w w q w w w w w q q q q w w w w q q q q q q r r ; ; ; ; ; ; ; r r r r r r r r r r 3 3 r r r r r r r r r 7 7 0 r 0 0 1 0 r u r ; 7 7 7 7 9 < < < ; ; ; ; ; ; ; ; ; ; ; ; < < < < < < < < ; ; ; ; ; ; ; ; < < < < < < < < < < < < < ; ; ; ; ; ; ; ; ; ; ; - - - - - - ; ; - - - ; r a L P P K a y 9 ; - - - - - , - - - - , , , , & & & & & & & & & & & & : : : : , : & & & & & @ : > 8 k k k _ C.gXmXJXKXLXLXGXFXCXuX=X.XQ.t.9.;.&.$.G G F F F v v v v F F $.$.;.;.%.G v 1 - & & % & & & & @ O O @ & > l _ q.q.q.q.q._ ) l l I I I L l u 9 ; = = ; 7 a D } 4.!._..X.X.X.X.X/./.Q.Q.Q.t.9.;.;.&.&.$.$.G G F F m m ",
"M m m m M M m M M Z H ~ ~ ~ >.4.4.4.z.c.!.!._..X.X.XXX.X[.).).!.m.c.4.4.:.} W W ' Z n e p p L ] P l k k l u p p p n n p i i i i n m m b n n n n i i p p i i i i i i i i i b b i i i i e m J } ,.c.XX-X-XuXvXuXXXc.3.>.| W J S S D A n n n n p p p p n n e e e e i p e e e p n n p p p B n n n B B K l l l d y e p n p p N N N N n n N N n p n p p n n n n N A N N N ( H.'.L.7.] @.7.] B B B B N N A @.S.@XmXGXLXLXLXGXGXGXGXGXGXGXGXFXFXvXP.] C B g a a u t r r 0 y g B B f p p p p p e e p p p p p p p p p p p n p f N C B p f ( 5.O.Y C ( [ [ ( ] ....B n n n n n n p f a p p n N N f f C ..@.] ] P B f B B B C ] ( B q a C B f p q y q q p B B p p f e e e e e e e e e e e q e e e e e e e e e e y f a y e e e e e e e e e e e e e e e e e P Z.#.K C #.Z.J.L.H.e...L p p e a ] 6.r.H.J.J.7.L a a p p e e e e e e w e w w q q q q w w w w q q w w w w q q q w w w w w q q q q q 0 r r ; ; ; ; ; ; 0 r r r r 7 ; ; < ; 3 3 3 3 r r r 9 r r 3 r 7 ; r r 0 0 7 0 7 9 ; 7 7 7 0 7 r r < < ; ; ; ; ; ; ; ; ; ; ; ; < < < < < < < < ; ; ; ; ; ; ; ; < < < < < < < < < < < < < ; ; ; ; ; ; ; ; ; ; ; - - - - - - ; ; - - - ; t B L L L K g a r ; ; - = - - , - - - - , , , , & & - & - - & & & & & & : : : : : : & & : & @ > k I _ 0.0._ 0.0.0.w.C.fXhXnXCXvXuX-XXX!.Q.t.;.&.%.G F F F F F v v v v F F $.$.$.&.&.%.G m 1 - & & & & & @ @ @ @ @ & 8 _ S.P.+X@X+XL.S.#....._ .._ L l t r ; ; 7 9 r a C } 8.c.!.!.!.!.Q.Q.Q.Q.Q.W.t.t.9.;.;.&.&.$.$.G G F F m m ",
"M m m m m M M M M M Z H ~ &.2.4.4.4.s.c.m.!.!.).).).).).!.!.m.c.s.4.2.| ~ W J J J Z N n p f I q.V.S.P.P.C.C.0.L p p n i p i i n A A m n n n n b e e i i p p e e i i b b i b i i i i i b n H :.c.XXOXXXXX&X-X&X`.4.^ W S Z Z Z N N N n n n n n p p p n n e e e e n n n n p p p n p p p w e p e p I q.P.P.P.q.I a p n n p N n N N N N N N N n n B B B n n n N N n n N ] Z.Z.@.) ( @.Z.@.P B N N N V ( S.jXZXGXGXFXFXnXvXjXgXjXjXvXvXnXnXnXnXjXG...K g a u t r r r y B ] ( C B N p e e q q q q p y p p p p p p n n n f p N N N f f ( 5.5.+.X.X.O.7.@.] { ] B n n n n n L _ .._ L p p n n p p N P K f p f f B P P B C ] ) A B P ) ( A f f p q y a L B y y e e e e e e e e e e e q q e e e e e e e e y K ..e.@.] f e q q e e e e e e e e e e e e e L #.{ { 7.L.+XZ...] ..r.@.K y q y a U e.H.r...K p e e e e e e e p e p i i w w w w q q q w w w q q w w w w q q q q q q q q q q q q q r r ; ; ; ; ; 7 0 r r r r 7 7 ; ; ; ; < 9 9 9 r 3 9 9 9 < 3 3 7 ; ; 7 7 7 7 7 0 0 9 7 7 7 0 0 r r r r ; ; < ; ; ; ; ; ; ; ; ; < < < < < < < < ; ; ; ; ; ; ; ; < < < < < < < < < < < < < < ; ; ; ; ; ; ; ; ; ; - - - - - - - - - - - ; r a B B B B B a r - ; - = - - - - - - - , , , , - , - - - - , , & & & & : : : : : , : & & & > k q.P.P.'.P.P.P.S._ k k _ S.+X-X-X-XXX_.Q.t.9.&.$.G F m m m F m v v v v F F $.$.$.$.:.;.:.G m 1 - & & & & @ @ @ @ @ @ > I S.+XgXjXgX@XL.Z.#.....] ] L f p r r 0 9 9 7 9 u B ' | ,.,.>.:.:.&.&.2.;.;.9.9.;.;.;.&.&.$.$.G G F m m F ",
"m m m m M M m b m M Z S ~ :.8.c.c.4.4.c.c.m.m.m.!.!.N.m.c.c.s.4.2.,.| | W J S S Z N N B ) q.P.gXvXnXcXmXmXmXgXP._ a p p i e i n A B b i n n n p e e p i b n p e b b b b b b i i i i n A Z Z J 2.).).)..XXXXX).H.8.7.5.W M b b b n n n N N N n n p p n n e e e p n n n n p e e e p e e e i p p _ P.gXgXgXgX%XS.L p p p p n n n n n n N N N N B  .6.] B n n n n N N N D ] ] ) ..#.Z.Z.Z.@.D B N N Y V.%XZXFXZXvXjX&X{.`.K.H.H.).`.{.XX+X@X*XjX*X'...g a u l g y y f ( @.{ ) D B e q q q q q q p y p p p p p p n n n n n N N p f f A @.Z.H.A.5.7.Z.7.] P B N p n p p _ S.@X@XL.e.P N n n N N N B f y y p f B P P B B C C D ' ' D ( Y A C C f p L P f y e e e p y e e e e e e e q e e e e e e e q q g e.+X'.H.@.( p e e e e e e e e e e e e e e e B { O.7.`.+XS.L f y h ..e.] y q q q p L U L p p p e e w e e e p f p p p r w w w w r r w w w q q q q q q q q q q q q 0 0 0 0 0 q q r 9 ; ; ; ; ; ; 0 r r r r 7 ; ; ; - ; ; < 9 9 9 3 3 9 9 9 < < < ; ; ; 7 7 7 ; ; ; ; ; ; < ; 0 0 r r r r ; ; < < ; ; ; ; ; ; ; ; ; < < < < , < - ; ; ; ; ; ; > > > > > < < < < < < < < < < < ; ; ; ; ; ; ; ; ; - ; - - - - - - - - - ; ; r p B B B B B a r ; ; - - - - - - - - - , , , , - , , - , , , - - - & : : : : : , : : & = 8 l _ P.*X@X@X*X@XP.e.I 9 ; y { f.H.)._.!.9.9.;.&.$.G F m m m m m v v v v v F F $.$.$.$.$.;.;.:.G w - * & & & @ @ & = = = > l q.P.@XgX*X@XJ.e...) ] P L B n p p p p r 7 = @ = ; r y a p e e b b M F G %.&.:.;.;.:.&.&.$.$.G G F m m m ",
"m m m m m m m n M Z Z S J :.2.c.g.4.4.4.c.c.c.c.c.c.h.g.4.4.3.>.>.>.| } W W J S Z N B ] L.jXnXnXjX*X%XgXkXmXZXcX@X0.a p w w e p n n e e p i p i e i i i b b n b b b b b b b b b b b A :. .J J ^ 4.c.!.)._.).c.c.).`.H.' N N b e n B A A P D A n n n n n e e e e n n n n p e e e i i i p p p P J.@XR.S.q.S.J.P...p p p p n n n n n n n n n B U ,.e...A N n n n N Z A P ' @.@.Z.L.J.Z.H.Z.@.D N D e.%XVXCXvX*X+XK.c.4.4.2.2.2.2.2.2.4.5.h.K.{.*X*XZ.K g g ) _ h y C K ] { ] ( C p p q q q p p p p p p p p p p p n n n n n n p y f f ] e.H.J.H.H.H.@.P N p p p p p ) P.*X+XS.Z.#...C f f f N B N f p p f N B B B B B N N B A B D ' { ' ( ] ] D B p y e e e p p p p e p p e e e e e e e e e e e e y ..'.+Xe.] P P B e e e e e e e e e e e e e e e p ( 5.h.`.H.) y 0 q y h ..] a q p q q p p y q r i w w e e w i p U P p q q q q w w i r q q q q q q q q q q q q q q r r r r r r r r 7 7 ; ; = = ; 9 r r r r 9 ; ; = = - ; ; 7 7 9 9 < < < < < < < < < < < < < < < ; ; ; ; ; ; ; ; ; ; < < < ; ; ; ; ; ; ; ; ; ; ; ; ; ; ; > < , > ; = = 6 = - - = = = = > > < ; ; ; < < < < ; ; ; ; ; ; ; ; - - - - - - - - , - - - - - - - < r a g B g a t r ; ; - - , - - - - - - , , , , , , , , : : : : & : : : & & & & & & : & > _ r.e.S.P.L.L.'.'.Z...K 9 = = y h P ] ' } :.} ~ J S M n b i i i i v v v v v m F F G $.G $.&.;.:.G b 1 & & & & @ = t l u 8 > 8 I q.J.P.P.J.e.] ) K B B B B A A P P B a 9 = @ O O @ @ @ O O @ % - 1 i i m H J :.:.:.:.&.G G G G F m m v ",
"m m m m m m m M M Z F G H J } }  .O.5.g.j.j.j.j.A.j.h.g.4.3.2.>.:.| ~ W W W W J S D @.`.jXjX*XR.Z.#.#.e.S.P.%XgXgX'.] p w w e e e e e e p i i i e i i i b b n b e e b b b b b v v b U ,.:.J H ~ >.2.4.c.c.4.2.,.8.7. .T '  .D N A P U P P P A n n n n e e e e e n n n e e e e e i i i i i n ..`.S._ K B K ) #._ f e e p n n n n n n n n n B P ] ..] B N N N N N n A A D ] #.e.#.#.) @.H.Z.) ( Z.*XnXnXjXXXK.c.4.:.&.&.~ ~ ~ ~ ~ ~ E E W ,.j.`.{.L.@.B B K K g f B C ] @.@.] B B B y q p y p y p p p p p p p p n n n n n n p p f B ] 7.Z.Z.H.Z...K B f p p p p B e.@XP._ l d K P P N e e N f p p p p f B B B f N B N N N N N '  .6.@.{ @.@.P p p e e e e e p B B N B N y e e e e e e e e e e q p 7.'.r.P N p N B p e e e e e e e e e e e e e e e B { 5.H.7.P y 7 0 q g ] ] a q q q q q q q q r r w w w q q i i L B B r r q q w w i r q q r q r r q q q q q q q q r r r r r r r r ; ; ; = = > 9 r r r r < ; ; = = = ; ; 9 9 9 9 9 < < < < 9 r < < < < < < < 9 < < ; ; ; < ; ; ; ; ; < ; ; ; ; ; ; ; ; ; ; ; ; ; ; < < ; > , = , = = 6 8 k k j > > > > > > ; ; 1 1 < < < < ; ; ; ; - ; ; ; - - - - - - - - , , - - - - - - ; < 9 y t t t r ; ; ; - - - - - , , - - , , - , , , , , : : : : & & : : & & & & & & & & 8 0.J.q.I I I ..e.e...] P g 9 @ @ = = 7 0 p B D S Z N p i i r r r i i i w w b m F G G G G $.:.2.2.:.A i - & & & & u I .._ l 8 > 8 l _ _ _ _ L h g a a p n A P '  . .] L y > @ X X               o O - < i n A J U U U J J H H Z m m m n ",
"m m m m m m m M Z Z F S H J ' | +.f.A.K.L.L.Y.Y.L.L.J.H.h.5.,.,.} | ' W W W W W D [ H.&X&XL.q.) g f N D P ) _ q.J.`.e.B w w e e e e e e p p i i e e i i i i e e e e e e b e e i b b n A S W :.2.:.:.:.:.:.~ ~ J D D W O.,. .D N D U P D A A A n n n n e e e e e n n n e e e e e i i i i i B 6.H.] p e e p B P L p e e e n n n n n n n N B B A ..6.] B n N N N N N N Z ( e.L.J.#.) V C { @.{ Z.@XnXvX-X`.h.4.,.| ~ G G F S H F S S S Z Z W ,.h.H.`.H.P B B g f B C C ] @...K y a a q q y y y e e p p p p p p p n n n N N n p y B { { ) ( ] ....L B N N n n p e B e.J...u 7 q y A ( N e e e e p p p f N B f B f N B D D N N D  .Z.`.Z.] L B N p p e e e e e p B B B B N e e e e p L P B e e e e p ..Z. .D B p B D f e e e e e e e e e e e e e e e p B ) 7.@.L a u y y K ....f q q q q q q q q q q q q q q r r r i p p q y q q q w q r r t u u y r q q q q q q q q r r r r r r 0 0 ; ; = ; ; 9 9 r r r 3 ; ; = = = ; ; 9 9 9 9 9 9 < < < < r r r r < 9 < 3 9 r r r ; ; ; < ; ; ; < ; ; ; ; ; ; ; ; ; ; ; ; ; ; ; < 3 < < ; = = > 8 k k 0.C.P.C.C.0.0.I u 9 ; ; ; ; < < < < ; ; ; ; - - ; ; - - ; - - - - - - - - - - - - - - - ; 9 r r r ; ; ; ; ; = = = - - - , , , , - - , , , , : : : : & & & & & & & & & & : & > I _ l 9 9 9 t L P ' { @.@.I 8 @ + @ O @ ; y f B f a y r 3 3 3 r r r r 0 4 i b m G F G G G :.8.r.r.,.A 1 - & @ > l ..e.q.) t = > > > 8 8 8 8 9 9 r t p p A ]  .6.6...] K r , O X                 o o & , 3 i n B A A A A A n n n i i i ",
"m m m m m m m M M Z Z S J | 5.Z.L.{.@X%X*X*X*X*X*X@X+X{.L.H.h.5.| | ' ' W W E E ' 5.`.`.H. .D N p p N N p p p B ] e.e.L i w i i i e e e e p e p p p e e e e e e e e e e b b e i i i b n D ,.6.8.} ~ J J H S Z Z N N P 6.4. .D N N A B N N N n n n n e e e e e e e e p e e p e e i i i i i B ,.,.D N n p p A D B p e e e n n n N N n n n n B B P U A N N N N A ( ] D S ..`.@XL.7.{ T ) 5.@.@.{.vXjX@XJ.,.| ^ W J H Z M m m m m m m M n b Z W o.5.H.J...D B B f f g ( ..{ ) B a y y y y y y y e e p p p p p p p p p a K I I g y f P C C K q.J.L.e.L p p p n p p B 5.6.P y e p B D P B p p e e p p p f N N f N N N N B B B B A ..'.*XL.] f e e e e e e e p p p p p e p p e e e p P e.e.] p e e e p P  . .' D B P ' f q e e e e e e e e e e e e e e p p C 7.7.] ] ..) K ] 7.] p q w q q q q q q q q q q q q r i i 0 q q q q q q r w i r a _ q.q...L y q q q q q q q r r r r r 0 0 0 ; ; ; ; 9 r r r 9 < < > - - ; > ; 9 9 9 9 9 9 9 < < < < r r r r < r r r 9 9 r r ; ; ; ; ; ; ; < ; ; ; ; ; ; ; ; ; ; ; ; ; ; ; < < < < > = 8 k 0.P.P.hXmXGXGXmXvX*X+XS._ a 0 ; ; < < < < ; ; ; ; - - - - - - ; ; - - - - - - - - - - - - - - ; ; 9 r r r r 0 0 7 ; = = = - - , , , , - - , , , , : : : : & & & & & & & & & & : : : > 8 > = > < 9 y B ' ,.Z.H.q.I 8 > # @ @ & ; y a a y y 9 < < < < < < < 3 1 r i i B m A A G } 8.r.r.6.P i - & & > l ..q.#.I 9 @ @ : @ @ @ @ # > 9 9 r y p A ] 6.6.6.6. .P a r , O O X X         X X o O O & - < r r t t a t r r r 3 < ; ",
"m m m m m m m n M M M H | 7.K.+X%X8XjXvXvXvXvXvXvXjXjX*X@X+XL.h.5. .[ ' W W W W ,.g.j.5.| E S S A B n p p n N n A ] ..K p w i p p p p n B B D D A B B n e e w w e w w q e e e i i i e p Z U U J U ' U Z Z n n b b n D ,.6.@.D n p n n n n n p p p e e e e e e e e e e i i n i n i e i i i B }  .| | [ ' U D J Z p e e p n n N N N n N N B B n N N N N N N D @.H.H.,.' 6.`.`.H.Z.5. .7.`.A...L.*X`.7.' S J S S A N n e 0 i i i b b b n n N S W  .7.H.e.] B N p f h ..@.) K K ) g y y y y e y f p p p p p p p p y f _ S.J.S...K f N N P q.@X@XJ.e.P p n n p L ..] @. .' A V D P ' ( N p p e p N p p B p p p p p p n n n n n N P J.@XH.] B y e e e e w e p n p e q q e e e e e p ..e...P B p e e e N ] 6.7.@...@.P p e e e e e e e q q e e e e e w p B B ] @.@.7.J.Z.#.#.#.L p i i w w w w w w q q w w 0 0 q q q q 0 0 0 0 q q q r i i 0.@XhX%XP.q.L i r r 0 0 0 0 r r r r 0 0 0 0 ; ; ; 9 r r r r 3 < < - - ; > > < < < 7 ; ; ; ; ; 1 ; ; ; ; ; ; ; ; ; ; ; ; < ; ; ; ; ; ; ; < < ; ; ; ; ; ; ; ; ; ; ; ; ; ; ; ; < , < 9 k 0.P.hXmXGXGXGXGXFXnXvX-X-X*XJ.] a t 3 < < ; < ; ; < ; - - - - - - - , - - - - - , , , - - - - - - = ; < < r t p a g K l t > - - - , , , , - , & & - - & & & & & & & & & & & & & & & & & & & @ & > > 9 t p P ..Z.H.e._ l u u u t 9 7 9 y a u y y 9 9 9 > > > > = , , > < r t i i p B P ] ] P B r , : @ & 8 L ) I u = @ O O O O O + # > 9 9 r r p B ] @.6.6.8.,.] P m t > @ + @ @ + + # + + + + O o @ @ & & = , > > = = = = = = ",
"m m m m m m m b M Z J  .H.L.$X8XvXnXnXmXZXZXZXZXnXnXvXvXjX*X+XL.A.5. .[ ' ' [ | ,.5.<.| ^ ~ W E D D B N f N B Z A P P B p y p B L P ] ..@.7.7.7.,.@.] D A L ] ] L p q w w q w w i i w e e b b N A D A n n n b b e n N D ( D n e e e e p p p p p e e e e e e e e e e e e i n i i i e e i i n D ,.8.h.h.5. .' D n e e p p p n n n n n n N A A B n N N N N D O.7.H.7.O.6.H.H.7.@.@.@.@.Z.K.H.Z.Z.J.5.C n n S S N n p i 0 1 1 1 1 3 i i r i p b A ] 5.Z.H...V N f f g K ) ) K K L g y y y e y f f y p p p p p p p a _ '.@XP.S.S...B N N ( S.'.Z._ ) P N n n f q.+X+XS.5. .| | ' ' ] P p p p p p N p p p p p p p p p n n n n n n B U ..U P B p e e q q q w p p p e q e e e p p e p ] @.P ( D p e e e p P 7.J.J.e.{ B e e e e e e e e q q e e e e e q a ] P L 7.H.J.L.`.`.J...a p i i q q q q w w q w w 0 0 0 q q q q 0 0 0 0 q q q 0 w a S.kXgXS._ _ ] B p i 0 0 q 0 r r r r 0 0 0 r < 9 < 9 r r r < < < - - - ; > > < 9 9 9 9 9 9 9 r r r < ; ; ; ; ; ; ; ; ; ; ; ; ; ; ; < ; ; < ; ; ; ; ; ; ; ; ; ; ; ; ; ; ; ; ; > > 9 z P.kXGXLXLXLXGXFXvX*X+X{.`.`.`.).6. .] L t < ; ; ; ; ; < - - - - - - - - , - - - - - , , = = - - = - - = ; ; r y B ] #.r.e...l 9 , - , , , , - - & & - - & & & & & & & & & & & & & & & & & & O O @ & - ; r p D  .5.7...K g l l L l u 9 9 y d g d d u u y 9 > > > @ @ @ @ @ & > > > > 9 r y y y r 9 > > @ @ & 9 t 8 = @ O X X X X X O @ > > 9 9 r r a P ] ..,.,.:.} U L a < > > > > 8 8 8 8 > # + + X X + O O @ @ @ + @ @ + + @ @ ",
"v v m m m m n N S Q 1.H.{.*XjXnXnXZXFXFXFXZXFXFXZXZXnXnXvXjX*X+XL.Z.5.O.O. . .,.,.,.o.o.o.o.| [ W ' ' ) { { ' D D D D D D D ) { #.Z.H.J.J.L.J.J.H.Z.7.@.@.Z.`.`.r.] B e q r r r w q i w e w e n e e e e e e e e e e e e e e e p e e e e p p p p e e e e e e e e e e e e e i e e e e e i n p n  .h.H.H.7.@.P n e e e p p p p n p p n n n N B N N N N N N ' ,.O. . .,.H.L.H. .( [ #.L.{.H.H.+XJ.7.' p p n n B p i 0 0 1 1 1 ; ; 3 < ; ; < t a K L { 7.e.) f f K ) l l l l K g u y q q e q q e e q q q q q q q i K S.+XS._ I ] ] B f f P #.7.....Z.7.K n n K S.kXnX@XZ.7.6.5. .( C N y p e e e p y p n N B n p p p n n n n n p p n B p p p e e e e w e e e p p e e e e e p p e p P @.@.P p e e e e e N ) 7.6.] B e e e e e e e e e q q q q q q q q p B B f ] Z.L.'.L.'.@Xe.B p i q q q q q w w w w 0 w 0 0 0 w q q 0 0 q 0 q q 0 0 r L S.+XS.l u a L ] L a r q q q r r r r 0 0 0 r r r r r r r 9 < , , , , - > > < 9 9 9 9 9 9 9 9 9 9 9 9 ; ; ; ; ; ; ; ; ; ; ; ; ; ; ; < ; ; ; ; ; < < ; ; ; ; ; ; ; ; ; ; ; ; ; > 9 l S.cXKXLXLXLXGXnXvXXX).c.4.2.:.:.:.,.8.r.r...a < ; ; ; - - - - - - - - - - , , - - - - , , = = = = = = = = ; ; r a ] e.L.'.'.J...l < , , , , , , , & & & - & & & & & & & & & & & & & & & & & & O O O @ & < a a B '  .{ C y 9 r a K l y 9 7 y g l L L l h d 8 6 > # + . . . + + + @ > > 6 9 7 7 7 7 9 > > & @ @ @ @ @ O o O X X X X X X + # > 9 9 9 0 r p K ' }  .} ' U A a t 9 > 8 8 u l l l u 8 6 # + + X X X O O . . + + + + + + ",
"v v v v m n Z S | d.K.XX*XvXnXnXFXFXFXGXGXGXGXGXGXZXZXnXnXvX8X@X+XL.A.7.5.5.5.5.5.5.,.,.1.1.O.O.<.5.h.A.L.L.H.O.[ { O.@.5.5.h.A.L.{.{.+X+X+X+XL.L.J.A.A.J.+X@X`.H.@.( C ) _ _ L p q w w w w e e e q q w e e e e e e e e e e w p e e e e e e p e e e e e e e e e e e e e e 0 e e e e i i i b p B ' ..5.{ D N e e e e p p p p p p p n n n n n N N n N N D  .,.,.| | 6.H.J.7.' [ X.f.L.`.Z.Z.`.`.7.L B B B p p r ; ; r r r ; - - , 9 8 k 0.w.P.P.S.q.S.G.` ) q.S.G.Z.#.) I ) K y r q q q q q q q q q q 0 q q 0 r P S.Z.{ Y D B B y p f C  .7.Z.J.J.Z...A n B q.R.%XS.@.6.7.6.' B y e e p p e e f p p N B D B p p p n n p n p p p p p p e e e e e e p n p p e p p p p p e e p e e p P ] B e e e e e e B L P P B y e e e e e e e e e q e e e q q q q w e p p a K ..e.#.q.S...a i r q q q q q w w w i w w 0 0 0 q r r 0 0 0 q q q q 0 r l e.e.P a y a L ....K r q q q r r r r 0 0 0 r r r r r r 9 ; < , > , , - > > > - - - - - = = - - ; ; ; ; ; ; ; ; ; ; ; < < < < ; ; ; < ; ; ; ; ; < < ; ; ; ; ; ; ; ; ; ; ; ; ; > 8 q.R.mXLXLXLXLXFXvXXX!.9.2.&.G G G G J } 8.r.r...a 3 ; - - , - - - - - - - - - , - - - - - , = = = = = = = = - < r g ..J.'.@X@X`.e.I t , - - - , , , & & & - & & & & & & & & : & & & & & & & & & @ O O O - t L K N D ' ( C q 0 t g K a r 7 7 y g K ) ) ) K l d 8 > # + . . . + + # # 8 8 8 8 9 6 = 7 9 > = @ O O O O O O O O X X o o X X X # > 9 9 r 7 0 r p D U ' ' U D B a r 9 > 9 8 u l l l g d y 6 6 # + + + + + . . . + + + + + ",
"v v v m M Z ~ 2.c.).XX-XvXvXCXFXFXFXGXGXGXGXGXGXGXZXZXZXnXvXjX*X@X{.K.H.H.j.h.h.5.5.5.5.5.5.5.5.h.K.K.H.D.j.h.h.A.K.{.{.{.{.{.{.$X*X*X*X*X*X%X%X+X'.L.L.L.L.H.e...[ ' #.J.+XP.Z.l q q w w q p p a a p i e e e e e e w e e e e i e e e e e e e e e e e e w w w w 0 0 w w e w w 0 e e e e e e e e n n B n p e e e e p p p p e p n n n n n n n n n n n n B ' O.5.,.|  .{ ..] ' 7.@.{ #.Z.Z.Z.J.J...a a a t r < - = 9 y y 9 < - > k 0.C.P.hXmXGXGXmXgX%XR.S.P.gXgXP.S.S.` ) L a y r q q q q q q q q 0 0 0 0 q q q L #.O.O.O.' D B p y p B  .6.H.H.....r.] N B K _ _ L B C P P N p e p p p e e e p p p N p p p N p p n n n p e e e p e e e e e e e p B D B p e e e p N N p e e e e e p p p e e e e e L 7.r.P B D B y e w e w w w e e w w w e w e e w w q r r y y a B a a L a p p w w q q 0 r q q q q r r q q 0 r r r 0 0 q 0 0 0 q 0 r l @.6.' B f p L @.7.L r q q q r r r r r r r r r 9 3 3 3 ; - - = = = = = = - = = , = = = = = = = = = ; ; ; ; 0 7 ; > - , > > > < ; ; ; ; ; ; ; > < < < > > > > < < > < < < ; ; > d #.R.cXGXLXLXGXvX&X!.9.2.&.J G G S Z Z H U U 6.r...t ; - , < - , , - - - - - = = = = - - - - - - - - - - - - , < r a ..J.+X@X+X'.S...u < - - - - - - - - - & & : & & & & & & & & & & & & & & & : > : O O : t I L a p C D D N p f P P K y r 9 y l K ) ] ) ) K l u 8 6 # # + + # > 8 u k k u 8 9 6 6 8 9 = = @ + O O O O O + @ @ @ + O O O X + > 8 t t t 0 0 p N J U U P A n r 9 = = = 6 8 u k l l g d u 8 8 6 = # + @ + + + + + + . . ",
"v v m m Z ~ 4.!..XOX-XuXvXCXCXFXFXFXGXGXGXGXGXGXGXZXZXZXnXnXjX8X*X+X{.`.`.K.H.H.j.j.j.j.j.j.j.A.H.K.K.H.j.j.K.{.XX&XuXuX&X&X*X8XjXjXnXnXnXnXnXnXvX@X+XL.J.Z.5. .[ { 7.H.L.L.S.q.K y q q q u I 0.C.C.q._ g i p i i i e w e e e e e e e e e e e e e e e e w w w w 0 0 w w w w w w e e e e e e e e b b n b b e e e e e p p p e e p n n n n p n n n n n n N D  .6. . .,.{ T C ) 5.@.{ @.A.A.X.] ] a 9 > > , , , , , 9 9 9 9 ; > z P.gXmXZXGXGXGXGXGXmXmXvXjXvX%XS.0._ _ ) ) L a r r q q q q 0 q q q q q q q q q w B { @.5.5. .] P p i p B B P ] P B B ] B n n p p p e p p p p p p p p p e e e e e p p N B p p N p p N N n p e e e e e e e e e e N B N N n p e e e e e e e e e e e e e e w e e e w p ..`.J.K p N B y e w e w w w w w w w w w e e e w w i i r r q q q q q r p B p w w q q 0 0 q q q q r r r r r r r t r r q 0 0 0 0 0 0 a ] e.6.' P ] ] ] L a r q q r r r r r r r r r 9 9 3 r 3 ; - = = = = = = = = > , , , : = = = = = = = = = ; ; 1 ; < - - = = > > < ; ; ; ; ; ; ; > < < < < > > > < < > < < < ; ; k ` q.V.P.cXGXGXCX-X).z.9.&.G H m m m m m m m A U 8.r.U r ; < , - , - - - - - - = = = = - - = - - - - - - - - , , , < t P r.`.'.'.L.H.] a r 3 < , - - - - - - & & : & & & & & & & & & & & & & @ @ > 8 > @ O @ > a K a p p D P ' ( P P P L B a a g L ( ) ] ] ) ) I l d u 8 8 6 6 6 8 u k l k 8 6 6 8 8 8 8 > # + @ O O O O + @ > > > > & + O X @ 6 8 u g a p y e n S U U D A p r < - & @ @ = > 9 t a g l l g d u 8 6 # + + + + X X . . . ",
"v m M Z ~ 4.!..X=XwXyXpXvXCXCXFXFXFXGXGXGXGXGXGXFXFXZXZXnXnXjX8X*X&X&XXX{.`.).K.H.H.K.K.K.K.K.K.K.K.K.K.K.).XX&X&X&XuXuXuXuXuXvXvXnXnXFXFXFXFXFXmXjX+XJ.H.7.,. .O.7.H.H.Z.Z.#.{ K y q y I S.R.hXcXcXkXgXS.L i i e e e e e e e e e e e e e e e e e e e e w w w w 0 w w w w w w w i e e e e e e e e b b b b b e e e e e e e e p p n n p p p e p n n n n n B ] 6.,.6.7...( V C @.H.e.7.Z.@.( C L I a < < r > , , , 9 9 ; ; 7 l P.nXZXmXvXvXgX*X%XgXgXgXjXvXjXP._ l l ) ) ) ) f p p p y 0 0 0 0 r i i i i i i i i p ( @.5.7.6...K i p p N p p p p p p p e p p p p p p p n p p p p p p p e e e e e e p f B p p p p N B D N p e e e e e e e e e e B B p p p p p e e e e e e e e e e p n p w w e e e p ] H...a 0 q y B p e e w w w w w w w q w e e w r r p B p q q p y q q q p p p i w q q r r q q q q r r r r r t l 0.q._ L r 0 0 0 0 0 r L 7.Z.Z.e.H.7.K r 0 q q q r r r r r r r r r 9 9 9 r r ; - = = = = = = = = > : : : = = = = = = = = = = - ; ; ; - - = = - = > < ; ; ; ; ; ; ; > > ; < < < > > < < > < < < ; 9 _ P.G.` _ P.jXvX*X.Xc.9.&.~ S m v b b m b w w b A  .r.7.g 1 ; - - - - - - - - - = = = = = = = = - - - - - - - , , , - r a ] r.J.J.H.#.] B a p t 9 , , , , , , : & & & & & & & & & & & & & & & @ O : > > @ O O & > t y p p D ] ..5.@.( P D C C C C ( ( ) ) ) ) ) ) ) l g d d s 8 8 8 u k k u 9 > > 8 8 8 9 > @ @ @ O O O O @ : > 8 t 8 > @ @ O + > 9 a l K g a p p N A P P A N p 9 * % @ @ @ = 9 y u g h K l l d s 8 > + + + . X         ",
"b M Z E 2.!..XOX=XwXyXpXvXCXCXFXFXFXFXFXFXFXFXFXFXFXZXnXnXvXjX*X*X&X&X+XXX{.`.`.K.K.K.K.).).).).).).).K.).XX&X-X&XyXuXuXuXvXvXbXbXnXnXvXvXvXvXvXjX@XL.H.H.7.6.,.7.Z.H.H.H.Z.7.O.) f f _ P.jXcXcXjXgXjXcXgXe.a w e e e e e e e e e e e e e e e e e e e e w w w w w w w w w w w e i e e e e e e e e b b b b b e e e e e e e e p p e e e p e e p p p p p n N D  . . . .' D B A { Z.7.@.5.[ Y ) Z.J._ r u u 9 > > , > ; - ; l S.vXnXjX@XL.H.7.7.7.#.e.r.S.J.+XL.#.) ) e.@.{ L f p p p p 0 r a y p p p p p p p p p p f P ] @.] L p i p p p p p p p p p e e e p p p p p p n p p p p n p p e e e e p p p p N f f p p N A B n e e e e e e e e e e e p p p p p p p p e e q q q e e e e e p w q w w e q e P @.{ C y y f P B p e w w w w w w w q q w w r r r p a y q q p p r r y q q w i q q q r 0 q q q q r r r r r I P.gX@XP.e.L r 0 q q q q p P e.J.L.J.] p 0 0 q r r r r r r r r r r r 9 9 9 r r < ; = = = = = = = = = = : = = = = = - = = = = ; - ; ; - = = - - - = > < ; ; ; ; ; ; ; > > ; ; < < > > < < > > > < ; 9 _ P.P.q.k z Z.L.K.c.4.:.&.H Z m b i b v i 4 i i i U 6.e.] t ; ; - - - - , , - - = = = = = = = = - - - - - - - - , , - < r a P ] ....{ ] P L B f t < , - - - : : & & & & & & & & & & & & & & & & O @ : : O O O O & ; r p B B ] ,.r.7.{ P D ( ( ( ) { ....@.X.O.#.#.#.) ( l l l l d u u u 8 > > # > > 8 6 > # + @ O O O O O @ : > 8 8 8 > : @ O @ = 9 u l K g a p p p B A D D B p r ; ; = = ; 9 r u g g h l l l d u 8 > # + . . .         ",
"m M E 2.m.[..XOX=XyXyXdXNXCXCXCXFXFXFXFXFXFXFXFXFXVXnXnXvXjX8X*X&X&X&X+XXX{.`.).K.K.K.`.).).).K.K.K.K.).{.OX&X6XuXuXuXuXuXuXbXbXbXlX8X8X*X*X*X@X+X{.K.H.h.6.5.6.7.Z.H.H.h.5.O.[ [ C ` L.*XgX%XP.q.q.q.P.@XS.L q w e 0 w e e e e e e e e n e p n p p p p i w w w i 0 0 i i i i i e e e e e e e e e e e e w w e e e e e e e e e e p e e e e e p p p p n A B N A B D N N V A ' @.@.{ { @.( Y @.H.Z.L 9 t t t t 9 < 3 1 ; t q.*XvX*XJ.7. .W S S N N A D '  .Z.`.J.@.@.7.@.P N p p n p q r L _ K p p p p p p p p p e e p a a a r p p p p p p p p p p p p a K I P B n p p p p p p p p p e e e e p N N p p f N N p y p n p p p p e e e e e e e e q e e e p p p N p e e e e e n e e e q w w q q q q q e P ,.5.@.] ( P A B n e w w p w w 0 i q 0 r t t t r r p y q r r p r r i i r r r 0 q q q q q q q q r r r q a S.kXgXS.q.@.] a r i i 0 0 q p K _ ..] a r r r r r r r r r r r r 9 0 0 r r r r 9 9 9 ; < > > > > < > = & & & = , > ; ; ; ; ; ; ; ; ; = = = = = * - - < ; ; ; ; ; ; ; ; - - - - ; ; ; - ; ; - > > < ; t ` +X+XS.l 8 d ) [ } } } J Z n i i 4 i 4 4 i i 4 4 B  .r.r.L 3 ; - , , , , , , , = = = = = = = = - - - - - - - - - - - - < r p B L ] ..@.{ { ( B t 9 , = - , , , & & & - & & : & & & & & & & & & @ @ @ @ O O O o @ * ; r p B P  .6.7. .( ( ' { { @.f.H.L.J.A.f.A.J.A.#.{ ) ) ) l l d s 8 6 = # # > > > > # @ + @ @ O O O O O @ # > > > > : @ @ + @ > 8 a l l a t r r p p B B B n p 0 0 1 r r y u a g g g l l d d s 8 6 # + . .           ",
"M G &.z.!..XoX=XwXyXyXdXdXNXCXCXCXCXCXCXCXCXCXnXnXvXvXvXjX8X*X&X&X+X+XXX{.{.`.).K.K.K.).).).K.K.K.).).[.XXOX6XuXuXuXuXuXuXpXpXuXuX8X&X&X+X+X{.{.`.K.H.H.7.5.5.5.7.Z.Z.h.6.5.O.O.O.@.S.@XjXvX*X'.#.A A ] e.q.L q w 0 0 0 e e e e e e e e e n n n n n n p p i w w i i i i i i i m n e w 0 e e e e e e e e w w e e e e e e e e e e e e e e e e p p n n n B N N N N N N N V D { { ] ..@.7.{ [ X.@...l y r r t r 9 r r 0 r _ +XuX&XK.5.} S b e e e p e n Z S  .H.L.r.7.@.( f p p n n p q y I P g p e e e e e p e e q q q 0 0 r p p p p p p p p p p p p B ..J.J.e.] B B p p p p p p p e e e e e e p p p p N B N N p p p p N A N e e e e e e e e e e q e p p p y p e e e e e n e e q q w w q w q q q q B { 7.7.7.7.{ B p n e w w w w r a L a r a I I l p r r y r r r r r r i i 0 q 0 0 q q r r q q q r r r q r I P.%XS.l a L P B r 0 0 0 0 0 q r r t r r r r r r r r r r r r r 9 9 r r r r r r 9 r < < < < < < > < ; = = & & = , ; 1 ; ; ; ; ; ; ; = = = = = = - - > < ; ; ; ; ; ; ; ; - - ; ; ; ; ; - ; ; ; - > > r l ..L.L.Z...u 7 y p B B B B p 0 i i 3 3 4 i i 4 1 0 p P 6.J.6.a ; - , , , , , , , = = = = = = - = - - - - - - - - - - - - - ; r a L ] @.6.@.@.] C y r 9 u l l a t - * * - & : : : & & & & & & & & @ @ @ @ @ O O o o & = ; t a B P { @.) D ( { @.7.A.L.+X@X@X{.L.`.{.L.A.#.{ ) ) ) l h d y 6 > > > > > 6 9 8 8 > @ + O O O O O O + @ : : : @ O O O @ @ > 8 u t r < < r r r i p n N n p p w p y a a p t y y u u u 8 8 8 6 # + .             ",
"G &.9.!.^..X=XwXwXyXyXdXdXdXdXNXdXdXpXpXvXvXvXvXuXuXuX8X*X&X&X&X+X{.{.{.{.`.`.`.K.H.K.K.).K.K.K.K.).).XXOX&XyXpXuXuXuXpXpXpXuXuXyX&XXX{.`.`.K.K.K.H.h.7.6.5.5.5.f.h.j.h.j.H.H.K.H.H.{.*XvXjXjX*XJ.] B P ] ] f q q w w w e e e e e e i p n n n n n n n n p i w w i m L B i i m U U n q 0 0 e e e e e e e w w e e e e e e e e e e e p p e e e p p n p p n n n N D U J D C ( @.@.{ Z.H.7.@.7.@.@.7.) g y y 9 > = 9 r e B Z.*X@XK.5.' J N e 0 0 0 0 q n B A  .Z.L.H...C a p p n n n e q r l ) K p e e e e e e e q q 0 0 0 0 r y p f p p p p p p p p p ] P.*X'.@.L B B N p p p p p p e e e e e e e e e e p N N p e e p p n A n e e e e e e e e e e q p p p p e e q e e e e e e e w q q q q q q q q q y B ] 7.7.#.P y e p w w i w i L S.S._ I S.J.J.e._ a r r r r r r i i i i q q 0 0 q q r r q r r r r r r i I S.e.l y p a P L r 0 r r r q 0 0 0 0 r r r r r r r r r r r r r 9 9 9 r r r r r < < < < < ; ; ; ; 9 ; = = = - = ; ; 1 1 ; ; ; ; ; = = & & & & - - > < ; ; ; ; ; ; ; ; ; ; ; ; ; ; ; ; ; ; ; ; - ; > u L ( f.f.7.Z._ 9 9 9 9 y a a r r r r 3 r r a t a a i B ' 6.H.H.I 3 - - - - - - - - = = = = = = - - - - - - - - - - - - - - - , < y L ] @.7.,.@.] C a y L q.S.S.q.) t - - - - : : : & & & & & & & & @ @ @ @ @ @ @ O @ & - r a a B B L P C C ) @.f.H.`.+X*XuX*X&X@X+X@XXXL.A.f.#...` { ) l d 8 6 6 9 6 8 u l I l k 8 # O O O O O O O O O O O O O X X O + + > > , > = = , < 3 3 r i p n n n n p p p y r r 9 > > 6 6 6 6 6 # # + . .           ",
"! =.Q.!..X.X=XwXwXyXyXyXdXdXdXyXyX-X-XOX&X&X&X&X&X&X&X&X&X&XXX{.{.{.{.`.`.`.`.K.H.H.H.K.K.K.K.K.K.).{.OX6XyXyXdXpXuXuXuXpXuXyX-XXXXX).K.H.H.H.H.H.c.7.5.6.5.5.6.7.h.j.H.H.K.`.XX`.K.L.L.G.S.S.S.7.] ' @...] B w w w w w w e e e e p K U P B n p n n n n p p i i B ] ..] B i B  .U B p e w 0 w e e e e e w w e e e e e w e e e e n D A n e e p p p p p p p n A '  .' D D D { @.@.r.7.@.@.7.5.f.#.K u a t 9 = = 9 a B ] `.&XL.5.' D n p r 7 7 7 7 7 p B P ] 7.J.H.] f y p p p b b e w 0 a L a p e e e e e e q q q 0 0 q r q p p p p p p p p p y e p ..`.L...B y p p N N p p p p p e e e e e e e e p p e p e e e e e e e p e w e w e e e e e q q e N B p p e e e q e e q e e e w w w q q q q q q q q e p B L h y e w w w w i q a q.@XP.q.S.@XG.e.e.e.] p q r r r r r i i i q 0 0 0 q q 0 0 r r r r r r r t L @.] B f y a P P y 0 r r r r r 0 r r r r r r r r r r r r r r r 9 9 r r 9 r r r < < < < ; ; ; ; ; 9 ; = = = & = ; ; 1 1 ; ; ; ; = = & & & & & - , > ; ; ; ; ; ; ; ; ; ; ; ; ; ; ; ; ; ; ; ; - ; - > a L C { O.O.#.K t l u 9 9 a u r r r r ; r r t u L L K P  .6.H.`.@.r - , - - - - - - = - - - - - - - - - - - - - - - - - , , , - > t K I ....@.@.) C g ) S.@X*X*X'.e.I r - - - : : : & & & & & & & & @ @ @ @ & & @ & & ; r a K B B f f f f C ] 5.A.J.`.@X*X*X*X*X@X@X@X+X{.L.K.A.A.A.Z.#.` ) l u y 9 8 8 l _ .._ I k > + O O O O O O O O o X O X X X X X X + + + @ @ @ & - = - ; r i p B B A B n p p r ; = & @ + @ # # # # + + .             ",
"&.9.Q.^..X=X=XwXwXwXyXyXyXyXyX=X.X.X!.!.)._._._.[.{.{.{.{.{.{.).).).).K.K.K.H.j.h.h.j.j.H.H.K.K.).{.&XuXuXyXpXpXuXyXyXyXyXyX&XXX_.!.c.9.9.9.9.8.8.4.4.8.5.5.5.6.6.7.h.H.H.K.XXXX`.H.f.{ ( C C P ] ' ( ] ....B i i i w w w w w w i K ..6.@.K p p n n n n n e i n P ....] B p n A U ] B i 0 0 0 0 w w w w w w w w e e e e e e e n '  .U N p e e e e e e e p B ' ' ' T D ( D ' { ( ] K { 7.O.O.@.] g 9 l u > @ # 8 l B @.`.`.7. .D g y 9 7 7 = = = ; 7 y g ( #.H.H.] N N p p p p p e w 0 q r q e n p p p e q q 0 0 0 q r q i B B B p p p p p p B y p P ..] p e p p p N N p e e e e e e e e e e e e N N e e e e e e e b e e e e e w w e p y p p q p P ' B p e e e q w w w q q q w w w w w w q q q q q q q i p r q q q q q w w w l e.J.q.q.'.J._ L I ..#.K i r r q q q q q q q q q q r r r r r r r r r r r r a ] ..@.{ ] ] ] P p 0 r r r r r r r r r r r r r r r r r r 3 3 3 9 9 r r < < < 3 < 9 r < ; ; ; ; ; ; ; = = = = - ; ; ; ; ; ; ; - = & & @ @ @ & & = ; ; - ; ; ; ; ; ; ; ; ; > > ; ; ; , > ; ; ; - ; > u l g ( O.5.{ l l _ ) 8 9 a u 8 8 6 > = > > 8 8 u u u L ..e.Z.J.e.u ; - - - - - , , - , , , , , , , , , , , , , , , - - , , , , - < a L U ] ] ( D C ) S.*XvXvXvX*XL...a < - - : : : & & & & & & & & & & & & & & - > t a K L P P B f f f f g ) @.Z.H.L.`.`.+X+X{.`.{.{.{.{.{.`.`.L.L.`.L.L.Z.#._ l u 8 8 l _ q.q._ t : % O O @ % % @ @ O O O X X X X X X X X X X X X O O @ @ & = > r p N A P U D A n r ; & @ O O X + + + + + + . . .         ",
"9.W.!./..X=X=XwXwXwXwXwXwX=X=X/.Q.Q.W.9.9.9.c.c.c.N.K.).).).).).K.K.H.c.j.h.7.5.5.5.5.g.h.j.H.K.K.[.OXyXyXyXyXyXyXyXyXyX-XXX_.Q.9.9.;.&.:.:.:.:.:.:.,.,.:.:.,.,.8.8.8.7.j.K.+X`.H.H.5.' D C D ) @.@.( U ] P i i i i w w w w w w p U 6.6...B i i e p n n n e e b P ....U a e p P ] L a q 0 q w 0 w w 0 w e w w w w 0 e e e e e B  .} U A p e e e n n p e p N D B N D  .7.] D C D C ( @.7.@.{ ) C y 9 9 > @ + + > u h { H.8.| W N y y 7 7 7 = = 6 6 7 9 y g #.H.H.] N N n p p e e e w 0 0 0 q e n p p p w q q 0 0 0 q 0 i a P P P n p p p p B ] B n B D A n n N n p N p e e e e e e e e e e e e e p p e e e e e e e b e e e e w e a I _ 0.q...I f B D f e e e e e w w w q q q w w w w w w 0 q q q q q q q i w w q q q q w w q a ..q._ e.P...K B B L ..K p r i q 0 q q q q q q q q r r r r r r r r r r r r r L e.H.L.J.H...B r r r r r r r r r r r r r r r r r r r r 3 3 3 9 r r r < < < < < < < r ; ; ; ; < < ; - = = = - - ; ; ; ; ; - = - & & @ @ & & & & = ; ; ; ; ; ; ; ; ; ; > > ; ; ; ; , - ; ; , , > > r t y C { @.#.] ) ..) d = > 6 > # + + + # 8 8 > > 8 8 u l I ] e.Z.L > - - - - - - , - , , , - - , , , , , , , , , , - - , , , , - - r t a B B B A ( @.`.vXnXmXnXjXL.] a 9 < - : : : & & & & & & & & & & : : & & < L _ ] ] ] U P C f f f f f C ] ..@.7.7.e.e.e.Z.A.H.K.L.`.{.{.{.{.+X&X@X+X`.L.e.] K d l ) _ _ _ k > @ % & % & & & & & @ @ @ + O O X O X X X X     X X O O O @ + = > t p A P U ' U A p 7 = & @ O X X X X + + + + + + . . .   ",
"W.Q.!./..X=X=XwXwXwXwXwX=X.X/.Q.W.t.;.;.&.&.&.:.:.>.2.4.8.8.8.8.8.8.4.8.,.,.,. .O.O.+.1.5.5.j.c.N.[.XXOX6XOXOXOXOX=X=X=XXX_.Q.9.;.&.&.$.$.%.%.%.~ J J } } } } } ,.,.6.6.7.h.H.Z.7.7.O.[ ' T ' @.7.,.( L B i r i i i w w w w w w i B U U B i i i e e e e e e e e n B B p p w p n B p q q q 0 q q w w w w w 0 w w w w e e w w 0 p P U D A p e e p N N n e p n N N N ( e.H.{ D C D ( ( O.f.5.{ ( g y 9 = > 8 8 > > t K O.,.,.' B a u t y t t 8 8 s s 8 7 6 y ..H.Z.] N n n p p p p w w q 0 0 0 e p p p w q 0 0 0 0 0 q q p B A P B p p p p p B P B N P ] ] D N B N N N p e e e e e e e e e e e e e e e e p e e e e e e e e e e e K q.P.@X@X@X'.S.) p y e q e N p e w w w w q q w w w q q q 0 0 q q q q q q i i r q q 0 w w 0 0 i L e.#.#.e.) B B a L 7.L i 0 i i 0 q q q q r r q 0 r r r r r r r r r r r r r a ) Z.'.+XJ.P t r r r r r r r r r r r r r r r r r r r r r < < 9 9 r r < < < < < < 3 < ; ; ; ; ; ; ; - = = - - - - ; ; ; - = = & & & & & & & & & * = = ; ; ; ; ; ; ; ; - , - - ; - - - - - - > < > > < 7 f ] { ) P P ] ) l 6 + + + . . + + + 5 # # # 8 8 s 8 9 y _ S.) 9 ; - - - - - , - , , , , - , , - - , , , , , , , : : : : : - - - < 0 0 q y B ' 5.L.*XvXvXvX@XJ.P p 0 ; - & : : & & & & & & & & & & & : : , t ..H.r...] ] ] P B g f f f f g B K L L L L L ( { @.f.H.L.`.{.{.{.XX&X&X&X+XL.Z.#.] _ ..#.#._ k # @ @ & & & : & & & , : : > : # @ + X O X X X X . . X X X X X + + = < p B P ' ' ' D B y ; = & + O O X O + + + # # # # # # # ",
"Q.Q.Q./.=X=X=X=XqXqX=X=X.X/.Q.t.t.;.;.&.$.$.G G H H J ~ } } } } } } } ' ' ' ' ' ' [ [ o.+.5.h.l.N.[.OXOXOXOXoXoX=X=X=X=X_.Q.9.;.;.&.$.$.G G G G G F H H H J U ' }  . .,.5.5.5.5.5.5.5.@.O.O.5.7.r.@.C p p i i B p r w w w w w w 0 i i i w w i e e e e e e e e e e i i w q r q y r q q q 0 0 0 q q w w w w 0 w w w w e e w 0 0 w p p n N p e e p n n p e p B D D D  .6...P '  .( A C @.A.5.{ C a y t 9 9 u 8 > > 9 K @.O. .' P l l u u k u u u d u 8 6 6 8 ) e.Z.] n p n p p p p w q q 0 0 w e p p w q 0 0 0 0 0 q q p p B B B p p w w p p p N p B ..e.,.' A A B B N p e e e e e e e e e e e e e e e p N y e e e e e e e e e B e.@XjXgX@XP.S.e.] f e e e p B N e e p p e e q w w q q q 0 0 0 q q q q q q i i q q 0 0 w 0 w w r a ) ......] L L I ..r.] i 0 i i 0 q q q q r r r 0 r r r r r r r r r r r r r r y K ....I t 0 r r r r r r r r r r r r 9 r r r r 9 9 r r < < 9 r r r < < < < < < < < ; ; ; ; ; ; ; ; = = = = - - ; ; - = = * & & & - - - = & & & & = ; ; ; ; ; ; ; ; - - - - ; ; - - ; - - - - ; ; ; ; y L ) ] P L _ ) l 6 + . . + # # + . # # j j 5 5 k 8 6 8 l #._ 9 - ; - - - - - - , , , , , , , , - - - , - - , : : : : : : , - - - ; ; 0 p B ] @.Z.`.@X*X@XJ...B p r ; - , : : & & & & & & & & & & & & : , t ..J.J.H.....] ] P C g g f a y y y y y y y y f K { 7.Z.H.L.`.`.L.`.`.{.{.`.L.J.Z.#...#.q...I 8 @ @ @ & & & : : & - > , , , > > > : @ + O X X X     X X X X X X + + = < p B D P P D B p r < = & @ @ @ @ @ @ = 6 8 s 8 y y 9 ",
"Q.Q././.=X=X=X=X=X=X=X/./.Q.W.t.;.;.$.$.$.G F F Z Z M M m Z A A A A A A A D D D T T [ | +.1.g.c.)..X.X.XoXoX.X.X.X.X.X.XQ.t.;.$.&.$.$.G F F F F m m m M m A H J J W |  .O.O.O.5.5.7.Z.f.7.h.H.H.7.( p p w i B U L p q q w w w q w w w w w w w w e e e e e e e e w w i r q r r y r t t u t r 0 q q 0 0 0 w 0 0 w 0 0 w w w w w 0 q e e e e e e e e e e e p D  .] '  .' D D { @.P A D @.f. .D C B L P l u 8 9 9 9 9 g { O.' C K u u 8 u u u s s 8 8 6 6 6 9 l ..#.P p p p p p p p e e p q w e e e w q q 0 0 0 0 q w p p p p p p p q q q w p p e p N ..H.r.@.] P ' ] B e e e e e e e e e e e e w e e e q e e e e q e q q e e p @.'.*X'.S.#._ K L L f y p e y N p e p B n p p w w q q q q q w q q q 0 0 0 0 w w q 0 0 0 r r 0 0 q r p B L ] e.S.S.S.e...B i q q w w r r r r r r r r r r r r r r r r r r r r r r 0 0 y y 0 0 0 0 r r r r r r r r r r 9 9 9 9 r r r 9 < < < < 3 r r < 9 r r r ; ; ; ; ; ; ; ; ; ; ; ; = = = = ; > - = = & & & & & = - = = = = * & & & = - ; ; ; ; ; ; ; ; ; - - - - - ; ; - - - - ; ; = 9 a ) ..@.K g L k > + + + 5 8 8 5 + + 5 k z j 5 8 k 8 l l l d 9 - - - - - - - - , , , , - , , , , , - - - , , , , : : , , , , - - - - 0 r B P  .,.r.J.J.H.6.' B f p r ; = : : & & & & & & & & & & & & : & 8 _ r.J.r...] ] ] P K h g u y y y y r r r r r y K ] @.Z.J.L.`.K.K.H.K.L.L.L.`.`.J.Z...) I I u = @ @ & & & - & & & = , < , > < < > > > : + X X X X X X X X X X X X + @ * - r p a B B a y r 9 > > & & @ & = = 9 y g K K C C C ",
"Q.Q././.=X=X=X=X(.(.(./.Q.Q.t.;.;.$.$.$.F F F m m v v v v b i i e i p n n n N A D T [ [ O.5.h.N.).[.[..X.X.X.X.X.X.X/.Q.Q.9.;.$.$.$.G F F F F v v v v b v m B A S J ' |  .O.O.5.5.5.7.h.H.K.H.7.' N p e w p B P B w q w w 0 q w w w 0 w 0 0 w w e e e e e e e e w w i i r r t l 0.w.C.C.w.0.l y r q q w w e w w w 0 w w w w w w e e e p e e e e e e e p B ..e...]  .( V D D ( P ( P ' @.' C C P ] ] L L g y 9 9 r h { 5.{ h d u 6 6 6 s s 8 8 8 6 8 8 8 s l ) K f p n p e e p e p K U n e e e e q 0 0 0 0 0 q q e e e p p p p i q q q q p p e N A U 6.r.r.@. ...] N e e e e q q q q e q e e e e e e q e e e e q q e e e p ] J.'.Z._ g a y p P C f y p e e p p p B B p p p e w q q q q q w w q q 0 0 0 0 w w q q 0 r a l l y r r i r p I J.@X@X+Xe.B 0 q q q w w r r r r r r r r r r r r r r r r r r r r r r 0 0 0 0 0 0 0 0 r r 9 < r r r r r r < < < < < 9 < < < < < < < < r < < r r r ; ; ; ; ; ; ; ; ; ; ; ; ; ; - - - , = = & & & & = = - ; - - - = = & & @ & = ; ; ; ; ; ; ; ; ; ; - - - - ; ; > > - - - - - = t ] @...g 7 r t 6 + + # 5 5 5 5 5 # j z z k 8 5 j k z l s 6 = - - - - - - , , , , , - - , , , , , , , - , , , , , : , , , , , , - - ; r p B P ' ] ..,.:.} ' P C B p 9 = & : , , & & & & & & & & & & & & , l ..#...P L P P P K h g u y y y y r r r r r y h ] @.7.H.L.`.L.K.K.L.K.K.`.{.`.L.Z...l 8 9 = @ @ @ & & & - & & , > < < < < > > > 9 8 9 > > @ X X X X X X X X X O + O @ & = ; 7 r r 0 0 9 9 < , = - & - = ; r a C ( ( ' ' ' ",
"Q.Q./././././.(.(.(./.Q.Q.t.;.;.&.$.$.G F m m v v 2 2 2 2 2 1 1 1 1 1 0 i p N B C T [ O.5.g.j.K.[.[.[.[..X.X.X.X.X/.Q.Q.t.;.&.$.$.G F m m v v c 2 2 2 2 4 4 i n N D W '  .O.5.5.5.5.5.Z.`.`.Z.{ B p y e q i p p i q q w w 0 0 0 w w w w e e w e e e e e e e e e i w i r r u 0.P.hXcXmXmXmXhXP.0.u r 0 0 w e w w w w w w w w w w e e n n p e e e e e e N P ..,.' ] 5.] A D D D { 7.{ (  .O.{ ( D C D C ( K f y y a ) 7.7.7.K l k 6 # # 8 6 # > 8 8 k z l l ) ) h p p n p p p e p B @.e.P e e e q 0 7 7 0 0 q w e e e e p p p p i q 0 q q e e e D ] A A ]  .,...P p e e e e q q q q q 0 0 q e e e e e e e e e e e e p p e B @.J.H.U a q q q p B B p y y y p p N D P B p p n p w q 0 0 q q w w w w 0 0 0 0 w w w q r I e.S.e.) a r p p r u ..S.S.q.L r 0 0 q q w w r r r r r r r r r r r r r r r r 0 0 r r r r 0 0 r r r r r r r r 9 9 < < r r r r < < < < r 9 r r < < < < < < < < < < r r ; ; ; ; ; ; ; ; ; ; ; ; ; ; ; - ; = = & & & & = = - ; ; - - - = = & & @ & = - ; ; ; ; ; ; ; ; ; - - - - ; ; > > - - - - - - 9 I #.#.l 7 7 u g 9 6 6 8 8 5 5 8 8 s k k k 8 5 j k z l 8 = = - - - - - - , , , , , - , , , , , , , , , , , , , : : : : : , , , , - - < r p B B D U }  .,. ...] P a r > , & , , , , & & & & & & & & & & & > t u t t p g L L K l g a u y y y y t r r r y f P @.7.H.K.`.`.`.`.{.{.`.`.`.`.H.7.] u ; = & & & & & & & & - > > 9 t r r r < > > > 8 t u 8 8 # + X X X X X X O @ + @ @ & = ; ; ; ; 7 7 7 < ; ; - - - - - 7 r f B D ' ' |  .",
"Q.Q./././././.(.(./.Q.Q.t.t.;.$.$.$.G F F m v v c 2 2 2 - - - - - - 1 1 r p B B D [ O.5.5.h.H.K.).).).)..X.X.X.X/.!.Q.W.9.;.$.$.G F F m v c 2 2 2 2 - - - 3 3 i n S D '  .,.5.7.7.7.7.Z.K.H.f.@.D e q q q w q 0 0 q 0 q 0 0 0 0 q w w e i p p p e e e e e e e e i q q q a q.gXmXmXmXcXcXcXcXkXP._ p w 0 w w w w w w w w w w e w e e e e e e e e e e e n B B D D ( ] ' B D ' ( 7.J.7.' ) 7.H.7.[ W D D D C C B B C { @.@.@.( g 8 8 6 6 8 8 8 8 8 k z _ l K _ ) f p n p p e e e p n ] ..P p w w q 0 7 7 7 0 q e e e e e p p p p i 0 0 q q e p p B P n e p B ....B e q e e q q q q e q y a p q e e e e e q e e e e e N N p L 7.H.@.B p r q 0 y B B p p p f B p p A D B p p p w q q 0 0 0 0 w w w w 0 0 0 0 w w q q l S.@XJ.#._ K y y r r r t l l t r 0 0 0 q q w w r r r r r r r r r r r r r r r r 0 r r r r r r r r 3 r r r r r r 9 9 < < 9 r r r < < < < r r r r < < < < < < < < < < r r ; ; ; ; ; ; ; ; ; ; ; ; ; ; ; ; - = = & @ & & & = ; ; ; ; ; - - = & & & & = = ; ; ; ; ; ; ; ; ; ; - - - ; ; ; > - - - - - & > u ) 7.) y y B ) K g u 8 s s s l d s s 8 8 8 5 k l l k 6 = = = - - - - - , , , , , - - , , , , , , , , , , , , : : : , : : , , , , > > < r p B A U  .6.6.6.7.,.] K t > = , > > > , & & & & & & & & & & & & & * - - r u K K K K g a u t y y y r r r r y f P { 5.Z.H.`.`.{.{.{.{.`.L.H.Z.7.] h 9 - = = - & & & & & & = , < t t t t r 9 < , , > 9 8 u u 8 > O o X X X o @ + = = > 9 r r r r r 0 0 0 0 0 1 ; ; ; ; ; 0 q p N N S J }  .",
"Q.Q././././././././.Q.Q.t.;.&.$.$.G F m v m v 4 4 2 2 2 - - - - - - - 1 i p B D ( { @.5.h.A.K.).).).)._._._.!.!.!.Q.W.9.;.&.$.G F F F v 2 2 2 1 - - - - - - 1 r p N D ' O.5.f.H.K.L.H.f.5.5.5.7.' p q q w i w q q w w w w p p p w w w w e p n n i e b b e e e e w 0 0 a e.gXnXjXR.P.S.S.S.P.+X@Xe.K 0 0 0 0 0 w w w w w w w w w q q q q e w e e p p e e p N N P 5.,.' B D (  .5.7. .D D O.A.h. .[ W T ' | [ W W W } | | ' T B a g d d h l h d l l l l l ) ] B p n n n p e e e e p ] 6...B e w q 0 7 7 0 0 q w e e e e e p p i i 0 0 0 w p p p n p e p e p B K p e e e e q q q q a _ V.S.q.I a q w e e e e e e e e n n p B 6.e.] p y q 0 0 a L B a f f f B y p B A B N N p e q q q r r r r r r 0 q 0 0 0 q q q y I J.J._ g f B y q r r r 0 0 0 0 0 0 r r r r i i r r r r r r r r r r r r 3 3 3 r 9 9 r r 3 r l g r 9 9 9 r r 9 7 < < 3 < < < < < ; ; ; ; ; ; ; ; ; ; ; ; ; ; ; ; ; ; ; ; ; ; ; ; ; ; ; ; ; ; ; ; ; ; ; ; = = * & @ @ & = = = = - - ; - - = = & & & = = = - - ; ; - - - - ; ; ; - - - - - ; - - = = & & > h { ] B A ] ] { { { ( ) ) ( ( h d s s s k k k k k k 8 = = = = = = = = - , , , - , , , , , , , , : : : : , : : : : : : : : : : : > = > < r a K U ..6.6.6.6.6.} B r ; = = , , , , & & & & & & @ @ & & & & & & & - < t a K L B g a u u t r 9 9 r y y u h ( { 5.f.H.K.`.`.`.`.K.H.f.5.{ ( B y r ; - = - & & & & & & > , < < r r t t < < , , = > > 8 8 > > : O O O O O @ = > 9 t a B B B B B p e q q q 0 0 0 0 0 0 0 w w e b N Z J } ",
"Q.Q./././././././.Q.Q.t.;.$.$.$.G F m v m v v 4 4 2 2 - - - - - - - - 1 i p B ( { @.5.f.h.H.K.).).).)._._._.!.!.Q.Q.9.2.&.%.G F F F v c 2 2 1 1 - - - - - - - 3 p B P { @.7.H.J.`.+XL.f.@.O.O.@.' B e q w p w p p p A A n K ..] a w w e n n n p e e b b e e e w 0 0 p q.*XvX@XZ.) ( C C C ) ..Z.e.U i 0 0 w w w w 0 w w w w w w q q q q q w w e e n p n p n n ] e.,.P B B D @.7.] V N N [ 7.5.[ | | | >.<.2.| | | >.>.>.| | T A ( ) { X.{ ) ( l h h K ( ] P n p n n p e e e e e p P { P p e e q 0 7 7 0 0 q q e e e e e p p i w 0 0 0 w p p p p p p p p p p p p e e e e q q q a _ R.jXgXP.e.L p q e e e e e e e p p p p B @...P f q y y q p f a y a a f p q q p p p p B p e w q 0 r r r r r 0 0 q 0 0 0 q q q y K Z.@.f y B ( L r q r q q q 0 0 0 0 r r r r i i r r r r r r 0 r r r r r 3 3 3 3 9 9 r r r I e.q.a 9 9 7 r r r r < < < < ; ; ; ; ; ; ; ; ; ; ; ; ; ; ; ; ; ; ; ; ; ; ; ; ; ; ; ; ; ; ; ; ; ; ; ; ; - ; ; - = * & & @ @ = = = = ; - ; - - - - - & & - = = = = = = - - - - ; ; ; ; - - - - ; - - = = = & 9 K K B N V '  .,.5.h.h.A.A.f.#.X.` ` l l l l k k _ 0.l > = = = = = = = - , , , - , , , , , , , , : : : : , : : : : : : : : : # # @ : > , 3 i B L ] ..@.6.,. .U m ; = & = , , , , & & & & & & @ @ & & & & & & & & = < t a B g g g a u t r 9 9 r r y u l ( ..5.7.H.H.K.`.K.K.A.7.O.{ ( A p r r < - , - - & & & & & - , , < r r t t < , , , - , , > > > , & O O O O O @ = 9 r p B B A A A D D N N N n n n n p p p p e q q e e n Z J ",
"Q.Q.Q.Q././.Q.Q.Q.Q.t.9.;.$.$.G F F v m v v 4 4 4 4 2 - - - - - - - ; 1 i B P ] @.7.7.f.j.H.K.).).).).)._.!.!.Q.Q.9.9.:.&.G F m m m v c 4 2 1 - - - - - - - - 3 p B P { @.7.A.A.H.H.A.f.5.O. . .' D N e w w p B B B  .U B ..H.7.B p p n n n e e e e b b e e e e e 0 I '.jX+X#.C p e q q q q g ) ..] B w w w w 0 w w w w w w w w q q w w e e e e e e n A A n p B P B N p N D ' ( A N V V ' 6.' W 1.c.4.4.s.s.c.c.c.c.c.4.>.>.o.Q [ 5.h.h.d.+.X.) ) K K K P B p n n n e e e e e e p p N p y y y p q 0 0 0 0 0 q q p p p e e q q q q q 0 q p p L I P B p p p e e p e e e e e q y _ P.gXR.S.#...] B p w e e e e e e p w e p B ] ] C f y a p y r r r y y a N p q q q e w e p p w q q 0 i r r r r r r q q 0 0 r r r y K @...L f P @.] p 0 r r q q q q 0 0 r r i i i r 0 0 r r r r r r r r r r r r r r 9 9 9 < u q.J.q.u r r r r r r 0 < < < < ; ; ; ; ; ; ; ; ; ; ; ; ; ; ; ; ; ; ; ; ; ; ; ; ; ; ; ; ; ; ; ; ; ; ; ; ; ; - ; ; - = - & & & = = = = = - - - - , = & & & - = = = = = = - - - - - ; - - - - - - ; ; - - = - - 9 ] { T D D  .6.H.c.K.).).{.{.{.L.{.{.F.#._ _ _ z 0.0.k > = - = = = = = , , , - - , , , , , , : , : : , , : : : : : : : : , : # # @ : , , , 3 i m L P U ] U P B r - & & : , , : : : & : & & & @ @ & & & & @ @ @ @ & = 9 r t a a a t t t 8 9 9 9 r u g l ) ..5.7.H.H.H.H.H.H.f.@.{ ' P A f p t r < > , = & & & & & - , > > < 9 9 9 > , , , & & : & & & & @ O o O O @ @ = 7 r p n B A D J U ' ' ' J J J D J D S S Z n b w w q e n A ",
"Q.Q.Q.Q.Q.Q.Q.Q.Q.Q.9.;.&.$.G F F m m v v v 4 4 4 4 3 - - - - - - - ; 1 p B P { @.5.7.f.h.H.K.).K.).).).!.!.!.Q.9.9.2.&.G G m m v v c 4 4 2 3 1 - - - - - - - r p B P { @.7.f.h.h.f.A.H.Z.5.O.,.@.' B e w w p B K K P A A ] ..L n n n n n e e e e e b b e e e e i n @.+X'.7.A y q 7 7 7 7 7 y L ....B i w w w w w w w w w w w w w w w w e p n e e e n U P n e e e e e p B ( D N N B N N B D N ' c.).).c.<.x.).XX.X_.).c.s.a.s.g.d.g.j.K.H.K.L.Z.#.) ] L f y p p n e e e e e e e e e e p B B y e q q q 0 0 0 0 q y y r r 0 0 0 0 0 0 0 q a P e.J.H...B p p p e p e e e e e q a q.+XG._ K B C ( P y w q e e e e e e w e e N P P B f B C f y q r y p y p p q q q q w w w w q q q q w i r r r r r r 0 q q q r r r r g ..Z.Z...P ..] p r r q q q q q 0 0 r r i i i r 0 0 0 r r r r r r r r r r r r r 9 9 r < u _ e.I L t r r r r r r < < < < ; ; ; ; ; ; ; ; ; ; ; ; ; ; ; ; ; ; ; ; ; ; ; ; ; ; ; ; ; ; ; ; ; ; ; ; ; - - - ; - - = = = = = = = = = - - - , > , & & & - = = = = = = - - - - - - - - ; - - - - ; - - = = - , K ..5.1.4.c.g.5.h.[.XXXXXXOX&X&X&X&X&XL.#...q.S.0.k > = = - = = = = = , , , - , , , , - : : : : : : , , : : : : : : : : : : # > 8 > : > > 9 9 r t a a B a t 3 * & & & : , , : : : & & & & & & @ & & & & @ @ @ @ & & = > 9 r r t r r t 9 9 9 r y u g K ) ..@.7.Z.H.H.H.H.H.5. .[ ' ( D B p i r < < > = - & & & & & & - > > > > > > > , & : : & & & O O O O O O O @ @ = 9 y p B A A S J J } } } } } }  . .:.| } ~ J S n b e e b N ",
"Q.Q.Q.Q.Q.Q.Q.Q.W.t.9.:.%.G F F m m m v v i 4 4 4 4 3 3 - - - - ; ; 3 r a B ( { @.5.7.f.h.D.K.).K.).).N.!.c.c.9.9.2.:.J H Z m b i i 4 4 4 3 3 3 - - - - & - < r p B P { @.7.f.h.f.f.Z.K.H.7.O.5.5.( e q w 0 0 p P ] U A D P C f f N p w e e e e e e e b e e e e b B @.H.5.D B f y 6 = = = = t ) ..] a i i w w w w w w i i w q q w w q w w e p w e e n B n e e e e e e f f B N f N N N N p p N D 5.).XX).c.c.).).XXXXXX).c.c.m.).).).).{.{.&X*X@XL.e.) f p p p p e e e e e e e e e e e p B B p e q q q q 0 7 7 0 0 r r 0 7 7 7 7 7 7 0 y l q.J.L.e.] g a B B a p q q e q e q g 7.S._ B B B A ] ] p q q q w w w w e w e e p B D C B B C f y q p B B p p p p q q 0 0 0 0 0 0 0 q 0 r r r r r r r r r r r r r r r q y ] J.'.H...6.] p r r r r r r r r r r r r r r r 0 0 r r 0 0 0 0 r 9 r 3 3 3 9 9 < < 3 3 r L ..#...a r r r r r r ; ; ; ; ; ; ; ; ; ; ; ; ; ; ; ; ; ; ; ; ; ; ; ; ; ; ; ; ; ; ; ; ; ; ; ; ; ; ; ; ; ; ; ; ; ; ; ; = = & & & = = = = - , > , & & @ - = > > = - - = ; ; - - - - - - - - - - - - - - = = - - a ] ,.g.)..X).c.s.K.XXOXOXXX&X&X X&X$XL.V.q.P.P.0.8 = > - - - - - - , , , , , , , , , - : : : : , , , , : : # : : # # # + # k 0.C.0.k j l 0.0._ k < - < , - & @ & & & : , , : , : & & & & & @ @ @ @ & @ @ @ @ @ @ @ & = = > 9 9 9 9 9 r r r r y a g K P { @.6.7.Z.H.A.H.7.O.[ ' ( ( D B a i r r < > - = - - & & & & & - : : : : & & & = , , , , & & @ O O O O O @ @ = 9 a B D P J J J J } } :.,.,.8.8.8.4.8.4.2.:.} W S Z N b n ",
"W.W.W.Q.W.W.W.W.9.9.;.%.G G A m m v v v v i 4 4 4 4 3 3 1 1 ; ; 3 3 r r a B ( {  .@.7.f.Z.A.K.K.).K.K.N.c.c.8.4.:.:.} J H m n i i i i 3 4 3 3 3 3 - - - - - < r p B ( { @.7.f.h.f.A.A.H.J.Z.@. .[ B e q w 0 0 n U  .U n n a L ..q...L p w e e e e e b b e e e w b A 6.6. .A f y 9 8 6 6 9 9 y g L P p i w w w w w w w 0 i w w 0 w w w w w w w w e e e e e q w e e e p p B ] D f p p p p p n n N D ,.H.).).XXXX_.[..X).).H.c.c._.XXXXXXXX&X&X@X'.H.@.B p p p p p e e e e e e e e e e e e p e e e e q q q 0 0 7 7 7 7 7 7 7 7 9 9 7 7 9 r l #.e...L u 9 r K ..L y q y p y e q f @.@.] D A B U 6...B q q q w w w w e e e e e N ( T D D C C P C f f f f B B p q q q 0 0 0 0 0 0 0 0 r r r r r r r 0 r r r r r r r q 0 a ) #.r.J.e.L y r r r r r r r r r r r r r r r r r r r 0 0 0 0 9 r r r 3 3 9 9 < < < 3 r t I _ L r 0 r r r r r ; ; ; < ; ; ; ; ; ; ; ; ; ; ; ; ; ; ; ; ; ; ; ; ; ; ; ; ; ; ; ; ; ; ; ; ; ; ; ; ; ; ; ; ; ; ; ; = = & & & & & = & - - , & & @ @ & = = = & & & & = = = = - - - - - - - - - - - - = = - - < p B  .).XX.X.X).K.[.XX[.[.OX X X&X&X$XL.S.@XS.k = = - - - - - - - - - , , , , , , - - : : : : , , : , : : # + + # # $ $ j 0.hXmXhXP.C.P.gXjX%XP.0.l u 6 = & & & , , - > , , , , , = - , & @ @ @ @ & @ O O + + + + @ @ @ = = = > > 9 9 9 9 r y y a B P ' { @.5.7.7.7.5.O.[ ' ( ( P D B B p r r < ; - - - - & & & & & & : : & & & & > > > > < > , - & & @ O O O O @ = 7 p B ]  . .} } } ~ ~ :.2.4.8.9.c.c.c.c.c.8.8.2.:.:.~ J H ",
"W.W.W.W.W.W.9.9.9.;.:.%.H m m m v v v v i i i 4 4 3 3 3 3 1 3 3 r r r y f C ( [ { @.7.f.h.D.K.K.).K.K.c.c.8.8.2.:.:.J J A m i i r r r 3 4 3 4 3 3 3 < - - , < r a C ( { @.7.Z.Z.A.A.A.f.f.7.5.@.' N q q w w w n A P n n n K S.+X*X+XZ.K e e e e e e e e e e e e i B 6.H.@.C q 9 9 u u y d g a a K L i 0 w w w w w w 0 0 0 w i i p e e w w w w w e e e e e e B ] B y y y P 7.] p e p p p n n n n n B ' ,.c.`._.).[.[.).H.6.| ' 5.H.H.H.K.`.J.Z...P B p p p p p p e e e e e e e e e e e e e e e e e e e q 0 0 7 7 7 7 6 6 6 6 6 6 9 9 9 8 u l l u 9 7 7 9 l ..K y y a p q q q f { Z.Z.{ P P ..H.6.B w q w w w w w w e N p e B T [  .{ [ { 7.f.5.[ P P P p q q r q 0 0 0 0 0 0 q q r r r r r r 0 r r r r r r r r q q 0 r a ..Z...p q r r r r r r r r r r r r r r r r r r r 0 0 0 0 9 r 9 r 3 < < 9 < < 3 3 r r t t r 9 9 7 r r r r ; ; < < ; ; ; ; ; ; ; ; ; ; ; ; ; ; ; ; ; ; ; ; ; ; ; ; ; ; ; ; ; ; ; ; ; ; ; ; ; ; ; ; ; ; ; ; ; = & & & & @ @ & & & & & @ @ & & & & & & & & & * = = = - - - - - - - - - - - = = = = = - ; ; f 5.)..XOXyX&XOXOX[.[.&X&XuXvXvX%Xq._ 0.k > = = - - - - - - - - - , , , , , , , , , , : : : : : : : # + # j x w.C.C.C.fXJXPXPXKXmXmXGXGXFXnXgXR.G.q.) u 9 7 < > = > < > > 9 9 > > , > : & @ @ @ @ O @ + + + + + + + + @ # = = = ; 9 9 r y y a g B D ( ]  .@.@.O. .[ ' ' P P D B B B p p r r r < > , - , & & & @ @ @ @ @ @ & , > 8 t u u t r > > = & @ @ O O O @ & 9 a U ..6.6.,. .} &.:.:.2.9.9.!.!.!.!.!.!.!.c.c.c.4.2.2.",
"9.9.9.9.9.9.9.9.2.:.%.G A m b i v b i i i i i i i 4 4 4 r r r r r r t p g B K ) { @.7.f.A.A.K.K.K.K.H.h.8.4.,.,.:.} J S n p i r 3 r 3 3 3 3 3 3 3 < < , , , < r a C ( { #.7.Z.Z.Z.Z.f.#.O.O.7.6...P p e e e i i i i b b A r.+X'.J.Z.Z.) p w e e e e e e e e e e i B  .5. .C y y y y y y f B C L P L i 0 w w w w w w w 0 0 w i p n p i p e w e w e e e e q B @.H...B e e f P B a L _ ) B n p p p n n n B P } ,.5.h.h.,.' A N N A D P ( ( ] ( B a p p p p p p p p e e e e e e e e e e e e e e e e e e e r r 9 9 6 6 6 8 k z x x z k k k z x z k 8 8 8 9 7 y l y 7 a L p e e e f { J.L.Z.J.J.e.6.U p w q w w w w w q e N p e e B { 5.f.f.H.K.`.`.h.@.] L r q p B p 0 0 0 r r 0 q q r r r r 0 r r r r r r r r r r r 0 0 r r u L a r r r r r r r r 0 0 r 0 0 r r r r r r r r 0 0 0 r r 9 r 9 < 3 9 9 < < 3 < 3 r r 1 9 9 9 9 9 r r r ; ; < < ; ; ; ; ; ; ; ; ; ; ; ; ; ; ; ; ; ; ; ; ; ; ; ; ; ; ; ; ; ; ; ; ; ; ; ; ; ; ; ; ; ; ; ; ; = = & & & @ & & & & @ & & & & & & & & & & & & & & * - = = - - = - - - - - - = = = = = = = ; 1 B @.K.XX-X&XyXyX&X&XuXuXuX%XP.0.k 6 > = = = = - - - - - - - , , , , , , , , , , , : : : : : : : : # # x C.fXcXJXJXJXJXIXIXIXPXLXLXGXGXFXFXCXNXvX-X`.f.] B a p 0 r r < 9 r r r r 9 > > > : @ # # # # + + + + + + + + + + # = = ; 9 9 r r y y a f B D ( ] { { ' ' ' ( ' P P D B B B p p r r r 9 < > , = - & & @ @ @ @ @ @ & > 8 t a a l l u t 9 > = & @ @ O O O @ * < a U ..6.6.,.:.:.&.:.2.8.9.!.!.!._._._._._._._.!.!.!.",
"9.9.9.9.9.9.9.2.:.} J A n n i i i i i i i i i r r r r r r r r r r r t u g h K ) { @.7.f.A.A.H.K.H.H.c.h.8.2.,.:.} U D B B i r r < < < < < < < < > , - = > > 9 r u h ) ) #.#.#.V.Z.Z.#.@.@.@.7.7.,.P p w w 0 i i i i n n ] J.L.#.) ) ] P p w e p e e e e e e e e i B ' ' ( f y a y a f y f B B f B p w w 0 0 i i w w w w w w w i p i i p p i w q q w q q q B 7.r.@.P p y e e B ..J.L.Z...B p e e p p e e e n N N D A N p n n n n n e e e e e e e e e e e e e e e e e e e e e e e p p e e p e y y r r r r 8 8 k k k z 0.C.fXhXhXfXP.P.C.P.fXC.0.0.0.0.z u 9 9 9 7 r B p e e e e C ..r.L.*X*XS.P p w w q q q w w e w e p f p p p D @.h.H.`.`.`.`.H...K p r i p p i 0 r r a p r 0 0 r r r r 0 0 r r r r r r r r r r r r r r r r r r r r r r r r 3 r 0 0 0 0 r r r r 0 0 0 0 0 0 9 9 r r r r < < < < < < < < < < < < < < < < ; ; ; ; ; ; ; < ; ; ; ; ; ; ; ; ; ; ; ; < < < < ; ; ; - ; ; ; ; ; ; ; ; ; = = = = = = ; ; ; ; ; - - - - - - = - & & & & & @ & & & & & & & & & & & & & & & & & & & - = = = = = = = = = = = = = = = = - - ; y L #.Z.K.{.+X+X+X`.L.S...l 9 = & & = = = = - - - - - , , , , : : : : : : : : : : : : : : : : # # k C.JXKXIXIXIXIXIXIXIXIXPXLXGXFXCXNXNXdXuXuXyX-XXX).,.} J B n p r r t t u u t t > > > > k 0.0.x k # @ + @ + + + + + @ = = 9 9 9 9 r y y a g f B B D P P P P P P P P D D B B B f a y r r r 7 ; ; = = & @ @ @ @ @ @ @ # > 8 u l l l l g a t r 9 ; & @ @ @ @ @ & - , t L ] ]  .} } ~ :.:.2.8.c.!._._._..X.X.X.X.X.X.X.X",
";.9.9.9.9.2.2.:.} J S N n p i r r r r r r r r r r 3 3 r r r r r r r r u a g K ( { @.7.f.Z.A.D.H.H.c.h.8.4.2.,.:.} U A B p r r < ; , , , , , , , > = = = > > 9 9 u g K ) ` #.#.#.#.#.#...{ ] P L B n w w 0 p P U P p p n ] H.7.] ] ....L w w e p e e e e e e e e i n J U A f g P ) ( P B B D L B p q w w 0 0 w i w w w w w w w w w w w i i i w w q w q q w U H.H.6.P p e e B e.+X@XJ...] D n e e e e e e e e e e e e e e p p p p e e e e e e e e e e e e e e e e e e e e e e e e p p e e p y y y t l x 0.0.0.C.P.P.fXhXJXKXPXPXKXJXmXmXJXmXkXhXhXhXhXP.w.z s 9 7 7 t p e e e q y B ] J.@X+X..a w w w q q q w w w p _ q.q.] B p p A ] 5.Z.H.H.7.@.B y r p i i i r r r r r r r r r r r r r 0 r r r r r r r r r r r r r r r r r r r r r r r r < < 9 0 0 0 0 r r r r 0 7 0 0 r r 9 9 r r r r ; < < < < < r 9 < 9 < < < < 3 < ; ; ; ; ; ; < < ; ; ; ; ; ; ; ; ; ; ; ; < < < < ; ; - - ; ; ; ; ; ; ; ; = = = = = = = = ; ; ; ; - - - - - , = - * * * - & & & & & & & - & & & & & & & & & & & & & & & = = = = = = = = = = = = = = = = - - - ; 9 u L ) _ _ _ I l k 9 ; = = - - - - - - - , - - - , , , , : & : : : : : : : : : : : : : # # # k w.hXJXKXIXIXUXUXUXUXIXPXGXCXbXyXyX=X=X=X=X.X_._._.c.8.:.U J B p i a g l l a u t 9 8 z C.gXhXgXC.z # + + + + + + # > > 9 9 9 9 r r y y a a a f f B B B B B D P P P D D C C B B p p y r r r ; ; = = & @ @ @ O O O @ @ , < t a a g l a a t t r 9 = & @ @ @ O @ @ & - > t u g B N A J } ,.4.c.!._._.XXXXXXXXXX=X=X=X=X",
";.2.9.9.2.2.:.:.} D N n p i i r r 0 r r r r r r 3 < < < < 9 r r r r r t y g h ) ) ..#.7.f.f.h.j.j.h.8.8.4.,.:.} ' J A n p r 9 > = > > > > > > > > = = = > > 9 y u d l ) _ ` #.#.#.#...{ ] P B a i w w e i P 6.r.6.B i p A 6.H.r.r.r.] p q q e e e e e e w w w e i p A ' ]  .@.7.7.5. .' P ..6.] a 0 0 w i i 0 0 w w w w w w w w i 0 w w w w w w q q q q w U H.e. .B e p B ) L.'.e.I a p B D n b e e e e e e e e e e e e i i i i e e e e e e e e e e e e e e e e e e e e e e e e e e e e y y t k x C.fXhXhXhXJXKXKXKXPXIXIXIXIXIXKXKXJXJXKXKXKXKXKXKXmXkXR.0.l l z u y y e e h ) K B I #...g p p w w w w w w w p _ P.gX+XS...B e e f B C P P L p r q q i i q q 0 r r r r r r r r r 0 r r 0 r r r r r 0 0 0 0 r r r r r r r r r r r r r r < 9 u k t r 0 0 r r r r 9 9 9 9 r 9 9 9 r r r r ; ; 9 9 < < r r r 9 r r < < 3 r ; ; ; ; ; ; < ; ; ; ; ; ; ; ; ; ; ; ; ; ; > > > ; ; ; ; ; ; ; ; ; ; ; ; ; ; = = = = ; ; ; ; ; ; - - - - - > - = = = = - , , , - - & & & & & & & - - - - & & & @ @ @ & & = = = = = = = = = = = = = = - - - - - - - - > > > > > > > = = = = - - - - - - - , , , , , , - - : : : : : : : : : : : : : : : : # > 8 k w.fXJXIXIXUXUXIXIXIXLXFXbXyX.X/./.Q.Q.Q.Q.9.9.9.9.9.8.8.:.J n p a K L L L l a t l w.hXJXKXKXcXC.x x 0.x k 8 # # > 9 r t a a y y y y a a a p p f f f f B B C D C D P P P D C B f a y r r 0 ; ; = = & @ @ O O O O @ : , 9 t t a a a t t t r 9 > & @ @ O O O O O O O @ & = - ; 0 p D ' :.8.c._._._.XXXXXX=X=X=X=X=X",
";.=.2.2.2.2.:.:.W D N p p i r r 7 9 9 9 9 < 9 ; > > > > > > 9 9 9 9 9 y y d h K ) ..@.7.7.7.f.h.g.8.8.4.8.,.:.} ' D B p y r 9 > = > > > : > > : = = = = > 6 9 y u d l ) _ _ ` #.#.#.{ ] K B f p i e e w i P 6.6.U p i p n ] 7.H.e.] m w q q e e e e p p w w w w i i n } 7.H.K.).H.c.,. . .} ] B i 0 a I _ _ L r w w w w w w w w 0 0 i i w w w w q q w w w B U K n e p P 6.6.J.e.L e e e D U n b e e e e e e e e e e e e p p p p e e e e e e e e e e e e e e e e e e e e e e e e q e e q y s z w.fXJXKXPXPXPXIXIXIXIXIXIXIXIXIXIXKXKXJXJXKXLXLXKXKXKXKXGXmXgXP.P.P.0.d e e f @.J...a p p i w i i w w q q w w q L S.gXP.q._ ] P p e p w w r r r q q r w q q 0 0 0 0 r 0 r r r r r 0 0 r r r r r r r r 0 0 0 0 r r r r r r r r r t r r r r t _ S.q._ a r r r r r r 9 9 9 9 r r 9 9 9 9 r r 1 ; 9 9 < 9 9 r r r r r < r r r ; ; ; ; ; ; ; ; ; ; ; ; ; ; ; ; ; ; ; ; ; > > > ; ; ; ; ; ; ; ; ; ; ; ; ; ; ; = = = = ; - ; ; ; - ; - ; - , , - - - , > > > > > = & & & & & & & - = - - : & & & @ @ @ & = = = = > = = = = = = = = = = - - - - - - , : & - - , > > > - > - - - - - - - - , , , , , , - - : & : : : : : : & & & & : : : : # > 8 8 z C.JXIXIXIXIXIXIXPXGXCXyX.XQ.Q.W.t.t.t.;.;.;.;.;.9.9.8.8.,.U n B B L L L L K a I P.cXKXIXPXJXhXfXhXhXgXP.0.k 6 9 r a h L L L f a y a p p p p p p p p B B B C C D P P ( ( ( P L B p p p r 9 ; = = & & @ @ @ O O O & , , > < r t t t t r 9 > = & @ @ O O O O O O O O O O O @ & ; p B U :.8.c.!._._._.XXXXXXXXXXXX",
"=.=.2.2.2.:.:.^ E D N N a y r 9 ; ; ; ; ; = = = = = = = = = = = 6 9 9 9 s d h ( ) ..#.#.5.5.f.g.h.g.4.4.2.,.:.} ' P B a y 9 9 = = # # # @ @ @ @ # # # = > 6 8 y u k l l ) _ ` ....] ] P B f p p i w e w i m L B p i 0 i p n L P L i 0 0 w w e w e p n N p p i i i i p B  .H.).`.).).c.6...P p i r a ..J.P.J.q.a q w w w w w w w w i i i w w w w w w w w w w w i i i p U r.6.6.,.J N N N D B e e e e e e e e e e w w w e p p p p e e e e e e e w e e e e e e e e e e e e e e e e e e e y u z C.hXJXIXIXIXIXIXIXIXIXIXIXIXIXIXIXPXKXJXGXGXKXKXGXmXmXmXGXGXmXcXjXkXjXP._ f e f ..L.#.a w w w w w q q q q q w q p ) J.J...a p B B p q r r r r 0 r r r r q 0 0 0 0 0 0 r r r r r r r 0 r r r r r r r r r r r 0 r r r r r r r r r r a t r r r I P.gXP.q._ a r r r r r r r r 9 7 7 7 7 < < < < 3 3 r 9 < < r r ; ; ; ; ; ; ; ; ; ; ; ; ; ; ; ; ; ; ; ; ; ; ; ; ; ; ; ; - - ; ; ; ; > > ; ; - - ; ; ; ; ; ; = = = = ; ; - - - ; - - - - - - - - - - - , = = = = - & & & & & & & & & & & & & & @ @ @ @ & - = = = = = = = = = = = = = = = = = = - , : : , , , : , , , , , , , , , - - - - , , , , , , , , , : : : : : : : & & & & : : : > > 6 8 8 z C.JXIXIXIXIXIXPXLXCXuX=X/.Q.t.t.;.;.;.;.$.$.$.$.$.:.8.8.8.8.U N B B B L L L l l P.cXKXIXIXPXKXKXKXKXKXcX@Xq.l t p B P ......] B B f f a p p a p p a f B C C P P P ( ] ] ] ' ( P C B f a t 9 > ; = & & @ O @ @ O O @ & , > , > < < < < > > & & @ @ @ @ @ O O O X X X X X X O & - r a A } ,.4.8.c.c.).)._._._._.",
"=.2.2.2.2.:.:.^ E D B B a y r 9 ; = = = = = = = = = = = = = = = 6 6 6 9 s d h ( ) { @.#.5.5.f.g.h.g.4.4.2.,.>.} ' P B f y y 9 6 = # # # # # # # # @ # # = 6 8 y u k l l ) ) _ _ _ ] K B f a p i 0 0 e e i i i i w w i i i i i i 0 0 w a K K B p n B n n n p w i i i i i n U 6.H.H.H.6. .K n i i i _ J.S.q...] B w w w w w w w i p p i w w w w w w w w w w w w w i w i P 6.,.H.H.6.,.| ' D N f f p e e e w w w w w w e e p p p p e e e e e e e w e e e e e e e e e e e e e e e e e y y u z C.cXKXIXIXIXIXIXIXIXIXIXIXIXPXPXPXPXLXGXmXmXZXGXGXmXmXcXcXcXcXcXcXcXkXjX%XG.#.K f l _ l r 0 e e w w q q q q q q q q L e...B e p B P p r r r r r r r r r r 0 0 0 0 0 0 r r r r r r r r r r r r r 0 r r r r r r r r r r r r r r t r r r r r 0 t q.@XP.0.L I L t 0 r r r r r r r 7 7 0 7 < < < < 1 1 r r < < r r ; ; ; ; ; ; ; ; ; ; ; ; ; ; ; ; ; ; ; ; ; ; ; ; ; ; ; ; - - ; ; ; ; , , ; ; - - ; ; ; ; ; ; = = = = ; ; - - - - ; - - - - - - - - - - - = = = = - & & @ & & & & & & & & @ @ @ @ @ @ @ @ & = = = = = = = = = = = = = = = = = = - , : , , , , : : , : , , , , , , - - - - , , , , , , , , , : : : : : : : : : & & & & > k l k l k z w.hXKXPXIXIXPXLXFXNXyX=XQ.W.t.;.;.;.$.$.$.$.$.$.G G G :.8.8.:.J n n B B L I _ _ C.hXKXIXUXIXIXIXIXIXPXGXkXP...f p L ] 6.6.6...U A B N N B p p a p a f B B L P P P ] ] { { { ' ( P D B f a r 9 9 ; = & & @ O O O O O O @ & & : , , , , : & & O O @ @ @ @ O O O X X X X X X X O @ & - r p Z D ' ' | O.,.4.8.8.8.",
"2.2.9.9.2.2.>.~ W D A B a y 9 9 = > > > = = = = > # = = = > = = 6 6 6 9 8 d h ( ) X.@.#.5.7.f.f.h.8.4.4.2.>.| ~ ' D B f y y 9 6 = = # # # # # # # # # # > 6 8 8 u k l l I ) ) ) ) K L B a p p i 0 0 0 0 i i i i i 0 0 i i i i i i w p ] 6.6.] B p p p p n n i i i i i i i i m K P K B n i i i i p ] e.] B B P B w w w w w w w w p p i i w w w p p w w w w w 0 w i w p ] e.6.J.K.H.c.8.O.D C ] { P p e e w w w w w w w w p p i p e e e e e e e e e e e e e e e e e e e e e e e e e y u z C.hXKXIXIXIXIXIXIXIXIXIXPXPXPXLXLXLXGXGXmXcXkXkXnXnXnXkXkXkXkXjXjXcXcXkXjXjXgX+XS._ d y r 0 q i i q q q q q q q q w q B @.{ ' ' ( ] ] f r r r r r r r r 0 q 0 0 0 0 0 0 0 0 r r r r 0 r r r r r 0 0 r r r r 0 0 r r r r r r r r r r r 0 0 0 r l e.S._ a a K U a r r r 0 r r r r 7 7 7 7 3 < < < 1 1 < < ; ; < 3 ; ; ; ; ; ; ; ; ; ; ; ; ; ; ; ; ; ; ; ; ; ; ; ; ; ; ; ; - ; ; ; - - - , ; ; - - ; ; ; ; ; ; ; = = ; ; ; - - - - - - - - - - - - - - - - = = = = & & & @ & & & - & & & & & @ @ @ @ @ @ & - = = = = = = = = = - - = - = = = = = - - , , , , , : & & & - - - - - - - - - - , , , , , , , , , : : : : : : : : : : : & = u q.S.q.Z.#.q.q.C.gXmXLXPXLXGXCXyXwX.XQ.W.;.;.;.$.$.G F F F F F F F G :.8.8.:.S n n L _ S.P.fXfXhXJXIXUXUXUXIXIXIXPXGXnX+Xe.A n B ] ..6.6.@.] P A B B B B f p a a a B B B C P P ] ]  . . .{ ' ( P L B a a r 9 9 ; = & & & O O O O O O O O O O O O @ @ O O O @ @ @ @ @ O O O O O O O X X X O O O O & * ; 1 r p a f B A D D U ",
"2.2.9.9.2.2.>.~ W D A B a y 9 9 = = = = = = = = # # # = = = = = 6 6 6 8 s d l ( ) X.@.5.5.7.g.h.h.8.4.4.2.:.| ~ ' D B f a y y 9 6 = 6 6 6 = = = # # # = 6 6 8 8 s k l l l I K K K L B B p p p i 0 0 0 0 i i i i i i i i 0 i l _ 0._ L ] ..] A i i w w p B B i i i i i i i i i i i i 0 i i i i i B  .6. .}  .] B w w w w w w w w w p p n i w w p B i w w w w w w e w i P ..] 6.H.H.H.H.O.B B ) { ' A p e w w w w w w w e p p i i w e e e e e e e e e e e e e e e e e e e e e e e y d z C.hXKXIXUXUXIXIXIXIXIXPXPXLXLXGXGXFXFXCXbXlX8X8X8XuXbXuXuX8X8X*X*X*XjXjXjXgX*X%X%X%XP.` d y 0 0 0 q q q q q q q q w i i p { 6.7.H.Z.@.L p w r r r r r r r w w q 0 0 0 0 r 0 0 0 r r r 0 r r r r r r r r r r r 0 r r r r r r r r r r r r r t r r l ....L B B L ] g r r r r r r r r 7 7 7 7 3 < < < ; ; < < ; ; < 3 ; ; ; ; ; ; ; ; ; ; ; ; ; ; ; ; ; ; ; ; ; ; ; ; ; ; ; - ; ; ; ; - - - ; ; ; - - ; ; ; ; ; ; = = ; ; ; ; - - - - - - - - , - - - - - - - = = = = & & & @ & & & - & & & & @ @ @ @ @ @ @ & - - = = = = - - = = = - - - = = = - = - - - - - - , : : : , : , : : , , , , , , , - - , , , , , , : : : : : : : : : : : 8 k I J.+X@X*X+XG.S...0.P.kXFXGXCXpXwX=X/.Q.;.;.&.$.$.G F F v v v v v v m F U :.,.} S N P S.gXmXKXKXKXJXKXIXIXIXIXIXPXKXmXgXL.7.D N n A '  . .} ' P D D D D B B B p a a f B B B P P ' ] {  . .{ ] ] P P L B a y r r 9 = = & & & O O O O O O O O O O O O O O O O @ @ @ @ @ + O O O O O O O O O o o o o o O O % & & & = = ; ; ; 1 ",
"2.9.9.2.2.>.>.^ W D A B a y r 9 6 6 6 9 6 6 6 6 = = = 6 6 6 6 6 6 6 8 8 u d l ) { @.5.5.7.g.g.g.c.8.8.4.2.:.:.~ U D D B f u y 9 9 9 9 9 9 y y 8 6 6 6 6 6 8 8 8 s k l l l L K K L B B a p p i i i i i i i i i i r r r i t _ J.@XgX@Xe.P A B B B i w i n n p p i i i i i i i i i i i i i i i i 0 a @.H.H.r.6.U p 0 0 0 0 w w w w 0 i p p i i p p B i w w w w w w w w w p B n B P ..,. .P p p A P P P n w w w w w e e e e e e e e e e w w w e e e e e e e e w e e e e e e e q q q d _ C.hXJXIXIXUXUXIXIXPXPXPXLXGXHXFXCXCXvXbXuXuX&X X XXXOX&X&X&X&X&XXX{.{.+X+X+X+X@X+XR.%X%XP.` d r y r r r i i w w w 0 i i w p P 6.J.`.J.] p q 0 r r r r r r r r r 0 0 0 r r i r r r r r r r r r r r r r r r r r r r r r r r r r r r r r r r i a t r y U ......] ] I a 0 7 7 7 9 9 r 0 ; ; ; < < < < < ; 1 < < ; ; < ; ; ; ; ; ; ; ; ; ; ; ; ; ; ; ; ; ; ; ; ; > ; , - - , ; - ; ; ; ; - - - - ; ; = = - = = ; = ; ; = = > > > > > , - - = = = = = = = = = = = = = = = > - & & & & & > : & @ @ & & & & & & & & & - - & - = = - = = = = - - = = - : : : , : : , , , , , , , , : : : : : : : : & & & & & & & & : : : : : : : : : & : & > I q.q.'.@X*XvXgX@XS.) g _ S.*XvXuXyXOX.XQ.W.;.&.$.$.$.F F v c c c c c c v v F U :.:.} D ..P.mXLXIXIXPXKXJXKXLXLXLXKXmXnX*X+XH. .S N n n A D D D J J U U P P P P L B a a p p p a B L P P ' ] ] ] ] ] ( P L B a y y 9 7 ; = & & & O O O O O O O O O O O O O O O O O O O O O O O O O O O O o o o o o o o o X X X O o o o O O O O O ",
"2.9.9.2.2.:.| ~ E D A B f a y 9 7 7 9 y y y 9 y y 8 y 8 9 9 9 9 8 9 8 t d l ) ) ..5.7.7.f.g.g.g.g.8.8.4.2.:.:.~ W J D A B g y y y y y y g g g d u 8 y 8 8 8 8 8 s d l l l l l K B B B p p i i w i i i i i i i i r r r i _ '.*X@X'.'.r.L n B P B i w i n m m n i i i i i i i i i r r i i i i i i i P 6.r.e.U a 0 0 0 0 0 w w w w 0 0 i i i i p n p i w w w w w w w w e e e e p p B B P ] P B D P P ] B w w w w w e e e e e e e e e e w w e e e e e e e e w w e e e e e e q q q s z C.hXKXPXIXIXIXIXIXPXLXLXGXGXFXCXNXpXuXyX-XOXOX.X[.).).).[..X.XXX.X).).).).K.H.A.L.L.S.L.%X%XS._ y r r r i i i w q 0 0 0 0 w r p P ..7.] a 0 0 0 r r r r r r r r r 0 0 0 0 r r r r r r r r r r r r r r r r r r r r r r r r r r r r r r r r r r r r r r L e.J.J.r.7.L r 7 0 7 7 9 9 r r ; ; < < < < < < 3 3 < < ; ; ; < ; ; ; ; ; ; ; ; ; ; ; ; ; ; ; ; ; ; ; ; , > , - > 9 t > ; - ; ; - ; - - ; ; ; = - = ; = = = = = = = & > > , , - - = = = = = = = = = = = = = = = > - & & & & & : : : : & & & & & & & & & & & & & & - * - = - - - = - - = & : : : , , : : , , , , , , , , : : : : : : : : & & & & & & & & : : : : : : : : & & & 8 ..e...r.S.J.*XgX+Xq.l r f @.{.&X-XOX.X^.Q.9.;.&.$.G F F m c c 2 c c c 4 2 v v G :.:.,.} ] P.cXLXIXIXIXKXcXhXhXgXgXgX*X@X`.H.6.| D N n n n n N Z D U U ' ' ] ] ] P K f a p p y i a B B P P P ] ] U U P P L B a y y 9 7 ; = & & & O O O O o O O O O O O O O O O O O O O O O O O O O O O O o o o o o o o o X X X X o o o o X X X X ",
"2.9.9.9.2.:.&.~ E D D B B f a y y y y f f f f f f f d f f y y y y t u u g K ) { +.5.f.h.h.g.g.g.4.8.4.4.,.:.~ ~ J J D D B B f a a f g C K ( ( K l l d u 8 8 8 8 8 u k l l l K B B B p p i i i i i i i i i i i i i 0 r B e.'.S.0.....U B i i a i i i n U U U B i r r r r i i i i r r r i i i i i i i B L L a i 0 0 0 0 0 w w w w 0 0 i i i i B m i i w 0 w w w w e e e e e e e p p n ] 6.{ D N B P ] B w w w w w e e e e e e e e e e e w e e e e e e e e w w e e p e e e q y l 0.C.hXKXPXIXIXIXIXPXPXLXGXHXFXCXbXuXyXOX=X.X.X.X_.!.!.m.b.b.m.Q.!.)._.).c.c.).).`.D.7.#...q.G.P.S._ d 9 r r r i i w q q q 0 0 r r r r p a y 0 0 0 0 r r r r r r 0 r r r r 0 0 0 0 r r r r r r r r r r r r r r r r r r r r r r r r r r r r r r r r r r 0 0 p ] H.L.Z...u 0 0 r r r 9 r r r < < < < 9 < 9 9 7 9 9 9 ; ; ; < ; ; ; ; ; ; ; ; ; ; ; ; ; ; ; ; ; ; ; ; , , , - < L _ u ; - ; ; - > < - ; ; - = = = = > 8 k k k k j > > ; ; - - - = = = = = = = = = - - = - = = - - & & @ @ & & : : : : : & & & & & & & & & @ @ @ & & & - - - - - - - - - , : : , , , , , , , , , , , , : : : : : : : : & & & & & & & & : : : : : : : : @ & @ 8 ..q.I L L ..J.+XJ.P t ; r ) h.).XX.X_.Q.9.9.:.%.G F F m v c 4 2 2 4 c c 2 c b m J :.:.} P q.gXmXKXPXLXmXhXR.S.V.q.H.L.J.H.h.,.| D Z n n n n n N S U } } ]  . .] U L B a y y r r t p f B L L P P P L L L g g a y y 9 7 ; = & & & O O O O o O O O O O O O O O O O O O O O O O O O O O O O X X o o o o X X X X X X o o o o X X X X ",
"9.9.9.9.2.&.&.~ W J S Z N B f f f f B B V A A A C C C C g g g f f d g g h K ) @.5.5.g.g.g.g.g.s.4.4.4.4.,.:.~ ~ J J H S S A N B A D Y ( [ { { { ] ( K l d u s y 8 u d l l K K B B B p p i i w w i i i i i i i i 0 0 r L e.r.,.P B ] U a i i i 0 i i B ....] m i r r r r i i i i r r i i i i i i i i i i i i i 0 0 0 0 0 w w w w 0 i B n i i p i 0 w w w w w w w e e i i e e e e e B  .@.' D N B P U B w w w w w e e e e e e e e e e e w e e e e e e e w w w e e e e e q d _ C.fXkXGXPXPXIXIXPXPXLXGXFXCXCXbXuXyX=X=X.X.X!.Q.Q.Q.Q.z.z.9.9.9.9.z._.XX_.c.8.).XXXX`.7.( K ) ` q.` _ l y y y r r r q q q q 0 r r r 0 0 0 q r 0 0 0 0 r r r r 0 0 0 r r r r 0 0 r r r r r r r r r r r r r r r r r r r r r r r r r r r r r r r t r r 0 0 0 1 0 y L _ I u r r r r r r 9 9 r r r < < < 9 9 7 9 9 9 9 9 ; ; ; ; ; ; ; ; ; ; ; ; ; ; ; ; ; ; ; ; ; ; ; ; ; > , - < I q.l > - - > l I l < ; ; - - = > j z C.P.P.P.P.S.0.8 ; ; ; - - - = = - = = = - - - - = - = = - - & & @ @ @ @ & & : : : , - & & & & & > k j # @ @ & & & - - - - - - - , , , : , , , , , , , , , , , , : : : : : : : : & & & & & & & & : : : : : : : : @ & @ > l _ u 9 r a ..H.7.P B r * 9 K O.c.m.z.9.:.:.%.G m v v v v 4 2 2 2 2 4 c 2 2 c m G } :.U B L q.gXmXGXGXmXgXL.Z.{ { @.7.7.5.,. .' D A N N n n N N S U } } }  . .] U P B a y r r r r r y a a a K K K l K g a u y y y 9 7 ; = & & & O O O O o O O O O O O O O O O O O O O O O O O O O O O O X o o o o X X X X X X X o o o X O O O O ",
"Q.Q.c.9.:.&.&.~ ~ J J S S S N N N S D J W W W ' ' ' ' T D D A A C B B C C ( { @.5.5.5.4.4.4.4.4.4.2.4.2.>.:.~ ~ ~ J J J J J S S W | | ,.2.1.1.,.O.{ { ( C g d u u u g l K l B B B a p p i i i i i i i i i i i i i 0 i U r.H.H. .@.e...a r i i 0 i i m L L L i 4 0 0 0 0 0 0 0 0 0 0 0 0 0 0 0 0 i i i i i i i 0 0 0 0 0 0 0 0 0 0 p B B i i i i w w w w w w w w w w e e e e w w e B ,.5. . ...@.] D p q w w w w w w w w e e w w e w w w e w w e e e e w e e e e e e y l 0.R.cXJXLXPXPXPXPXPXPXLXGXFXCXbXuXyX=X.X.X/.Q.Q.Q.W.t.t.t.9.9.;.;.&.;.c.XX-XXX8.2.9._.XX`.5.D g g l ) _ _ K g a y 0 0 q i r r r r r r r r r r r r r r r r r r r r r r r r r r r r r r r r r r r r r r r r r 3 3 3 3 3 3 9 9 r r 0 0 9 r r r r r r r r r r r r r 0 1 0 r r r r 9 9 9 3 3 r r r r ; r 9 ; 9 9 9 9 < < < < ; ; ; ; ; ; ; ; ; ; ; ; ; ; ; ; ; ; ; ; ; ; ; ; ; ; ; - > a I u ; ; ; t q.S._ 9 ; ; ; - 9 z C.fXcXGXmXmXmXkXP...u 7 ; ; = = - = - - - - = = = - = = = = & & - & & @ @ @ @ @ @ @ & & , , , & : > I q.I > @ @ @ @ & & - - : : , , & & & & : & & - : : : : : : : : : : : : : : : : & & & & & & : & : : : : : : : : & & & & > 8 > = , r P ,. .P ] L > @ = y C W ~ J J G G m v 2 4 i 4 4 4 2 2 2 4 4 2 2 2 v G U J H n a _ S.%XkXkXjX*XP.Z.@.{ { { { { [ ' P D A B B B N N Z S J ' } ' ] ] ] U P B a r 9 < > - ; ; 7 9 r t t t t t t y y y y y r 9 7 ; = & & & % O O O O O O O O O O O O O O O O O O O O O O O O O O X X O O o o X X X X X X o o O @ : : : > ",
"Q.Q.9.9.:.&.&.~ ~ ~ W J S S S S J W } | | :.:.,.,.,.| | | ' ' ' T D D D T '  .O.5.5.4.g.4.4.4.4.4.4.2.2.:.&.! ~ ~ ~ ~ ~ ~ ~ ~ ! >.>.4.4.s.s.s.s.5.5.O.[ ( C h g g g l K K B B B B p p i i i i i i i 0 4 4 i 4 i 0 0 p ..J.'.H.7.r.Z.I i 0 0 0 0 i i i i i i i i 0 0 0 0 0 1 0 0 0 0 0 0 0 0 0 0 r r i i i i i i 0 0 0 0 0 0 0 0 w i p i i i i i w w w w w w w w e e e e e e w w p B ..H.H.K.J.H...B w q w w w w w w w w w w w w e w w e w w e e e e e e w e e e e e l q.gXmXLXPXPXPXPXPXPXLXLXGXFXNXpXyXOXOX.X/.Q.Q.Q.t.t.t.9.9.9.;.;.;.&.&.&.8.`.XX).2.&.:.8.).c. .D f a g K ....) g u y y 0 r r i r r r r r r r r r r r r r r r r r r r r r r r r r r r r r r 0 r r r r r r r r 9 3 3 3 3 3 r 9 9 r r 0 0 9 9 r r r r r r r r r r r r r r 0 0 r r r 3 9 9 3 3 3 r r 9 ; < r ; ; 9 9 ; ; ; < 9 ; ; < ; ; ; ; ; ; ; ; ; ; ; ; ; ; ; ; ; ; ; ; ; ; ; ; ; ; > 8 > ; ; ; u q.e.I < ; > ; > I P.kXmXGXFXcXhX%X+XJ.e.) l r ; = = - , , - - - = = = = - = = = & & - & @ @ @ @ + @ @ @ @ & , , , , : 8 0.q.l 8 , & @ @ @ @ & & & & & & & & & & & & & & : : : : : : : : : : : : : : : : : & & & & & : : : : : : : : : : & & & & & & & & - < L .. . .,...u @ o O = 0 e m Z A Z m i i 3 3 4 i 4 2 2 2 4 4 2 2 2 v G J H M p p l #.P.@X*X*X+XJ.Z.@.@.@.{ ] ( ( ( P D B B B B A A S S J ' ' ' U U P P K a t 9 > > > = = = = = > > > > 9 9 r r y t u y r r 9 > > = = & & O O O O O O O O O O O O O O O O O O O O O O O O O O X X O O o o X X X X X X o o X @ : > > > ",
"Q.Q.9.2.&.&.&.&.&.~ ~ ~ W W W ~ | :.2.2.2.4.4.8.4.4.4.4.,.,.| | [ W W W [  .O.,.5.5.4.s.4.4.4.4.4.4.2.>.>.&.! ~ ~ } ~ ~ ! &.&.2.9.z.z.c.c.c.c.m.c.g.5.+.X.[ [ ( K K L L B B B B n p i i i i i i i i 0 4 i i i i 0 0 a #.P.@X+XS.#._ a 0 0 0 0 0 i i i i i 4 i i 0 0 0 0 i 0 0 1 0 0 0 0 0 0 0 0 r r i i i i i i 0 0 0 0 0 0 0 0 0 0 w w w w w w w w w w w w w w e w e e e e e i i n P 7.J.J.H.6.L p w w w w w w w w w w w w w w e e e e e e e e e q e e w w e e e g ` R.ZXLXPXIXPXPXPXPXLXGXHXCXNXuXyXOX.X.X!.Q.Q.t.t.t.;.;.;.;.;.&.&.&.&.$.$.&.8.c.8.&.&.2.8.4.:.W N p p g K _ _ l g d y 0 0 0 r r i i r r r r r r r r r r r r r r r r 0 0 r r r r r r r r r r r r r r r r r r 9 9 9 9 3 r r r 9 9 r r 0 9 9 9 r r r r r r r r r r r r 3 3 r r r r 3 3 9 9 9 r r r 9 9 < < 9 9 8 u u u 9 > ; ; ; ; < < ; ; ; ; ; ; ; ; ; ; ; ; ; ; ; ; ; ; ; ; - ; ; ; > > - - ; ; ; 9 I e._ u > > ; 8 q.gXFXFXnXjX+XS.....] ] ] ] P r - = , , , - - - = = = = - = = = = = & & & @ @ + + @ + @ @ & : , > , & > I _ I L t & @ @ @ + + @ # # : : & & & & & : & : : : : : : : : : : : : : : : : : : : & & & & : : : : : : : : : : & & & @ @ @ @ & * ; a ] @.6.7.7.K = O O O @ - r n n n p p t r 3 3 i i 4 2 2 4 4 2 2 2 v m G Z n p p g ..S.P.P.P.G.Z.7.....@.{ ] ( P D D C B B B B A D J ' ' ' ' P D A B B a y r 9 > > & & & & & & & = = > > > 9 r y u a a a y r 9 9 > , , & & O O O O O O O O O O O O O O O O O O O O O O O O O X X X O o X X X X X X X o o X @ : > > > ",
"9.9.2.&.&.&.&.&.&.&.&.! ^ ^ *.>.2.4.4.z.z.c.c.c.c.c.c.s.4.4.2.,.>.o.| | | ,.,.,.4.4.g.s.g.4.4.4.4.2.2.:.^ ~ &.&.:.:.&.&.&.&.2.9.z.Q.Q.!.!.!.!.!.!.N.c.g.g.5.5.@.@.{ ( P C B N N n p i 0 i i i i i i 0 0 i B L m i i ..'.jXjX@XJ...B i 0 w 0 0 r 3 4 i i i i i 4 r 0 0 0 i i 0 1 0 3 3 3 3 3 3 3 r r r i i i i i 0 0 0 0 0 0 0 0 0 0 0 0 w w w w w w w w w w w w w e e e e e e i i p p K ] ] P B p e w w w e w w w w w w e w w w e e e e e e e e q q q e e w e e y ) S.kXGXPXPXPXPXPXPXLXGXHXCXbXyX-X=X.X/.Q.Q.W.t.t.;.;.;.;.$.&.$.$.$.$.$.$.$.$.%.:.%.G :.).c.:.W S N p p a K L h d g g y 7 7 7 r r i i r r r r r r r r r r r r r r r 0 0 r r r r r r r r r r r r r r 0 r r r r 9 9 9 9 9 r r r 9 9 r r 0 9 9 9 r r r r r r r r r r r r 3 3 r r r r 3 3 9 9 9 r 3 9 9 9 9 8 z 0.C.C.C.S.q.I t < ; ; < < ; ; ; ; ; ; ; ; ; ; ; ; ; - ; ; ; - - - - ; ; ; > ; - - - - ; ; u _ _ a - ; 9 l e.gXmXmX*XJ.6.U n n n p f P ] L 9 , , , , - - - = = = = = = = = = = = & > & @ @ @ @ @ @ & & : , , & & & t _ e.q.k , & @ @ @ + + # # : : & & & & & & : & : : : : : : : : : : : : : : : : : : & & & & : : : : : : : : : & & & & @ @ @ @ @ * - y L ] @.6.e...u @ O O @ - r B a i r t t r < 1 3 3 3 1 4 i v 4 2 c v A H H A n a g ) q.S.S.Z.q.#...] ..{ { ] ( K L B h g a a B A U ' } } } U A B p p y r r < , , : @ @ @ @ @ @ @ & & - , > 9 r u a a a a a t r 9 9 > , , : & O O O O O O O O O O O O O O O O O O O O O O O O X X O O o o X X X X X X o o X @ : : : > ",
"9.;.&.&.&.&.&.&.&.&.&.&.&.2.2.4.z.z.c.Q.!.Q.!.!.!.!.m.c.c.s.4.4.4.3.2.2.2.2.2.2.4.4.4.g.x.c.K.K.K.h.2.^ &.&.&.:.:.:.&.&.2.9.9.z.Q.Q.Q.!.!.^.^..X[.[.).).H.H.j.7.6...] U D A B n p i i w 0 0 0 0 i i 0 i L ..r.] i B r.@X'.r.q.#...a i i i i i i r 3 i i i i i i r r 3 r r i a i r 3 r r r r r r 3 3 3 3 r r 0 0 r r 0 0 r r r r 0 r r r i r r i i i i i 0 w i w w w w w i i w i i i p p p p p w w w w w w w w w w w w w w w w w w w w w e e e e q q q q w e w p g q.+XmXLXLXPXPXPXLXLXGXHXCXdXyX=X=X/./.Q.Q.t.t.t.;.;.;.&.&.$.$.$.$.$.$.$.$.G G G G G G :.8.,.J S Z N B B B a a f f K K a 7 ; ; r r r r r r r r r r r r r r r r r r r r r r r r r r r r r r r r < < < 9 r r r r < < < < 9 9 9 9 < < ; ; 9 9 < < r r < < < < < < r r r r 3 3 9 9 r r r 3 9 r 3 r < 9 9 9 u 0.P.kXmXmXcXkX@XS...u 9 7 ; ; ; ; ; ; ; ; ; ; ; ; ; ; - - - - - , , , - - - , , , - - = = = = > 8 t > = = t ..Z.+XvXjX`.,.J m v b i i i a P ] l < , , > - - - = = = = = = = = - - - - & & & & = = & & - - , , > , & & : k I I > : : & @ @ @ @ @ : : : : : & & & & & & : : : : : : : : : : : : : : : : : : : : : : : : & & & & & & & @ @ @ @ @ @ @ @ & & - r p C  .6.7.@.P t 9 ; = - t g l a t r r 9 > ; ; ; ; 1 r a m n m v v G } :. .( f y h ) ...._ ) K P P P P P K L l l g g u y y B A '  .,.,. .' B p r 3 < < - - > : : @ O O O O O @ @ & , , , < r y a a a a a a y r 9 9 > > , : @ O O O O O O O O O O O O O O O X O O O O O O O O O O O O O O X X X X X X X X O O @ @ @ ",
";.&.&.&.&.&.&.&.&.&.;.2.2.9.9.z.Q.Q.!.!.!.!.!.!._.).!.!.m.c.c.x.s.4.4.4.4.4.4.4.4.4.g.c.).&XuXvXuX&XH.:.&.&.&.:.:.&.;.9.9.z.W.Q.Q.Q././././..X.X.X.X.X[.).).).H.7.,. .U D A N n p i 0 0 0 0 0 0 i i i B U ..6.U p K e.r.] B B P L a 0 r i i i i i i i i i i i i r r r r r a L B r 3 r r r r r r 3 3 3 3 r r 0 0 r r 0 0 r r r r r r r r i i r i i i i i i i w i w w w w p p B B B p i p w w w w w w w w w w w w w w w w w w w w w w w w e e e e e q q q q w q q K S.jXGXLXLXLXLXLXGXGXHXCXdXyX=X.X/.Q.Q.Q.t.t.;.;.;.;.$.$.$.$.$.$.$.$.G F F F F F F F G J U A m n n B B K L B p p P { @.P y ; ; ; r r r r r r r r r r r r r r r r r r r r r r r r r r r r r r r < < 9 9 r r r r 9 < < < 9 9 9 9 < ; ; ; r 9 9 < r r 9 9 < < r 3 r r r r 3 3 9 9 r 3 3 < 9 r r r < 9 9 r _ @XmXmXmXjXgX+XS.e.e...a 7 ; ; ; ; ; ; ; ; ; ; ; ; ; - - - - - , , - , - - - , , , - - = = = = = = = ; = = l q.J.G.P.J.6.U A m b i 4 4 r i L @.q.l , , - & & - = = = = = = = = - - - - & & & & = = - - - - , > k 8 , & @ : > : : : : : @ @ @ @ @ & : : & : : & & & & & : : : : : : : : : : : : : : : : : : : : : : : : & & & & & & & & @ @ @ : : @ @ @ & > t r y ( ,...] P L L g t > > u l a u u 8 > > 9 9 9 9 < r i p B B m n J  .6.7.@.P y q a B K h g B B B B B a u u u u t 8 y 9 y a B '  .,.,. .' B i ; - - - * & & & @ @ O O O O O O O % & , , > 9 r t a a a a a y y r 9 > , , : + O O O O O O O O O O O O O O O X O O O O O O O O O O O O O O X X X X X X X X X X X X X ",
"&.&.&.&.&.&.&.&.;.;.;.9.9.z.b.Q.Q.!.!.^.^..X.X.X.X.X[._.).!.!.m.c.c.s.s.4.4.4.4.4.g.H.`.XX-XuX-X-X-X`.4.&.&.2.9.9.9.9.9.z.Q.Q.Q.Q./././..X.X=X=X=XOX.X.X.X_.).H.c.6. .' J A n i w w 0 0 0 0 0 0 0 0 i L ....] B p U 8.,.U U ]  .U a i i i i i i i i i i i i i i r r 3 r r r a i 3 3 3 3 3 3 r r r 3 r r r r 0 0 r r r 0 r r 0 r r r r r i i i i i i i i i p i i w w w w p K ] P K n w i w w w w w w w w w w w w w w w w w w w w q w w w e e e e e e e e e q q h q.%XZXGXLXLXLXLXGXHXCXCXdXwX=X.X/.Q.Q.Q.t.t.9.;.;.$.$.$.$.$.$.$.G G G F F F F F m m U  . .U b b i i n B B A B p B ] ,.7.@.K r ; ; r r r r r r r r r r r r r r r r r r r r r r r r r r r r r r r r r r r 9 9 < < 9 9 < 9 7 9 ; ; < < < ; r r < < r r r 9 r r r r 9 r 9 r 3 < 9 9 r r < < 9 9 r r r r 9 u q.*XvXgX'.S.q._ L L ] ..U y 7 ; ; ; ; ; ; ; ; ; ; ; ; - - - - - - - - - - - - - , - - - = = = = = = = = = 9 l #.Z.Z._ I P A m b i i 4 3 3 r g ..r.I < - = & - - = = = = = = = = & & & & & & - - = = = - - - : 8 I k , & @ @ O @ & : : : : & @ @ @ @ : : & & & & & & & & : : : : : : : : : : : : : : : : : : : : : : : : & & & & & & & & & @ @ > t > @ @ & 8 l a y D  .P p a L ] U K r = > 8 u u 8 > > > 8 8 > > > > < r i n n n A ] @.e.6.] a 0 0 r p p a a B B B p y 9 9 8 9 9 9 9 9 y u h U ] ....} U B i ; - & & & @ @ @ @ @ O O @ O O O @ @ & & , , > 9 t t t t a a t r 9 9 > > : & @ + O O O O O O O O O O O O O O X O O O O O O O O O O O O O O X X X X X X X X X X o o o ",
"&.&.&.&.&.&.&.&.;.;.9.9.z.Q.Q.!.!.!././..X.X.X.X.X.X.X.X[.).!.!.m.c.c.x.4.4.4.4.g.N.K.H.c.H.H.H.H.K.H.,.! &.9.Q.!.!.Q.W.Q.Q.Q.!./././.=X=X=X=X=X=X=X=XOX.X.X).).c.4.:.' H Z n w w w w w 0 0 i i i i i m L L a 0 i ] H.H.r.r.r.6.P i i i i i i i i i i i 4 4 4 4 r r 3 3 3 1 0 0 3 3 3 3 3 3 3 r r r r r r r 0 0 r r r r r r 0 0 r r r r i i i i i i i i i B p i w w w w i B P B n p w w w w w w w w w w w w w w w w w w w w w w q w w w e e e e e e e e e e g #.R.vXFXGXGXGXGXGXHXCXNXdXyX=X=X/.Q.Q.W.t.t.9.;.;.&.$.$.$.$.G G G F F F F F m m v v m } r.r.] i 1 1 3 i i n B B B B ' 5.Z.7.] a 7 ; 7 r r r r r r r r r r r r r r r r r r r r r r r r r r r r r r r r r r 9 9 9 < 9 9 9 9 7 ; ; ; 9 9 < 3 3 3 < < r r r r r r r r 9 9 9 r 3 < 9 9 r r < < < 9 r r r 0 r ) J.`.L.e...P p 0 0 r a P ] L r ; ; ; ; ; ; ; ; ; ; ; ; - - - - - - - - - - - - - - - - - = = = = = = = = = 9 ) #.7.q.l t p n i i i 4 3 < < r a _ e._ < - = & - - = = = = = = = = & & & & & & - - = = = = & & & > k k , : & @ O @ & : : : : & @ @ @ @ : : & & & : & & & & : : : : : : : : : : : : : : : : : : : : : : : : & & & & & & & & & @ : t I k : @ @ > l K f C { P y r f P ] P u = @ + # > # + + # > > > # @ @ : > < 3 r r i B P ] ] P a 0 0 r r y y a B B B f y 9 7 9 9 8 9 9 9 y u l L ] ] ] P L a r - - & & @ @ @ @ @ @ O O @ O O O @ @ & & & - > > 9 8 t t t t 8 9 9 > > > : : @ + O O O O O O O O O O O O O O X O O O O O O O O O O O O O O X X X X X X X X X X o o o ",
"&.&.&.&.&.&.&.;.9.9.W.Q.Q.Q.!.^././..X.X=X=X=X=X=XOX.X.X.X[._.!.!.m.c.s.4.4.4.4.c.c.h.4.>.:.:.| o.1.4.| ! &.*.9.Q.z.z.W.Q.Q./././.=X=X=X=XqXwXwXwX=X=XOX.X[.).!.c.2.} W S N p 0 0 i i i i 0 i m B m i i i i 0 0 i L r.`.`.J.r.] a i 0 r r r r r 3 3 3 3 4 4 4 4 r 3 3 3 1 1 1 0 3 3 3 3 3 3 3 3 r r r r r r 0 0 r r r r r r r r r r 0 r r r r 0 r r i i p K B i w w w w w i p i i i w w w w w w w w w w w w w w w w w w w w w w q q w w w w w w e e e e e f #.+XjXZXFXGXGXGXHXFXCXNXyXwX=X=X/./.Q.W.t.t.9.;.;.$.$.$.$.G G F F F F F F m v v c 4 4 i U ....L 3 - - - 3 i i n n B A U ..7.7.@.L y 7 7 r r r r r 9 r r r r r r r 0 r r r r r r r r r r r r 9 9 3 3 r r 9 9 9 r 3 3 9 9 ; 7 7 9 9 < r r r r 3 < < < < < < < < < < < 3 3 ; ; < < < < < < < < < r r 3 1 0 y #.L.J.@.P p r 0 ; ; 3 r a U ..l ; - ; ; ; ; ; ; ; ; ; ; ; - - - - - - - - = = = = = = = = = = = = = = = = = 9 I ..@.] l t a u r r t t > > < 9 a _ e...t - & & & & - - - & & & & & & = = = = = = = & - - - : : @ @ : > : : : : @ @ @ @ & & : & @ @ @ @ : : & & & & : , , , : : : : : : : : : : : : : : : : : : : : : : : : & & & & & & : : & @ : t I k : @ @ & t L f C { ] a r p P ] ( h 9 + X X X X X . . . . X X X X + + @ & = - < r r a l l t t a I I g y a B A P B a r 9 9 9 9 8 9 9 9 u d l K L L B f y r - - & @ @ @ O O O O @ @ @ @ @ @ @ O O O @ @ & : > > > > > > > > > > > > : : @ + O O O O O O O O O O O O O O O O O O O O O O O O O O O O O o X X X X X X X X X o o X ",
"$.&.&.;.;.;.9.9.W.Q.Q.Q.Q.!./././..X=X=X=X=X=X=X=X=XoX.X.X.X[.!.!.m.c.c.s.4.4.4.g.4.4.>.| ,.6.7.6.6.:.W ~ ! *.9.z.z.z.W.Q.Q././.=X=X=XwXwXwXwXwXwX=X=X.X.X_.!.c.4.,.} H Z n w 0 0 i i i i 0 i m B B a i 0 0 0 0 i m U 6.6...L a i 0 0 0 r r r r 3 3 3 3 4 3 4 4 r r 3 3 1 1 1 1 3 3 3 3 3 3 3 3 r r r r r r 0 0 r r r r r r r r r r r 0 r r r r r r i i B ] P i p n p w w w w w w w w w w w w w i p i i w w w w w w w w w w w w q q w w w w w w e e e e e ] L.8XnXFXFXFXFXFXCXNXdXyXwX=X=X/./.Q.W.t.;.;.;.;.$.$.$.$.G F F F F F F m v v v c 2 2 - - 4 a a 3 - % % - - 3 i i n n A U  .6.h.7. .B 0 ; 7 r 9 9 9 9 9 9 r r 9 9 r r r r r r r r r r r r r r 9 9 r r r r 9 < r r 3 3 9 9 ; ; 9 9 9 9 r r 3 r 3 3 < < < < < < < < < < 3 3 ; ; ; < < < < < < < 9 9 3 1 ; 0 f #.H.r.P a r 9 - - - ; ; t L ..] t ; ; ; ; ; - ; ; ; ; ; ; - - - - - - , - = = = = = = = = = = = = = - = = = = y ) #.] I u l a < , > > > > 8 t u l ..#.l - & & - - - = - & & & & & & & = = = = = = & - - , : & @ @ O @ : : : : & @ @ @ @ @ : & : : @ @ : : & & & & , , : : : : : : : : : : : : : : : : : : : : : : : : : : : & & & & & : & @ & > > t 8 : @ @ @ > t y y ( { P p B ( ] ] L t +     .   . . .           X X X O @ @ = , > > > 9 9 9 u ..S.J.#.l p B P P P B y 9 9 9 6 6 9 9 8 y t u u u a a a t < - & @ @ @ @ O O O O @ @ @ : & & @ @ O O O O O @ @ : : : : & # # : : : : : : @ + O O O O O O O O O O O O O O O O O O O O O O O O O O O O O o X X X X X X X X X o X X ",
"G $.&.&.&.9.9.W.Q.Q.Q.Q././././.=X=X=X=X=X=X=X=X=X=X=X.X.X.X[.^.!.!.m.c.s.4.4.s.4.4.2.,.H.`.+X'.`.H.} H H G &.9.9.9.z.Q.Q././.=X=X=X=XwXwXwXwXwX=X=X.X.X_.!.c.4.2.| J Z n e 0 i 0 i i i i r r i m a i 0 i i 0 0 i i i a m i i i i 0 1 1 r 3 r r r 3 3 3 3 3 3 3 r r 3 3 1 1 1 1 3 3 3 3 3 3 3 3 3 3 3 3 r 3 0 0 r r 0 0 r r r r r r r 0 r r r r r i i i i B p i B B p w w w w w w w w w w w w w n P B i w w w w w w w w w w w w q q w w w q e w e e e e C Z.&XvXbXCXCXbXvXNXbXyX=X=X=X=X=X/.Q.Q.W.t.;.;.;.;.$.$.$.G F F F m m v v v v v 4 4 2 - - % - - - & % o o % & - 3 i b b m A ' 5.h.H.f.] y ; ; 7 9 9 9 9 9 7 7 7 9 9 r r r r r r r r r r r r r r r 9 9 r 3 < < < r r r r 9 7 ; ; 9 9 9 9 ; < < < r 3 < < 7 7 r 9 < < < < r r < < < < r 3 < < < < 9 9 9 7 ; 0 h @.e...g r 9 > = = , - ; y h ..q.l < < ; ; - - , - ; ; ; ; - , - - - - , , = = - - = = = = = = = = = = = = = = 7 g ..] g 8 u t > : > # # > > > 9 9 l ) l , = = - - = = = = & & & & - = = = = = & & & & - , : @ @ + @ @ @ # : : : & @ @ @ @ : : : : @ @ @ & : : & & & & & & : : : : : : : : : : : : : : : : : : : : : : : : : : & & & & : : & & > > > > : + @ O @ > > 7 f ( ( A D ( ( ) L u # X       X . .           . . X + + = > 9 6 = = = = 6 l r.+X@XJ._ a B P P P L h u y 9 9 = = > > 6 9 8 9 9 r r t r < , & @ @ @ @ O O O O @ @ : : : : & @ O O O O O O O + + + + + + + + + # # # # @ O O O X X X X O O O O O O O O O O O O O O O O O O O O O O O o X X X X X X X X X X X X ",
"F G G $.&.;.9.t.W.Q.Q.Q./././..X=X=X=X=X=X=X=X=X=X=X=X.X.X.X[.^.!.!.m.c.c.s.c.c.z.9.4.H.@X@X`.J.r.6.K Z Z G G &.&.;.z.Q.Q././.=X=X=X=X=X=X=X=X=X=X.X.X!.!.c.4.>.} J Z n e 0 i i i i i i r r r r i r 0 0 r i i i 4 i 4 3 3 i i i i 3 1 3 3 3 r r r 3 3 3 3 3 3 3 3 3 3 3 1 1 1 1 3 3 3 3 3 3 3 3 3 3 3 3 3 3 r 0 r r r 0 r r r r r r r 0 r r r r r r i i 0 i 0 w n n w q q q w w w p p p w w w w n K n i w w w w w w w w w w w w q q w w w w q e w e e e Y A.XX*XbXvXuX&XOX-XOX.X.X=X=X=X.X/.Q.W.t.;.;.;.;.&.$.$.G F F m m v v v v v v v 4 2 - - - % % % % % o o o o % - 3 3 i i i m U ,.h.H.H.7.K 7 ; ; 9 9 9 9 ; ; ; 7 9 9 r r r r r r r r r 9 9 r r r r 9 9 r 3 < < < r r r 9 9 9 ; ; 9 9 9 9 < < < < r r 3 < 7 7 r 3 < < r < r r r 9 9 9 r r 9 9 9 < < < 7 7 1 7 g ..@.K y 9 , > > > 9 ; ; 7 u _ e.L < , < < - , , - ; ; > > , , - - - , , , - - - - - - = = = = = = = = = = = = ; y ] ] K u 8 > : > > # 8 8 8 > = 6 y g r = = = - - = = = = = = - - - = = = = & & & & & - , & & @ @ @ @ @ @ , > > > : @ @ @ : : : : @ @ @ @ : : : : & & & @ & : : : : : : : : & & & : : : : : : : : : : : : & : & & & & : : @ : > > > k k $ + O O @ & ; y B D D A f g g l u # X       . . .           . . + # 6 8 8 8 6 = # > > > k q.+X@XP...a n A U U P P L h g y y 7 = = = = > 6 9 9 9 r t > , & @ + @ @ O O O O @ @ : : : : : @ O O O O O O O O X X X X X X X X @ @ + + @ + + + + O O O X X X X O O O O O O O O O O O O O O O O O O O o X X X X X X X X X X X X ",
"F F G G &.;.;.;.W.W.Q.Q./././..X=X=X=X=X=X=X=X=X=X=X=X.X.X.X.X^.!.!.!.m.c.c.c.c.c.4.c.).).Z.@. .U P m n m F F G :.9.!.!.Q.!..X.X.X.X.X.X.X.X.X.X/.!.Q.Q.9.2.:.W S N n w 0 i i 4 4 3 3 3 r r r 3 3 1 1 0 r i i i 3 r 3 3 r r 0 0 3 3 3 3 3 3 3 3 3 3 3 3 3 3 3 3 3 3 3 3 3 3 3 3 3 3 3 3 3 3 3 3 3 3 3 3 r r r r r r r r r r r r r r r r 0 0 0 0 i 0 i i i i 0 w e w q q q q w w e n A n e w w e n B p w w w w w w w w w w w w w q q q q w w w i p w e e ( h.K.XXuXuXXXK.m..X.X.X=X=X=X.X/.Q.W.t.;.;.;.$.$.$.$.G F v v c c c v v v v v 4 1 - - - - % % % % & o o o o o % , < 3 3 r i A  .6.H.J.Z.] u ; = > 9 9 ; ; 7 7 9 r r r r 3 3 r r t I 0._ l r r < 3 3 r r r 9 9 9 9 9 9 9 9 9 9 9 9 9 9 9 7 7 7 7 7 9 9 7 7 < 3 3 < < 3 1 ; 7 r r 9 9 9 9 9 9 7 7 7 ; ; ; 7 7 g ....l t u > > > 9 > > = ; t ..e.I r , < - - - - - - ; ; ; = = = = = = = = = = = = = = = = = = = = = = = = = = = 7 K { ) l 8 > > > # # # 8 8 k 8 8 k l 9 = = = & & & = = = = : : : : : : : : : : : : : : : & & & & @ @ > t t k u 8 > @ @ @ @ : : : : @ @ @ @ : : : : @ O @ : : & & : : : : & & @ @ : : : : & & & & : : : : & & & & & & @ @ @ @ : t 0.C.fXw.j . O O : - r B ) [ D y 7 7 9 9 # X         . . . . .   . X + # 8 k l k 8 # # 6 8 8 8 8 I q.S.q.L a B D ' ' }  . . .] ] P B y 7 = # = = = 9 9 9 8 > : : @ @ @ @ O O O O @ @ : : : : : @ O O O O O O O O X X X X X X X X X X @ # > j k k k j # O O O X X X X X X X X X X O O O O X X X X X X X X X X X X X X X X         ",
"F F G G &.;.;.;.W.W.Q.Q././././.=X=X=X=X=X=X=X=X=X=X=X.X.X.X[.^.!.!.!.!.!.!.m.c.c.c.c.c.8.5.6.,.U m m m m m F :.).XX&X.XQ.Q./..X/.^./.^.^.!.!.!.Q.b.9.2.>.~ H Z n i i r 0 r r r 3 3 3 r r r r 3 3 3 1 1 3 3 3 3 i r 3 3 0 0 0 0 3 3 3 3 3 3 3 3 3 3 3 3 3 3 3 3 3 3 3 3 3 3 3 3 3 3 3 3 3 3 3 3 3 3 3 3 r r r r r r r r r r r r r r r r r 0 0 0 i 0 i i i w w e n p w q q q w w w p n p e w w e B B p w w w w w w w w w w w w 0 w q q q w w w w q e e A O.H.).{.&XXXH.3.z.^.=X=X=X=X.X/.Q.t.;.;.;.;.$.$.$.$.G F v c 4 4 4 c v v v i 4 4 3 - - - - % % % % % % o o o o % - , , < 3 r B ' ,.H.J.J.e.K 7 = > > > ; = 7 9 r r r r r 3 r r t 0.P.gXP...a r r 3 3 r r 9 9 9 9 9 9 9 9 9 9 9 9 9 9 9 9 7 7 7 7 7 7 7 7 7 < < 3 < t u u t r r r 9 9 9 9 9 9 9 7 ; ; ; ; 9 7 y ) ] h l L 8 = > > = > > = 9 l _ I t , < - - - - - - ; - ; = = = = = = = = = = = = = = = = = = = = = = = = > = = ; h ..{ l 9 9 6 6 > # # 8 l I d u l l 6 = = = - - - - = = : : : : : : : : : : : : : : : : & , : : & : l q._ u > > > @ + @ @ : : : : @ @ @ @ @ @ @ @ O O @ @ : : : : : : : & & & & & & & & & & & & : : : : @ @ @ & & & @ @ @ @ > I P.hXmXhXC.k # + @ : 9 a ( @.@.g 7 = = > : + X     . # # # # # # # + # 6 s l l l 8 # # 8 l l l 8 8 k l u r p B P '  .,.5.6.7.7.r.7...P g 9 = = = = ; 9 9 9 > : @ @ @ @ @ O O O O O O O @ @ : : @ O O O O O O O X X X X . X X # # j k z x 0.0.C.P.P.w._ 8 & O o o o X X X X X X X O O O O X X X X X X X X X X X X X X X X         ",
"F F G G $.&.;.;.9.W.Q.Q.Q./././..X.X=X=X=X=X=X=X.X.X.X.X.X.X[.^.!.).).)._.).!.!.c.s.4.c.c.c.6.' B m b b b m U H.&XXX_.c.z.z.Q.!.!.Q._.!.!.c.z.z.9.2.:.~ J S n n i i r r t t t r r 3 r r r r 3 3 1 1 1 1 r r 3 3 3 3 3 3 3 r 0 0 r 3 3 3 3 3 3 4 3 3 3 3 3 3 3 3 3 3 3 3 3 3 3 3 3 3 3 3 3 3 3 3 3 3 3 3 r r r r r r r r r r r r r r r r r r 0 0 i i i i p w w B U A p q w w w w w e e w w w w w p B p w w w w w w w w w w w w w w w q q w w w q q e B  .H.{.{.`.L.f.' ~ 9.!.=X=X=X=X.XQ.t.;.;.;.&.$.$.G F F F m v 2 2 2 4 4 4 i 4 4 4 3 3 3 3 3 - - & % % % % & & % % % & - , , < r p D { 7.J.L.H.] u ; > > 7 ; 7 9 9 r r r r r r r t I P.kX@Xr...L r < 3 3 r r 9 9 9 9 9 9 9 9 9 9 9 9 7 7 9 9 7 7 7 7 7 7 ; ; < < < 9 k 0.S.q...l r 9 9 9 9 9 7 7 9 7 7 ; ; ; 9 9 r B P B g l 9 = = @ # > 8 u 6 9 u t < - < ; - - - - - - - - = = = = = = = = = = = = = = = = = = = = = = = = , , - > l ) { ) d 9 d l l d s l _ _ d y k t = & & & & & - & = = : : : : : : : : : : : : : : : : , , - : & > 0.P.q.8 @ @ > > # @ @ & : : : @ @ O O O O + + + + @ @ : : : : : : : & & & & @ @ @ & @ @ & & : : : : @ @ & & & & @ @ @ @ : k q.gXmXKXcXC.k # @ : > 9 L @.7.] y ; - ; > > # + . + # 8 8 j k 8 8 # # > 8 k l s 8 # + 8 k l l 8 > # # > > r a L P } ,.8.c.H.J.`.`.H.6.] u 9 = = ; ; ; = > : & @ @ @ @ @ O O O O O O O O O @ @ @ O O O O O O O X X X X # j x 0.w.C.P.fXfXgXgXjXkXnXgXP.q.g - % O O O X X X O O O O O O O X X X X X X X X X X X X X X X X         ",
"m Z G G $.&.;.;.;.t.W.Q.Q.Q./././././..X.X.X/./..X.X.X.X.X.X.X[.[.).).)._.).).!.c.z.4.,.,.} D n b v v b b m 6.`.`.8.2.2.2.2.9.z.z.!._.!.4.2.2.:.&.~ H Z n n i i i r u I 0.r.e.0.l r r r r r 3 3 1 1 1 1 r r r t t t 3 3 3 r r r 3 3 3 3 3 3 4 3 3 3 3 3 3 3 3 3 3 3 3 3 3 3 3 3 3 3 3 3 3 3 3 3 3 3 3 3 r r r r r r r r r r r r r r r r r r r i i i i p n p p A ] U n w w w e p p w w w e e w w p i w w w w w w w w w w w w w w w w w w w w q q q y ( H.XX&X{.H.@.D n H 2.!..X=X=X.X!.Q.9.&.$.$.$.G F F m m m v 4 2 - - 3 3 4 4 4 3 3 3 3 4 4 3 - - & & & & , , , , & % % & - - - r p B P @.H.L.L.e.L 9 ; ; ; ; 7 9 9 r r r r r r 0 i 0.+XP.0.L K K t < 3 3 r 9 9 9 9 9 9 9 9 9 9 9 9 9 ; ; 7 9 7 7 7 7 7 ; ; 7 7 9 9 u w.kXcX@XS...l 9 9 9 7 7 7 7 7 7 7 ; ; < < 9 7 f ( K K t = = = = = 9 k l 9 y t 9 > ; < ; - - - - - - - - = = = = = = = = = = = = = = = = = = = = = = = = - , , - 9 g ( { ( g ( ..` { ) ) ) ) g u l t = & & & & & & & & = : : : : : : : : : : : : : : : : , , : & & > _ e._ 8 @ @ @ > > @ @ & : : : @ @ @ O O O O + + + @ @ : : & : : : : & & & & @ @ @ @ @ @ @ @ @ @ @ @ @ @ & & & & @ @ @ & : 8 I P.mXKXKXJXC.k @ : & = a ] ....L r ; r a g u 9 = # > 6 8 k s 8 8 # # # # 6 8 8 > + + # 8 s s 8 # # # + & > r a B P } ,.6.r.H.`.`.`.H.@.K u 9 7 7 ; = = & @ @ @ O @ @ O O O O O O O O O O O @ O O O O O O O O X X X # k w.fXhXcXmXJXJXmXmXmXmXFXFXnX*X`.6.B ; * & O O O O O O O O O O O X X X X X X X X X X X X X X X X         ",
"v F F G $.&.&.;.;.;.W.W.Q.Q.Q.Q.Q.Q././././././././././.^.^.[.[.[.[._._._.).).!.c.4.2.:.W Z n b i i v v i n ,.h.,.~ &.2.c.4.2.4.c.).c.2.:.~ ~ H S m m b b i i i i a 0.R.hXgXgX@Xq.t r 0 r 3 4 4 0 0 r r 0 t I q.e.q.I t 3 3 3 3 3 3 3 3 3 3 3 3 3 3 3 3 3 3 3 3 3 3 3 3 3 3 3 3 3 3 3 3 3 3 3 3 3 3 3 3 3 3 3 3 r r r 3 3 3 3 3 r 3 r r r r r r r r i i p w e n B n n w w w y B B p w p B B p w w w w w w w w w w w 0 0 0 0 w w w i i w w w q q q B @.`.-X-X`.5.A e e M :.Q.!..X_.Q.Q.9.&.$.G G G F m v v i i 4 1 - - - 1 3 3 3 3 - - 3 3 4 4 3 - - - & & , , < < , & O O & & - - r a B D { Z.`.'.H.] u 7 ; ; ; 9 9 9 9 r r r r 0 1 i ..J...p 0 p L a r < < 9 9 9 9 9 9 9 9 9 9 < < < 9 9 < < 9 7 7 ; ; ; 7 7 7 0 0 r I @XcXgXq._ _ I t 9 < < 9 7 7 7 7 7 7 7 9 < < 7 a L B g y 9 y 9 y 7 7 y u u u l t > , < < - - - - - - - - = = = = = = = = = - & & & & = = - - & & = = = = = - - = ; g { 5.@.{ @.A.A.f.#.#.) ) .._ _ u > , = & & & & - - - : : : : : : : : & & & & : : : : & & & & & > l _ I 8 & @ @ 8 8 > @ # : : : & @ O O O O O O + + @ @ & : : @ @ @ @ @ @ & @ & & @ @ @ @ : & & & : : @ @ @ @ & & & @ @ : 8 u I P.cXmXmXmXgXx # & & = 7 a P ] B p p p K ] ] K a r 9 8 8 8 u 8 6 > > # 6 8 6 6 > # # # # 8 8 8 8 8 8 + @ @ - - r p B P U ] ..7.H.H.H.7.{ K g 9 7 ; = = & @ @ @ O O O O O O O O O O O O O O O O O O O o O O o X X X $ 0.fXcXKXIXIXIXIXPXPXGXFXFXnXvX-XXXH. .A r ; * @ O O O O O O O O O X X X X X X X X X X X X X X X X         ",
"v m F G G &.&.;.;.;.;.t.W.W.Q.Q.Q.Q.Q.Q.Q.Q.!.!.!.^.^.!.!.!.[.[.[.[.[._._.).!.m.z.4.>.~ H Z n b i i v i i n (  .} ~ 2.c.c.s.4.c.).H.,.J S Z M n m b b w i 4 4 i i ] '.gXR.S.S.S.#.a r i r r 4 4 0 0 0 r u ..P.*X@X'.r.L r 3 3 3 3 3 3 3 3 3 3 3 3 3 3 3 3 3 3 3 3 3 3 3 3 3 3 3 3 3 3 3 3 3 3 3 3 3 3 3 3 3 3 3 r r 3 3 3 3 3 3 3 3 3 r r r r r r i i i w w e p L I B p w q q p p p p B P U A p w w w w w w w w w w 0 0 0 0 w w i i w w i w q q e D 7.{.-X&XK.{ e 1 1 b J 9.Q.Q.Q.Q.9.;.$.G G G G F m v 4 4 3 3 - - - - - - - - - - - - 3 4 3 3 - - & & - , , < , - & o O O & - > t B B B ' e.L.`.J.#.K y ; = > ; 7 9 9 r r r r r 0 i ] ,.U N n f K a r < 9 9 9 9 9 9 9 9 9 9 9 < < 9 9 9 9 < < 7 7 ; ; 7 7 7 7 r r r 0.@XP.0.k t a I a 9 < < ; 7 7 7 7 7 7 9 9 < < 1 r h B h f g h h K g f y y l l L 8 > , < ; - - - - - - - - = = = = = = = = - - & & & & = = - - & & = = = = = - = = ; g @.H.K.H.D.K.{.K.K.K.7.#.J.e.l > - = - & & & & & - - : : : : : : : : & & & & : : : : & & & & - , K ] K y 9 = = 9 8 > @ # : : : & @ O O O O O O O + @ @ : : : @ @ @ @ @ @ & @ & & & @ : @ : : @ @ & & @ @ @ @ & & & @ @ : 8 u u q.P.R.C.C.w.k : & = ; 0 q p n p p N B D }  .} ' P C h g g d s 8 8 8 s l l k 8 > > 8 8 8 5 5 8 z 0.z j + O @ & & = ; r r t a L ] ,.7.7.7.@.] g r ; = = & @ @ @ O O O O O O O O O O O O + + @ @ @ + O O O O X X X X # x P.mXPXIXUXUXUXIXPXLXZXvXuX-XXX_.Q.8.} S p r - & @ O O O O O O O X X X X X X X X X X X X X X X X         ",
"b b Z F G G &.&.;.;.;.9.9.9.9.z.z.z.W.W.Q.Q.Q.Q.Q.Q.Q.!.!.!.).[.^.^.).).).).!.c.4.2.:.W S n n i i i 4 i n ] Z.L.H.8.c.c.4.4.H.H.r. .A m v b b b i w w w 4 i 4 4 B 7.'.J._ K K ] P i i i 0 0 0 0 0 0 4 i I J.@XJ.q.e.6.L r 3 3 3 3 3 3 3 4 4 3 3 3 3 3 3 3 3 3 3 3 3 3 3 3 3 3 3 3 3 3 3 3 3 3 3 3 3 3 3 3 3 3 3 r r r r 3 3 r r 4 4 3 3 r r r r r i i i p e p _ G.P.q.g q p y e p B B n B B B p w w w w w w w w w w w w w w w w q q w w w w w e f ' Z.`.&XXXA.P q ; ; i J :.9.9.t.t.9.&.$.G G G G m v i i 4 3 3 < - - - - - - & % % % - 3 4 3 3 - & % % & & - , - & O o o O % & 9 a K B f K @.H.L.G.Z.{ g 7 = ; = 7 9 9 r r r r r 0 i P ,.,. . .] P y r r 9 r r 9 9 9 9 9 9 9 9 9 9 9 9 9 9 9 9 7 7 7 7 9 9 7 7 r 0 r ] S...u 9 r r L g r 7 ; ; 7 7 7 7 7 7 7 9 < < < r g { ] P ( ( ) { ) { ] ] ....l > - , < - - - , , - - - - = = = = = = = = - - - & & = = = - - - & = = = = = = = = = 7 ) A.).XX{.{.{.[.{.XX`.L.L...8 = & & - - & & = = - - : : : : : : : : & & & & : : : : & & : : : - u ] L L L l u t t > & : : : : & @ O O O O O O O O @ @ @ : : : & @ @ @ @ & & & @ @ @ : : : : @ @ @ @ & & @ @ & & & @ @ @ : > 9 I e.P.S.0._ l > = > y B B N N b N S S S S ' :.8.5.O.{ { { ) ( h d d d l z l s 6 6 8 8 8 5 # k 0.S.q.l + O O O O O @ & & & * 7 a ( @.7.Z.r.@.P a 9 - = & & @ @ O O O O O O O O O @ @ & > > > 8 8 8 > @ + O O O X # # k C.cXKXIXUXUXIXIXPXGXnX-XXX_.Q.t.9.2.:.J S n i < & @ O O O O O O X X X X X X X X X X X X X X X X         ",
"w b m Z S G G &.&.&.&.&.=.;.;.;.;.9.9.9.9.9.z.z.z.b.!..X.X.X[.).!.!.!.).!.!.c.c.4.:.~ H Z n i i i i i i I L.jX*X`.6.,.:.2.4.6. .P n i v w w w i i i i i i i i 0 A 7.H.:.J J  .,.P i i i 0 0 0 0 0 0 4 i ] J.e.I B P P p 0 1 3 3 3 3 3 3 4 4 3 3 3 3 3 3 3 3 3 3 3 3 3 3 3 3 3 3 3 3 3 3 3 3 3 3 3 3 3 3 3 3 3 3 r r r r r r r r 4 4 3 r r r r r r i i i p e B S.kXkXP.I a P B p n n n p e p p e w w w w w w w w q q w w w w w w q q r r w w w e A  .h.K.{.`.h.C 0 ; - r A J &.;.9.9.;.&.$.%.G G G m v 4 4 i r 3 < , , : , , & % o o % - 3 3 3 - - % % % % o O O O O O O o o O & 9 u g u y g ) Z.S.H.Z.#.) 7 = = = 7 7 9 r r r r r r q B ..r.H.H.r.P y a L t r r 3 9 9 9 9 9 9 9 9 9 9 9 < 9 9 9 9 9 7 7 7 9 9 9 < ; r L ..L r 7 r a L a 9 7 < ; 7 7 9 ; ; ; 0 9 9 < < 7 a ] { ' ,.5.h.h.5.7.Z.7.#.I 8 = , - ; - - - , , - - - - = = = = = = = = - - - & = = = = - - - & = = = = = = = = = ; 9 ] A.{.{.XXXX&X&X&X+XH...u > > & & & - & = = = = = : : : : : : : : & & & & : : : : & & : : : , > l ] ..e.e._ a > - & : : : : & @ O O O O O O O O + @ @ & & : & & @ & & & & & & & & : : : : @ @ @ @ & & & @ & & & @ @ + @ @ = u ..J.'.P.e.] a < 9 f P ' ' W D D } } J S H } 8.g.c.j.j.j.j.f.#.X.) l l l k 8 6 > 6 8 6 8 k k q.S.q.k + o o O O O O O O O @ & 7 f ] 7.Z.H.e...l r ; ; > : & @ @ @ @ O O O @ @ & : > > 8 u l l z I l 8 > # # > > j k k 0.gXJXPXIXIXIXIXLXGXvX&X_.Q.9.;.&.$.%.G G A A p < - @ O O O O O X X X X X X X X X X X X X X X X     X   ",
"i i b b M M Z G G G G $.$.&.&.&.&.&.&.=.=.=.=.;.z.!._..X.X.X_.!.!.!.!.!.!.c.c.9.:.} J S n n i i i i i B Z.@X@XJ...U S J } } A n i i i i i 4 4 i i i i i i i i w A 8.c.8.8.8.H.e.K i i r i i i i 4 4 i n  .7.6. . .@.] p 0 3 3 3 3 3 3 3 3 3 3 3 3 3 3 3 3 3 3 3 3 3 3 3 3 3 3 3 3 3 3 3 3 3 3 3 3 3 3 3 3 3 3 3 r r r r r r r r r r r r r r r r i p i i p p f q.%XR.q.g B ] P p p p p p e p p B p q q q w w q q 0 0 q i p p p p r r r i w e e N '  .5.h.`.`.7.D 7 & - r p Z G &.9.9.2.&.G G G A B i i r i r r 3 , , , & & & & O o o % & - , - & & & % O o X X X X X o o o o o @ > u u 9 6 y ) #.Z.S.G.H...y ; ; ; ; 9 9 r r r r r r r t K ..e.H...a a ..r.I r 1 3 3 r 9 9 9 9 9 9 9 9 < < < 9 9 9 < 9 8 9 < < < < < 0 g ] ] L L L L I u 9 < 9 < 9 9 < > < ; 1 0 7 7 3 ; r B ( O.c.).).).`.`.`.S.) t > = , , , - - - - - - - - - = = = = , , = = = = = = & & & & & & & & = = > > = = = = = - = 9 K ..Z.L.`.`.`.`.e.L 8 = = = = = = : : : : : : : & & & & & & & & & & : : & & & & & & & : & & & 9 L q.S.S.q.l , , & : : # @ @ @ + O O + + O O O @ @ @ @ @ & & & & & & & & @ @ & & & & @ @ & & & & @ @ @ @ & & & & @ @ @ @ = > L ..e.J.S.@.P a r p '  .,.,.O.| >.| J Z Z ~ 2.c.).).).[.XX{.{.L.F.Z.#._ l l s 8 6 8 l _ q.q._ _ z > O O O O O O O O O O o @ = 7 g ] @.e.e...K t 7 < > > > > = & @ @ @ @ & > > 8 u k I _ q.S.S.J.S.0.l u u l _ 0.q.q.q.P.hXmXKXPXPXLXGXmX-XXXQ.t.;.&.$.$.$.G F F F m m 4 , & O O o O O X X X X X X X X X X X X X X X         ",
"i i w e b b Z H } } } J H G G G G G G G G ! ! &.9.c.!.!.!.!.!.!.!.!.!.c.c.9.9.:.:.J S n n i i i r i i L H.J.6.U M b S } :.U n 0 0 i i i i i i i i i i i i i i 0 A 8._._._.).H.] a i r r 4 4 i 4 4 4 4 m ..H.H.H.H.r.U i 0 1 3 3 3 3 3 3 3 3 3 3 3 3 3 3 3 3 3 3 3 3 3 3 3 3 3 3 3 3 3 3 3 3 3 3 3 3 3 3 3 3 3 3 r r r r r r r r r r r r r r r r p B p i p p p L .._ f q n B B p n B B p p p K ] P p q w w w w w w 0 i L ] @.#.I p i r i w e e T | O.| 5.K.`.h.C 7 & & > r n H 2._._.).:.H G G m a 4 3 3 r r 3 < - - & & & & O o o o o % & & % % % % O O X X X X X X       X X O > 8 8 > + y ) #.Z.S.L.L.#.d 7 7 7 9 9 9 r r r r r r r r r a L I a q l e.e.L 0 0 r 3 r r 9 9 < < 9 9 9 9 < < 9 9 9 k 0.0.0.z u r < < ; y P 7.e.r.7...L t < < 9 8 l z 0.0.I t 9 ; 7 7 3 3 r r B  .H.).XX{.XX`.J...u > ; ; - , , - - - - - - - - - = = = = , , = = = = = = & & & & & & & & = = = : = = = = - - - = ; 9 g P _ _ ) I u > = = = = = = : : : : : : : : & & & & & & & & & & : : & & & & & & : : & & & & 8 l _ _ l < > , & : @ @ @ @ + + + + + + + O O @ @ @ @ @ & & & & @ @ & & : @ : @ & @ @ @ & & & & @ @ @ @ & & @ & @ @ @ & > > t L ) ..@.@.O.( B B P  .,.5.8.4.4.>.W S S W 2.c.).).XXXX-X-XuX-X&X+XR.G.Z.q.` l u l 0.J.+XP.0.k # O O O O O O O O O O O O @ * * ; u L ....] K y 9 9 9 > > 9 8 8 k k 8 8 8 u k l I _ ..S.P.%XgXgXgX@XS.` _ ..S.P.+XP.S.e.S.R.hXcXcXcXvXjX&X.XQ.t.;.$.$.G F F F F F G A m 3 - & O O O O O X X X X X X X X X X X X X X         ",
"4 4 4 0 n U @.H.).`.H.6.} S Z Z F F F F F F H :.4.9.!.!.!.Q.Q.c.m.c.c.c.9.2.:.~ J Z n p e i i i r i i P 6.8.2.&.H S } 6...K i 0 0 i i i i i i i i i i i i i i 0 n } r._.H.6.U a i r 3 3 3 3 3 4 4 4 4 i U r.J.J.e.] a r 3 3 3 3 3 3 3 3 3 3 3 3 3 3 3 3 3 3 3 3 3 3 3 3 3 3 3 3 3 3 3 3 3 3 3 3 3 3 3 3 3 3 3 3 r r r r r 3 3 3 r r r r r r r r r i i i B p p p y y e e p n n K ] ] B p B P ] ] P p q w w w w w w w L e.J.J.'.e.K r r w q e A O.5.| [ 6.`.`.h.C 7 & & & - 0 J c.XX-XXX6.H Z m n 3 ; - ; < 3 < , - - = , & & & @ O o % & % % O o O @ @ O X X                   X # 6 > # + s ) #.Z.S.+X`.7.g 7 7 r r 9 9 r r r r r r r r r 7 ; r 0 0 a ] I a a p r r r r 3 3 < < 9 7 9 9 < < ; 8 _ P.gXcXgXP.q.L r < < r l @.H.J.Z...a 7 9 8 z S.P.gXgXgXP.q.I a r < 3 3 3 r r B  .7.H.H.H.#.I u > > > ; - - - - , , , - , , - - = = = = - = = = = & = = & & = & & & & & = = : : = = = = = = = = = = = ; > > , , > & > = = = = = : : : : : : : : & & & & & & & & & & : & & & : : & & : : & & & & & > > > , , , : & & @ @ + + + + + + + + + + @ @ @ @ @ @ & & & & @ @ : : : : : @ & & @ @ : : & & @ @ @ @ @ @ @ @ @ @ @ & & & > a ) ..@.7.5.O.{ ( D ' '  .4.c.c.c.4.>.^ ! >.c.).XXXXXX&XuXuXvXuX8X*X@X+XR.L.#.l ) Z.P.+XJ._ # o O O O O O O O O O O O O @ @ @ & = t l L K a r 9 > > > 8 u l _ 0.q.0._ I I _ _ ..q.Z.P.gXvXmXmXmXnXgXL.Z.Z.'.gXgX*XP.q..._ 0.0.w.S.L.`._._.Q.t.;.$.G F F F F F F F F A m 4 - & O O O O X X X X X X X X X X X X X X         ",
"2 4 0 B ..H.`.@XXX`.J.7.:.A M b m m m m m Z F J :.2.9.9.9.9.9.9.z.9.9.9.:.:.G G Z n i i w i i i i i p ' c.!.c.8.,.|  . .P i 4 4 i i i i i i i i i i i i i i i i i n P U P m i 3 r 3 r 3 3 1 3 3 3 4 4 4 i P ..U L i 1 3 3 4 4 4 3 3 3 3 3 3 3 3 3 3 3 3 3 3 3 3 3 3 3 3 3 3 3 3 3 3 3 3 3 3 3 3 3 3 3 3 3 3 3 3 r r r r r 3 3 3 r r r r r r r r 0 0 0 p B p w p e e p B B N D @.6.] B B P P K P a q q q w w w w q i ] J.e.e.H.] p q q q e f { H.j.O. .H.XXXXH.C 7 & @ O % 0 ' ).&X-XXX6.A n b i 1 - - - < < > , - , > > > - & & & % & : & % O o O : @ O X                       + # # + # d _ #.Z.S.+X+Xe.g 7 7 r r 9 9 r r r r r r r r r r ; r r 0 r a g a U B r 3 r r r 3 3 3 7 7 9 9 9 7 r _ %XmXmXmXhX@XP.q.a 9 < ; r K ..#._ a r 7 t _ R.nXFXGXmXvXgX'.J.#.L t 3 3 3 3 ; 0 i B L K l t < , , > - = - - - - , , , , , , , - = = = = - = = = & & & & & & = = = & & & = = : = = = = = = = = = = = > > - - - & = & & & = = = & : : : : : : : : & & & & & & & & & & & & & : : : & & : : & & & & & & , : , , : & & @ @ @ + + + + @ @ @ @ @ + + @ @ @ @ @ @ & & & & & : : : : : @ : : @ @ : : & & @ @ @ @ @ @ @ @ @ @ @ @ & & & 9 K { @.A.h.h.f.5. .' D D | 4.N.).).).c.4.3.x.)..X[.{.XX&XuXuXuX8X*X+X+X@XY.Z._ ..S.J.S._ 8 O o O O O O O O O O O O O O O o @ @ @ & > t t r < > > & > 8 l _ q.S.P.P.P.J.S.q.q.V.Z.G.+XjXmXFXGXGXFXvX*XL.J.'.*XjX*XJ.#.) d 8 8 8 a ] 8.9.Q.t.9.&.$.F F v v v v F F F F A m 3 - & O O O X X X X X X X X X X X X X X         ",
"1 4 B @.)._.H.7.6.6. .U A m b v b b v v v m m F G $.&.&.&.2.9.9.9.2.:.:.&.G G Z m b i i i i i i i i n  .c.).)._.H.H.e...m r 1 i i i 4 i i i i i i i i i 4 0 0 0 r r i i 4 4 4 4 3 r r 3 3 1 3 i r i 4 3 1 r i i 3 1 3 3 3 4 4 4 3 3 3 3 3 3 3 3 3 3 3 3 3 3 3 3 3 3 3 3 3 3 3 3 3 3 3 3 3 3 3 3 3 3 3 3 3 3 3 3 3 3 3 3 r r r 3 r r r r r r r r r 0 0 q i q q e e e N P C B U @.] B p p B B p p e w w w w q i w w e L ..] P L p p p y a f D Z.`.H. .,.K.XXXXh.C 7 & O O & r D 8.`.`.H.} n w i r ; - - - < 9 < , , > > 9 > = & & & & , , , & % O & : : O X X                     X + + + 6 d _ #.Z.Z.L.L.7.h 7 7 r r r r r r r r r r r r r r r r r r r r r p g p r r r r r r r r 7 7 9 9 9 9 l P.mXmXgXP.e.q.....I t < ; ; 9 t a t 1 r r I P.nXFXmXvX*X'.J.Z.e.e.7.L r 3 < < ; ; 1 1 ; 7 ; ; ; , , , - - - - - - - - - - - = = = = = = & & & & = & & & & = = = = = = = = = = = = = = = = = = = = - - , , , = = = = & & & & & & & : : : : : : : : & & & & & & : : @ @ & & & & & & & & : : : & & & & : : : : : : : & @ @ + O O + @ @ & & & @ @ @ @ @ @ @ @ @ @ @ @ & & & @ @ @ @ & & @ @ @ @ @ @ @ @ @ @ @ @ @ @ @ @ @ @ @ & & & ; u K X.h.H.K.H.h.6. .D N V | c..XXXXXXX).N.m.m.!.).).[.XX&X&X&X{.{.Y.+X@XL.q.#.S.J.q.l 8 @ O O O O O O O O O O O O O O o O o O O O @ & & : : : & @ @ > l 0.S.P.@XgXhXgX@XR.G.S.G.P.@XjXnXFXFXGXGXFXvX@XL.L.'.'.L.q.) g y 9 = & ; i D :.:.2.&.%.G F F v v v v v F F F F A n 3 - O O X X X X X X X X X X X X X X X         ",
"0 n ] r.r.,.J J U A b b i w i i w w 2 v v v m m F G G $.&.&.:.:.:.&.&.G G F Z m b v i 4 4 4 4 i i i N :.c._.`.&X@X+XJ.] i 0 1 i i i i i i i i i i i i i 4 0 0 r 3 3 3 3 4 4 4 4 3 r 3 1 3 r 1 i a L B r 1 1 3 3 3 3 3 3 3 3 3 3 3 3 3 3 3 3 3 3 3 3 3 3 3 3 3 3 3 3 3 3 3 3 3 3 3 3 3 3 3 3 3 3 3 3 3 3 3 3 3 3 3 3 3 3 r r r r r r r r r r 0 r 0 0 q i q q q w e e p N f K e.L.H.U N N P P B p e w w w i p B p w w p B B p e q e a _ S.#.@.K.`.f.| 5.`.XX`.7.D 0 = @ O @ < p P  ...U B w 0 r r < , - > 9 r 9 < > > 9 9 9 > & & - , , , , & & & : , : @ O X O + X X             X + + # 8 d _ #.Z.Z.L.J.#.h 7 7 r r r r r r r r r r r r r r r r r r r r r r r r r r r 3 r r r r 7 9 < < 9 y #.*XjXP.q.L a t t g I L r r < ; ; 3 0 1 ; a q.'.jXjX@XJ.e.) L B L ] #...B 3 < < ; ; ; ; ; ; ; ; ; ; - - - - - - - - - - - - = = = = = = & & & & & = & & & & = = = = = = = = = = = = = = = = = = = = - - , : : > = = = & & & & & & & : : : : : : : : & & & & & & : : @ @ & & & & & & & & : : & & & & : : : : : : : : & @ @ + O + @ @ & & & & @ @ @ @ @ @ @ @ @ @ & @ & & @ @ @ @ @ & @ @ @ @ @ @ @ @ @ @ @ @ @ @ @ @ @ @ @ @ & & & = y K { 5.5.5.7.5.6.,.' N N W g.).XX&X-X&XOX.X).!.!.!.)..XOX X{.Y.Y.+X*X*X+XZ.J.@X+X0.> @ O O O O O O O O O O O O O O O O O O O O O O O O @ @ @ @ @ @ : t _ e.P.gXvXmXmXvXjX%XR.R.R.+X*XvXnXFXFXFXFXnX*X{.H.Z.7...K h d u t 9 > & * 1 m G G G G F m v v c v v v v F F G F A i < & O X X X X X X X X X X X X X X X         ",
"w B } ] P m b b i w i i i 4 4 4 2 2 2 2 v b m m F F G G %.&.&.&.G G G F Z m v v i i 4 4 4 4 i i A ] 6.H.).`.@XvXvX*XJ.] i 0 i i i i i i i i i i i i i i 0 0 0 3 r r r r 3 3 4 4 4 i r r 3 r r B ] ..I a 3 3 3 3 3 3 3 3 3 3 3 3 3 3 3 3 3 3 3 3 3 3 3 3 3 3 3 3 3 3 3 3 3 3 3 3 3 3 3 3 3 3 3 3 3 3 3 3 3 3 3 3 3 3 3 3 r r r r 0 0 r r r r 0 r r 0 q i w q p p p e e e p q.*XjX'...B B ] ] B p p q q q p P ] B w q w e p p e e p _ P.gXL.7.`.`.7.O.H.`.XX`.h.' B r = @ @ - 1 r p p p i q r r r < < > > 9 r r 9 > > 9 r 9 > = & - , < < , - - & , , > , @ + + # # + X O X X X X X @ > 8 l ) ` #.Z.Z.S.S.#.h 7 7 r r r r r r r r r r r r r r r r r r r r r r r t r r < < < 9 r 9 9 < < < 9 t #.'.J._ u 0 ; ; 7 r L I u r < < < < 1 1 r _ L.L.`.L.e.] B i r r r a P @.U i ; ; ; ; ; ; ; ; ; ; ; ; - - , , - - , , - - - - = = = = = = - - & & = = = = & & & & & & & & = = = = = = & : = = = = : : & : : : : : > = & & & & & & = = : : : : : : : : : : : & & & & : @ @ @ & & & & & & & & & : : : : : : : : : : : : & @ @ O + @ # # : : & & @ @ & & @ @ @ @ & & & & & & @ @ @ @ & & @ @ @ @ @ @ @ & @ @ @ @ @ @ @ @ @ @ @ @ & & & & 9 K ..X.( ( [ [  .,.,.} ..7.h.c.).XX-XyX-X&XOX.X).[.XXOX&X&X X$X*X8XvXjX+XZ.G.P.S.l @ O O O O O O O O O O O O O O O O O O O O O O O O O O O O O @ @ @ > k 0.P.%XkXmXmXmXmXkXgX@X+X+X@X*XjXvXnXmXmXvXuXXXH.,.' B f f h K K a 9 & @ @ - 3 i b m M m v v v c c v v m F G G G m i , @ O O O X X X X X X X X X X X X         ",
"w n m i i 4 4 4 4 4 4 i i 4 4 4 4 4 2 2 2 v m m m F G G H G G G F Z M m v b w w i 4 i i i i n A  .H.).H.c.H.'.@XP.r._ a 0 0 0 i i i i i i i i i i i i i 4 4 0 3 r r 0 0 1 3 4 4 i i 3 r r r i L ] ] L i 1 3 3 3 3 3 3 3 1 1 1 1 3 3 3 3 3 3 3 3 3 3 3 3 3 3 3 3 3 3 3 3 3 3 3 3 3 3 3 3 3 3 3 3 3 3 3 3 3 3 3 3 3 3 3 3 r r r r r 0 r r r r r i i r 0 0 0 i B P B e e e f q.@XP.q.L n B L B a p p q q w p P L p w w w w p p w e B e.@XP.e.7.`.`.7.5.K.`.`.`.H.5.] B 9 = & & - ; ; r r r r r r r 9 < > > 9 r r 9 > > 9 r r < = - , < < < > - - - , , > > @ @ @ > > > > > @ + X O & > y l ..#.#.f.Z.Z.S.A.#.K 7 7 r r r r r r r r r r r r r r r r r r r r r r r r r r < < < 9 9 9 9 9 < < 9 u @.Z._ t 9 ; ; ; 7 9 l ..g < < < < < < ; t e.'.`.e.@.P a r ; - - < r a ] ..B 3 ; ; ; 7 ; ; ; ; ; ; ; - - - , , , , , , - - - = = = = = - - - & & = = = = = & & & & & & & & & = = = : : : = = = > : : & : : : : : > & & & & & & & & = : : : : : : : : : : & & & & : : @ @ & & & & & & & & & & : : : : : : : : : : : : & @ @ @ @ # # # : : : : @ @ & & @ @ @ @ & & & & @ @ @ @ @ @ & @ @ @ @ @ @ & @ @ @ @ @ @ @ @ @ @ @ @ @ @ & & & & - 9 l C C P D D D } ,.6.J.`.K.5.5.).XX-X-XuXyX-X&X&X-XuXuXuXuXuXuXuX*X@XS._ _ _ k # O O O O O O O O O O O O O O O O O O O O O O O O O O O O O O @ : : > 9 l q.P.gXcXmXmXmXnXjX*X+X+X{.+X@X*XjXvXvXjX*XXXH. .D B N B P ] ] L t = @ o o O & ; r i p i w 2 c c c v m F G G G H m r - + O O X X X X X X X X X X X X         ",
"w w i 0 i 4 4 3 r r i i 4 4 4 4 4 4 4 4 4 4 v m v m Z Z Z M M M m v b v i w 0 4 4 4 4 i m U }  . .,.5. .W ' @.e.7.] a r 0 0 i i r r r r 3 3 r i i r r r 3 3 3 3 1 1 0 0 0 1 1 1 3 3 3 3 3 1 i P ] ] a r 1 1 1 1 3 3 3 3 3 3 3 3 3 3 3 3 3 3 3 3 r 3 3 3 3 3 3 3 3 3 3 3 3 3 3 3 1 1 1 1 3 3 3 3 3 3 3 3 3 3 3 3 0 0 0 0 r r r r r r r r r 1 i L B i 0 0 0 i B P N e e e p L _ I a p p p p a A B p q q q i p i 0 w i i w p i w p B 6.J.@.' 5.K.H.5.h.`.`.`.`.).H.@.( y 6 = & & = 9 y a a a y r r < ; = = > 9 9 < > > 9 r t < - , < 3 3 < < ; ; 3 < < > & @ # > > 9 8 8 8 > @ @ & < r g ) #.Z.Z.A.F.G.L.L.Z.) 9 7 7 r r 9 r r r r r r r r r r r r r r r r r r r 9 r 9 9 < r r r 9 7 < < < 9 y { @.K 9 9 ; 7 ; 6 9 l _ g < < < < < ; ; a e.L.J...B a r < - - = > 9 t I ..I t ; ; ; ; ; ; ; = = = = = = = - = = = = = = = = - - & & & = = = = = = = : : : : : : : : : : : : : : : : : : : : : : : : : : : : : : : : : : : : : : : : & & : : & & & & & & & & & & @ @ @ @ @ @ : : : : & & & @ & & & & & & @ @ @ @ @ @ @ @ @ @ @ @ : : & @ @ @ @ @ & & @ @ @ @ @ @ @ & @ @ @ @ @ @ @ @ @ @ @ @ @ @ @ @ @ @ @ @ @ @ @ @ @ @ @ @ @ @ @ & & - > r L ] P N Z D ' ] ..r.7.' D  .h.).XX-X-XuXuXuXuXuXuXuXuXuX*X+XS.#.l 6 > @ @ O O O O O O O @ O O O O O O O O O O O O O O O O O O O O O @ @ @ @ > > > u _ S.R.gXvXnXnXnXvX*X@X{.`.L.L.{.+X@X@X@X+X`.h. .D N B P ] ....] l 9 & O O O @ @ = 7 r r r r i 4 i w m m G J U J A i - @ O O O O O X X X X X                 ",
"i i i i i 3 3 3 3 r i i 4 4 4 4 4 4 4 4 4 4 4 v v v m m m b b b v v i i 4 4 4 4 4 4 0 m U 8.,.' D D A N N S ,.H.e.L i 3 r i i i r r r r 3 3 r r r r 1 1 3 3 3 3 1 1 1 1 0 0 1 1 r r 3 3 i 3 i B L B r 1 1 1 1 1 3 3 3 3 3 3 3 3 3 3 3 3 3 3 3 3 3 3 3 3 3 3 3 3 3 3 3 3 3 3 3 3 1 1 1 1 1 1 3 3 3 3 3 3 3 3 3 3 1 0 r r r r r r r r r r r 0 i a p r 0 0 0 0 i p e e w e w w w 0 w p p B K B B a i q q q q q 0 0 i B L B p i i p A ....' ' ,.h.7.5.h.H.`.`.`.`.H.7.) f y 7 = = = 9 a B B g a y r < = = = > > 9 < > < 9 r r < ; < 3 3 3 ; < r r r r < = @ @ : > 9 r t t t 9 = & > y a g ) #.Z.Z.S.G.G.L.Y.J._ y 7 7 r r 9 r r r r r r r r r r r r r r r r r r r r r r 9 < r 3 r r 7 < < < 7 g X.X.C 7 ; 7 7 7 7 7 a I g 3 < < < < ; 7 K Z.J.7.L y t r < = > = = 9 t L ....u ; ; ; ; ; ; ; = = = = = = = = = = = = = = = = - - & & & & = = = & = = : : : : : : : : : : : : : : : : : : : : : : : : : : : : : : : : : : : : : : : : & : : : & & & & & & & & & @ @ @ @ @ @ @ : : : @ & & & @ & & & & & & @ @ @ @ : : @ & @ @ & @ : : & @ @ @ @ @ & & & @ @ @ @ @ & & @ @ @ @ @ @ @ @ @ @ @ @ @ @ @ @ @ @ @ @ @ @ @ @ @ @ @ @ & @ @ & & - - r L ] P B D ' ..U B B K n e n D ' 6.H.`.XX&X&XXXXX+X{.{.L.Z.` l 9 = @ @ O O O @ @ @ @ @ @ @ @ O O O O O O O O O O O O O O O O @ @ @ & @ @ > > > > > 8 k _ S.@XgXvXvXvXvX*X@X{.`.H.h.h.H.H.K.H.H.h.,.' S Z A U  .6.6...L r > : : > @ + + + = ; > < < 3 3 0 e m A J U J A B r & @ O O O X X X X X X                 ",
"4 i i i 4 r r r 3 3 r i 4 4 4 4 4 4 4 4 4 4 4 4 i i v b v w w w i 4 4 4 4 4 4 4 4 4 n U 8.,.U n p p p p N ' ..@.I t r 3 3 3 r r r r r r 3 r r r 3 3 1 1 r 3 r r 1 1 1 1 1 1 1 1 r r r r r r r i r r 1 1 1 1 1 1 3 3 3 3 3 3 3 3 3 3 3 3 3 3 3 3 3 3 i a i i r 3 3 3 3 3 3 3 3 3 1 1 1 1 1 1 1 1 3 3 3 3 3 3 3 3 1 0 0 1 0 0 1 0 r r i i r r r 0 0 0 0 0 0 q w w w w e e w i p p p p n B B B B B i 0 0 q q q q q L e.J...B i p p B } | ' } 5.7.5.,.6.h.j.H.).).H.5.) h d y 9 = = > t K L K g u r 9 = = > 6 9 9 > < 9 9 < < > ; r r r r r r i p a t < & @ @ : > 9 r y t t 9 > > 9 t a a l ) #.q.Z.S.G.L.+XY.#.8 6 9 9 9 7 7 9 r r r r r r r r r r < 9 r r r r r r r < 9 9 < < < < < < < < 9 a ) { ( y 7 7 7 7 7 7 y L a 3 < < < < < 7 B #.Z...g r r t 9 > > = > 9 u l ] @.L ; - - = = ; ; = = = = = = = = = = = = = = = = - & & & - = = = & & - & : : : : : : : : : : : : : : : : : : : : : : : : : : : : : : : : : : : : : : : : & & & & & & : : & & & & & & @ @ @ & & @ : : @ @ & & @ @ & & & & & & & & : : : : : & : : & : : : & & @ @ @ @ & & & @ @ @ @ @ & & @ @ @ @ @ @ @ @ @ @ @ @ @ @ @ @ @ @ @ @ @ @ @ @ @ @ @ @ @ @ & > , > < r p a B B ' 6.J.e.B e e p p p e e N D  .7.H.Z.f.#.#...) I u 6 @ @ + @ @ + + + @ # : : : : : & @ @ @ @ @ @ @ @ @ @ @ @ @ @ @ @ @ : > 8 > 8 k k u 8 8 8 u l q.P.@XgXjXjXjX*X@X`.K.h.,.,.,.,.:.,. .} ' S Z Z S '  .@.6...P t > > > > > > # + + @ @ > > , , ; 0 w p B A P A B t = @ O O X X X X X X X                 ",
"i i i i r r 3 0 r r r i i i 4 4 i 4 4 3 4 4 4 4 4 4 i i i 4 i i 4 4 4 4 4 4 4 4 4 b U 8.,.D p 1 1 0 0 i B B B a i 1 3 r 3 3 3 3 r r r 3 3 3 r r 3 3 3 3 r r r r 1 1 1 1 1 1 1 1 r r r r 1 1 r r 1 1 1 1 1 1 1 1 3 3 3 3 3 3 3 3 3 3 3 3 3 3 3 3 3 3 t B a r 3 3 3 3 3 3 3 3 3 3 1 1 1 1 1 1 1 1 ; ; 3 3 3 3 3 3 1 0 0 0 1 ; ; 1 r i r 0 0 q q q q q 0 q i w w w e e e e p B P ] U B p p p p K B p 0 0 q i i q p q.@X@Xq.a p p p N '  . .,.h.H.8.,.,.O.,.6.h.j.7.@.) C h g y = @ = t L L L l u r 9 > > 9 8 8 8 9 > 9 < > - , 9 t a t r r r p a B y ; & @ @ & > > 9 r r 9 9 > > 8 t r 9 9 d ) _ _ #.Z.L.+X+Xq.z 0.0.0.z l 8 7 7 9 r r r r r r r r < r r r r r r r r r r r < < < < < r < t l B P ( ( f q q y l L y p K t ; < < < < < 9 g @.e.) y r r t 9 9 6 > > 6 8 l ) 7.L r ; < ; ; ; ; = = = = = = = = = = = = = = = = - & & & - = = = & & & & : : : : : : : : : : : : : : : : : : : : : : : : : : : : : : : : : : : : : : : : & & & & & & : : & & & & & & @ @ & & & : : : @ @ & & @ @ @ @ & & & & & & : : : : : : : : & : : : & @ @ @ @ @ @ & @ @ @ @ @ @ @ & @ @ @ @ @ @ @ @ @ @ @ @ @ @ @ @ @ @ @ @ @ @ @ @ @ @ @ @ @ & : > 8 t t t r q y D  .7.J.H.] p p K ] K n p N N '  .5.5.[ A y 7 = = @ @ @ @ @ @ @ @ @ @ : : > > > > : : @ @ @ @ @ @ : : : : : : & @ @ @ & > u a a I ...._ L a u u l _ Z.L.+X@X*X*X@X+X`.H.h.,.:.J H S S S A Z N n N D } }  . .] K a 9 > 9 9 8 9 > + + + + + + @ : = ; 7 r a B L L K t > & O O o X X X X X X                 ",
"i i i r i t a a a a a B B a i i i i 0 3 3 4 4 4 t i 4 i i 4 4 4 4 4 4 4 4 4 4 4 w m :.8.' p 0 1 1 1 0 p K P B r 0 0 0 0 3 3 3 3 1 1 1 1 1 1 1 1 1 1 1 1 1 1 0 0 1 3 t a l u r 1 1 0 0 0 1 1 1 1 1 1 1 1 1 1 1 1 1 1 1 1 1 1 1 1 1 1 1 1 1 1 1 1 3 3 r i r 3 3 1 3 3 3 3 3 3 3 3 1 1 1 1 1 1 3 3 ; ; ; ; ; ; ; ; 1 0 1 1 0 0 1 0 p B B r 0 i p q q i w p B p e p B N e e n P ..6.6.P p w p p p i q 0 0 i n p p B Z.'.e.L a p p p B ] 6.H.H.H.H.8.,.| W W [ | O.O.{ ( C h g y = @ = 8 l L l g t 9 > 9 8 u u u 8 9 < > , - = > r u a a r < r t a a p 9 & @ @ @ = = ; 9 9 > = > > 9 9 > = = 8 d l l ) #.G.+X+XZ.S.hXcXhXfXP.q.l 8 9 r r r r r r r r < < r r 3 < < < < < < < 3 3 < < r r r I e...C Y [ ( C P ] #.e.] L P r < < < < < < < g ..#.P g L t 9 9 9 > > > > > 8 ) e.] r < > - - > ; - - - - = = = = = = = = = - - & & & & & - - = = = = & & : : : : : : : : : : : : : : : : & & & & : : : : : : : : : : : : : : : : : : : : & & & & & & : : & & & & & & & & : : : : & & & @ & & & @ @ @ @ & : : : : : & & @ @ : : : & & & & & & @ @ @ @ & & & @ @ @ @ @ @ @ @ @ @ @ @ @ @ @ @ @ @ O O O @ @ @ @ @ @ @ @ @ @ @ @ @ @ @ & > 8 t t a a p y B (  .5.6.,.P p B ..6...P ( ] {  .5.7.7.@.( a ; & & @ @ @ @ @ @ @ @ & : > > > > > > > : : @ @ @ & : , , > > > > > & & @ & 9 l L I ..S.S.r...L g h L ) #.e.H.L.`.{.{.`.`.H.h.8.:.J m m n n n b b n N U } } U P K B a r 9 9 t t y 9 # +   .     X + + # = 6 9 t u a l u 8 > @ X X X X     X   X X   X         ",
"r i a a I _ ............] I L B i i 0 0 3 i B ....U i 1 i 4 4 4 4 4 4 4 4 4 4 0 w S :.,.S q q p p p p B U U a 0 0 1 1 0 3 3 r 3 1 1 1 1 1 1 1 1 1 1 1 1 1 1 0 0 r k 0.S.J.e.I t 1 1 0 0 1 1 1 1 1 1 1 1 1 1 1 1 1 1 1 1 1 1 1 1 1 1 1 1 1 1 1 1 1 3 3 3 3 1 1 1 ; ; ; ; 1 3 1 ; 1 1 1 1 1 1 1 3 1 3 r ; ; ; ; ; 1 1 1 1 0 0 1 0 p B B i i B B p w w w p B p B ]  .P N p A U  .6...B q q w w q q 0 q 0 p B p w C 7.@.B n p p p p N U 6.H.h.h.c.8.,.' S V D D T T P C f g d y 6 = @ > t u u t 9 > > 9 u l l u 9 9 > = & & & , 9 t u t < = > r y a y 9 = @ @ @ = = > > = = # @ # > # + + # # 6 8 s l ..Z.L.+XG.%XZXGXGXFXmXgXG._ l r r r r r r r r < < r r < < < < 3 < < < < < < < < 9 t ..J...L ] @.5.5.f.f.f.7.@.7.L r ; < < < < < < a ] ..L L I t > > > > # # # # 6 l ..L 9 < > ; - ; ; - - - - = = = = = = = = = - & & = & & & & - & & = = & - : : : : : : : : : : : : : : : : & & & & : : : : : : : : : : : : : : : : : : : : & & & & & & : : & : & : & & & & : : : : & & @ @ & & @ @ @ @ @ @ : : : : : : @ @ @ @ : : & & & & & & @ @ @ @ & & @ @ @ @ @ @ @ @ @ @ @ @ @ @ @ @ @ @ @ @ O O @ @ @ @ @ O @ @ @ @ @ @ @ @ @ & > > t t t a f N D T ' | ' B y q a U { ' P ] 5.7.Z.Z.Z.7.,.] B r = & & @ @ @ @ @ @ @ & > > > 8 8 8 > > > : : @ @ @ & > > 8 t 8 8 > > = @ & > u L ) #.S.L.J.e.) K K K ] { @.7.f.H.H.K.K.H.j.8.,.} A m b i e e e e n n H U J A B n p p r 0 r r t y 9 > + .       . + + + # > 8 u k k z z z z z k # . X X     X X X X X         ",
"g I ..e.S.J.P.P.L.G.S.Z.e.#.] L B p q 0 i L e.J.J...a 1 0 i 4 3 i i i i 4 4 4 0 v S :.:.J V D {  . .} ] ] B i 1 0 1 1 1 r r r r 1 1 0 0 1 1 1 1 1 0 1 1 1 1 0 0 l r.gXgX%XP.e.g 1 1 1 1 1 1 1 1 1 1 1 1 1 1 1 1 1 1 1 1 1 1 1 1 1 1 1 1 1 1 1 1 1 1 1 1 1 1 1 1 1 1 ; ; 1 1 1 1 1 1 1 1 1 1 1 1 r t r ; ; 3 0 0 0 0 0 0 0 0 0 0 r i i w p D A n p p p B B P @.7...U B N P U P P A i q q w q q 0 q q q q i q w N ' ' D D B p p n n N '  . .,.8.6. .D N p N N N B B g y u l g u 6 @ @ = 9 8 9 > > 9 t l l l t 9 > = @ + O O @ > > 9 > & & & > 9 r r ; = # # # # = = = @ + + + # # # + + + # # 5 8 d _ q.L.L.Z.R.vXmXnXnXvXjX*X'.e.l r r r r r r r < 9 9 r < < < < < < < < r r 9 < 7 r t I e.I a K 7.K.).`.`.K.Z.e.] a ; 3 < < < < < 3 r L ..P g a 9 = = # # 5 8 k 8 8 d l t < ; ; ; ; - > - - - - = = = = = = = = = - = = = = & & & & & & = = = - : : : : : : : : : : : : : : : : & & & & : : : : : : : : : : : : : : : : : : : : : : & : & & & & & & : & & & & & @ @ : : & & & & & @ @ @ @ @ & & : & : : @ @ @ @ @ @ @ : & & @ & & & & & & & & & @ @ @ @ @ @ @ @ @ @ O O @ @ @ @ @ @ @ @ O @ @ @ @ @ O O O @ @ @ @ @ @ @ @ @ @ > 9 r y y f B D P ' ' D e q q p B B B C ] 7.H.J.H.r.6...] K r , : : : @ @ @ @ @ @ & = , > 9 8 8 8 > > , : @ @ @ @ : > 8 t t t 8 > > & & = 9 u l I q.S.J.e.) B C P ]  .@.5.7.h.j.A.H.h.6. .' S n i i i i i i p p n Z S A n n i i i r 0 0 y y 9 9 = + .       X . + # # 8 k k z 0.C.P.P.fXP.C.0.k # + X X X X X X X         ",
"q.S.+X@X*XgXgXgXgX%X+XL.J.H.7...P B p w p P ..6...L i 1 1 i 4 3 4 i i 0 4 4 4 0 e H 2.4.1.,.8.H.).H.H.6.] n 0 1 1 1 1 1 r r r r 1 0 0 0 0 1 1 1 1 0 1 1 1 1 0 i ..'.'.S.q.q._ a r 1 1 1 1 1 1 1 1 1 1 1 1 1 1 1 1 1 1 1 1 1 1 1 1 1 1 1 3 3 3 1 1 1 1 1 1 1 1 1 1 1 ; ; 1 1 1 1 1 1 1 1 1 1 1 r a B a r < 3 0 0 0 0 0 0 0 0 0 0 0 0 0 q p B p p n p p p B ] ,.] B p e p B B n p p i i p i i 0 0 0 0 0 0 q q p P 6.Z.7.6.' n p n N n n N D  .5.,.' N p p p p p y y r 9 g I I g 9 + @ + # # # > 6 8 u l l u 8 > # + + X X X X + @ > @ + O + # > > 9 = > > > > # # # + + + . + # 8 # + + + # 5 8 8 s z q.G.G.7.e.'.@X@X{.`.L.L.`.J.] a r r r r r r 9 < r r < < < < < < < < r r < < 7 r r u L a r y { H.`.{.{.`.H.] a 1 ; 3 < < < < < 3 3 l ..P u 9 > > > > 6 8 k k k k k t 9 ; ; - ; ; ; ; - - - - = = = = = = = = = = = = = = & & & & & & = = - & : : : : : : : : : : : : : : : : & & & & : : : : : : : : : : : : : : : : : : : : : : : : & & & & & & : : & & & & @ @ & : & & & & & @ @ @ & & & & @ & & & @ @ @ @ @ @ @ : & & @ @ & & & & & & & & @ @ @ @ @ @ @ @ @ O O O O O @ @ @ @ @ @ @ @ @ @ @ @ O O O @ @ @ O @ @ @ O @ O @ > > 9 r y B P ( ' ' D p 0 0 r p B B P ] 7.H.J.H.e.,.{ P g r - , : : @ @ @ @ @ @ & > > > , > 8 8 > > > : @ @ @ @ & > 8 t t t 8 > > > & & - > > r L ..#...K g C ( [ O.5.5.7.f.7.h.7.5. .W A n p r 3 3 3 r i p p n n m m n i i i i i q 0 0 r 9 = # + .     . . + # # 8 k z 0.C.fXhXcXmXJXmXmXgXP.0.k 6 > > : @ O o o X X X ",
"@XgXvXnXmXmXmXcXnXkXgX@X'.J.Z.6.] P B n A U ] U B i 1 1 4 4 3 3 1 1 1 1 1 4 4 4 e S 2.H.).).`.XXXX`.J.6.B 0 0 1 1 3 3 3 3 3 3 3 3 3 3 3 3 3 3 3 3 3 3 3 3 3 3 B 6.H.6.P C ] P i 1 3 3 3 1 1 1 1 1 1 1 1 1 1 1 1 1 1 1 1 1 1 1 1 1 1 1 r a m i 1 1 1 1 1 1 1 3 1 1 1 ; ; ; 1 1 1 ; ; ; ; 1 1 1 i L L a r < < 7 0 r 0 0 r r 0 r r i q q 0 q p p p p p e e B ' P n i q q w p p w q i a a i i i r r 0 0 0 0 0 w L Z.`.`.H.6.,.P B B P B p e N ' ,. .D y e p p y 7 7 = = 6 d I ) l y # + + + + # # 6 t d l k 8 # + . . .           . + + X     . + # = > 9 8 8 6 # # + + . . . + # 8 8 # + + 5 8 8 8 8 l _ e.e...' ,.8.8.8.:.} U ..6.,.] a r r r r r 9 9 r 0 r r 9 9 7 7 7 ; 9 9 9 9 7 r 7 r r r 0 0 a ] 7.Z.Z.7.] a 0 0 ; 3 3 3 3 3 3 3 3 t L { ) u y 8 9 8 8 8 6 8 l l d l 9 ; ; ; ; ; > > - - - - = = = = = = = > , : : : , , , : & & & & : : : : & & & & & & : : : : : : : : : : : : : : : : : : : : : : : : : : & & & & & & : : @ @ & & & & & & & & & & & @ @ @ @ @ & & & & & & & & & @ @ @ : : @ @ @ @ @ @ @ & & & & & & @ @ @ @ @ @ @ @ @ @ @ @ @ & & & @ @ @ @ @ @ @ @ @ @ @ O O O O O O O O O O O O @ O O O @ @ @ @ @ @ @ @ @ , = ; y h ( {  .{ P p 0 1 r i B L U ] @.e.Z.e.6...] L a r > , : : @ @ @ @ @ @ # : : > > > > > > > > : @ @ + @ @ , , < 8 t 8 < > : & & & & @ & 9 l L K f f A P ' { @.5.7.7.7.5.5.,.[ D f p r ; ; < < r r p n n n n n p i i i i i i i r 9 ; = @ + + . X X . + # # j z w.P.gXcXmXKXPXIXPXKXGXhX@XS...L K a t ; & O o X X ",
"kXnXZXGXGXLXLXGXZXmXjX*X+XL.H.7.@.' D A A U U A i 1 1 1 4 4 3 4 1 1 1 1 1 1 1 4 w N  .H.`.XXXXXXXXJ...B w 0 1 3 3 3 3 3 3 3 3 3 3 3 3 3 3 3 3 3 3 3 3 3 3 1 4 B 8.8.8.,.,.6.P i 1 3 3 1 1 1 1 1 1 1 1 1 1 1 1 1 1 1 1 1 1 1 1 1 1 1 1 a U U a 3 1 1 3 1 1 1 1 1 1 1 ; ; ; 1 3 1 ; ; ; ; 0 0 1 i B L p 0 < < 7 7 7 r r r r r r r p i 0 q p B B p p w w p A U N w 0 q w p B p q w a L L i i r r r r r r 0 0 p 7.+X@XH. . ...P B D P A p e n D  . .C f p p p y 7 = # # > u l I l 8 + X . . + # 5 8 u u s 8 # . .                 . + +       . . + # > u k k 8 # + + . . . . + # k k j 8 8 j j 8 5 5 k l ....P B J G G G F F m m U 6.Z.] t r r r r 9 9 9 0 r 9 9 9 9 7 7 ; 9 9 9 9 9 7 ; ; 7 0 0 0 0 r a l l a r 1 0 3 3 3 3 3 3 3 4 3 3 r B @.@.K K ) K ) ) l s l l l l l r ; < < ; ; ; ; - - - , = = = = = = = = : : : : , , : : & & & & : : : & & & & & & & : : : : : : : : : : : : : : : : : : : : : : : & : : & & & & & & : : @ @ & & & & & & & @ & & @ @ @ @ @ @ & & & & @ @ : : @ @ @ @ : : @ @ @ @ @ @ & & & & & & & & @ @ @ @ @ @ @ @ @ @ @ @ & & & & @ @ @ @ @ @ @ @ @ @ O O O O O O O O O O O O @ @ O O @ @ @ @ @ @ @ O @ & - ; y K { @.6.6.] B r 1 3 r a K P ] ....@.@.] P B a t < - - : : : @ @ @ @ @ @ @ @ # : : : > : : # @ + @ O O @ & , , < < < > > : & & @ @ @ @ @ > 9 t a f B P ' { @.5.6.7.7.5.,. .' D a r ; ; - = > < r i p p B n p i i i w w p p a p r ; ; = = = + + . + # 5 j k 0.P.gXhXmXKXIXIXIXIXPXLXGXvX@XL.h.6. .U B r - % o X ",
"mXFXGXGXLXLXLXLXGXmXvXgX@X`.J.e.@. .U A A B n i 4 1 1 1 4 4 4 3 4 4 1 1 4 1 4 4 0 e A ,.H.`.`.H.6.U p 0 1 1 3 3 3 3 3 3 3 3 3 3 3 3 3 3 3 3 3 3 3 3 3 3 3 3 4 B :.8._.H.r. .B 0 1 3 3 3 1 1 1 1 1 1 1 1 1 1 1 1 1 1 1 1 1 1 1 1 1 1 1 B ] L i 1 1 1 1 1 1 1 1 1 1 1 1 1 1 1 3 1 ; ; 0 0 0 0 0 t a a r 1 r r r r 9 r r r r r r r i i i i B P P p e w w p A P n w q q p P ] B q w p B a r r r r r r r r 0 0 P J.'.H.L p B B B B B A A p e n D ' ' A B B B a y 7 = + + # 8 l l s 6 + X X . . # # 8 8 6 # + .                     . . .         . + + > u k k 8 # + + + . . . + 5 k k k k k k k j 5 5 8 l I L a p n Z F F v v c v n  .Z.7.L r r r r 9 9 0 0 r r 9 9 9 9 ; ; 9 9 9 9 9 7 7 7 7 7 7 7 0 0 0 r 1 1 ; ; 1 3 3 3 3 3 3 3 t t 3 r A  . .( @.Z.#.7.` { { ` _ ..q.l < ; ; < < > > > - - , , - = = = = = = = , , , , , , , , : : & & & & & & & & & & & & : & : : : : : : : : : : : : : : : : : : : : & & & & & & & & & & & & @ @ @ & @ @ & & @ @ @ @ @ @ @ @ @ & & & & @ @ @ : : : : @ & & : : : @ & @ @ @ & @ @ & & & & & & @ @ & & & & @ @ @ @ @ & @ @ @ @ @ @ @ @ @ @ @ @ O O O @ O O @ O O O O O O O O O @ @ @ @ @ @ @ @ @ @ & = t I #.7.e...] L t ; ; ; r t a K L P P P C B p p r ; ; = > : & & @ @ @ @ @ @ @ @ @ @ # : # @ @ @ O O O O O @ & , , > , > : & @ @ @ O O O @ @ = 9 r a g C P '  .@.6.7.5.5.O.[ T B p r ; = & = = ; r r r i p p i i i i i p n B A B p p r r y y 8 8 > 8 k z 0.0.C.P.hXmXKXKXIXIXIXIXPXLXGXnX-XXX_.c.8.,.} A p ; & % ",
"FXGXGXGXLXLXLXGXFXmXkX*X+XL.J.e.,. .' D A n b i 4 4 1 1 4 4 4 4 0 1 1 1 4 4 4 4 4 0 e n P ] U K m 0 1 1 1 3 3 3 3 3 3 3 3 3 3 3 3 3 3 3 3 3 3 3 3 3 3 3 3 3 4 b U 8.H.r.] B 0 1 1 3 1 1 1 1 1 1 1 1 1 1 1 1 1 1 1 1 1 1 1 1 1 1 1 1 1 a B a 3 1 1 1 1 1 1 1 1 1 1 1 1 1 1 3 3 3 ; 1 1 0 0 0 0 r t r r 1 0 r r r r r r r 1 r r r a p i i p B p i w w w w B P A p w i B ] ] B w w i i r r r r r r r r r 1 i ] H.r.P e e p B B L p n n p e n N D ' D A D D B a 7 = + + # 8 s s 8 # X X X . . + # # + .                             . .         . . + # 8 k s 8 # + # # # # . . 5 k k z z l z k j 5 # 8 s k u 9 0 i v v c c 4 2 2 i D @.Z.] t r r r 9 9 0 0 0 r 9 9 9 9 ; 9 9 9 7 ; 7 7 7 7 7 7 7 7 1 0 r r ; ; ; ; 1 1 ; 1 3 3 3 k 0.q.L r B @.6.5.A.{.{.`.F.Z.#.Z.Z.e._ t ; ; < < < > > > - - , , - = = = = = = = , , , , , , , : : : & & & & & & & & & & & & & & : : : : : : : : : : : : : : : : : : : : & & & & & & & & & & & & @ @ @ @ @ @ @ @ @ @ @ @ @ @ @ @ @ @ & & & @ @ @ : : : : @ @ : : : : & & @ @ @ : @ @ & & & & & & @ @ & & & & @ @ @ @ @ @ @ @ @ @ @ @ @ @ @ @ @ @ O O O O O O @ O O O O O O O O O @ @ @ @ @ @ @ O O @ @ = 9 l ) ..@...U L a < - - - < r t y a f f p p y y r 9 9 9 > > > & & & @ @ @ @ @ @ @ @ @ @ @ + @ O O O O O O O @ & & & : : @ @ @ O O O O O O O @ = 9 r t g C P ]  .@... .{ ' T D f y r 7 = = = > ; 7 7 9 r r t t i p p p B A P ' U P D A A P P P L I 0.C.P.fXgXhXhXcXmXKXKXPXPXPXPXLXGXmXjX&X.X_.!.9.8.:.} S p 1 - ",
"FXGXGXGXGXGXGXGXZXnXjX@XL.L.Z.7.5. .' D A m b i i 4 1 1 4 4 4 4 0 0 1 4 1 1 4 4 4 4 4 0 0 0 0 4 1 1 1 1 3 3 3 3 3 3 1 1 1 1 1 1 1 1 1 1 1 1 1 1 3 3 3 3 3 3 4 i n P U L b 0 2 4 1 3 1 1 1 1 1 1 1 1 1 1 1 1 1 1 1 1 1 1 1 1 1 1 1 1 1 r r 3 1 1 1 1 1 1 1 1 1 1 ; ; 1 1 1 ; ; ; 1 1 1 0 1 1 1 0 r 0 ; ; r r 3 r r r r r 0 r t a K B p a a i r q 0 w p p B U ' B p w p B B p q q r r r r r r r r r r r 0 i ] 7.{ N p p B B P B p i p p p N N N S D ' ' } P B y 6 # # > 8 k s 6 + . X . . . . . .                 . .             .         . . + + # 6 8 8 5 + + 5 5 5 # # + 5 k k l l k k k j 5 5 j k k 8 > ; 3 i 4 4 2 2 - - 1 p ( 7.#.l r r 9 9 9 r r r r r r 9 9 9 9 < < < ; 7 7 7 7 7 < < < 3 3 r 3 1 3 1 1 1 ; ; ; r 3 t 0.@XP._ r p ] H.K.{.XX&X&X+X+XL.L.J._ t ; ; ; ; ; < < < < - - - , , , = = & & - = , , : : & & & & : & & & & & & & & & & & & & & & : : : : : : : : : : : : & & & & & & & & & & & & : : & & & & & & & @ @ @ @ & & & & & & & @ @ @ @ & & & @ & & & & @ @ @ & : : : & : : @ @ @ @ : : @ @ & & & & & & @ @ @ @ @ @ @ @ & & @ @ @ & & & @ @ @ @ @ @ @ @ O O @ @ O O O O O O O O O O O O @ @ @ @ @ @ @ @ @ @ @ @ = y l L P P L L r - - - - = > 9 7 r a a f h g g g g u u u t 9 > > : & @ + + O O O + + @ + + + @ O O O O O O O O O @ @ O O O O X O O O O O O O @ > > 9 t B C ( ' ] ] ( P D A B p y r 9 9 > > 6 6 7 ; = = > 9 r r p a B B P ' } :.:.:.:.:.,.6.6.7.e.P.gXcXmXKXKXKXJXGXGXGXGXGXGXFXmXvX*X+X).c.z.9.2.:.:.~ H m w 2 ",
"FXFXFXFXFXZXZXmXnXjX%X'.J.H.Z.7.@. .U S A m b w 4 4 1 1 4 4 4 3 4 0 1 1 1 1 4 4 4 4 4 4 1 1 4 4 4 4 4 4 1 1 3 3 i i 3 1 1 1 1 1 1 1 1 1 1 1 1 1 3 3 3 3 3 3 4 4 4 4 i i 4 4 4 1 1 1 1 1 1 1 1 1 1 1 1 1 1 1 1 1 1 1 1 1 1 1 1 1 1 1 1 1 3 1 1 1 1 1 1 1 1 1 1 1 ; 1 1 1 1 ; ; ; 1 1 1 0 3 3 1 1 r r l z l t 3 1 r r r r 0 r p a L B m L B i r 0 0 i B A B A U D p e w w w w 0 r r r r r r r r r r i i 0 p ] 6. .' D P ' ] P p w i p p B U P N N D ' ,.,.} D f y 6 > 8 k l l 8 # + . + + . . .                 . . . .                     . + + + + + # # # # # 5 5 5 # # + 5 k k k k k k k k j k k k k 8 > = > 3 3 - % , , , - ; B 7.Z.) t 9 9 9 9 r r r r r r 9 9 9 9 < < < < 7 7 7 7 < < < < 3 3 3 3 3 3 3 3 ; ; ; ; 3 3 a e.P.q.l t r B 5.K.{.{.&X&X*X*X*XL.q.l ; = ; ; ; - < < < < - - - , , , = = & & - - , , : : & & & & & & & & & & & & & & & & & & & & : : : : : : : : : : : : & & & & & & & & & & & & : : & & & & & & & @ @ @ @ & & & & & & & @ @ @ @ & & & @ & & & & @ @ @ & : : : @ : : @ @ & @ : : @ @ & & @ & & & @ @ @ @ @ @ @ @ & & @ @ @ @ & & @ @ @ @ @ @ @ @ O O O O O O O O O O O O O O O O O @ @ @ @ @ O O @ @ @ @ @ = 9 u l l l t ; - & & & - = = ; r g L P ] ) _ _ ) ) L L l u t 9 > & @ @ + O O O O + + + + O O O O O O O O O O O O O O O O O O O O O O X X O @ & > 9 y f B D P ( P P D C C B f y r 9 9 9 6 6 6 6 6 = = = > > 9 r a B P P '  .,.8.8.8.8.c.H.H.J.J.@XcXGXKXIXIXIXPXKXmXmXnXvXvXjX*X+X).c.9.2.&.&.&.$.$.G G Z v v ",
"ZXZXZXZXmXmXmXnXjX@XL.J.Z.Z.7.@. .' P A A m b w 4 4 1 1 4 4 3 3 4 4 4 4 1 3 3 4 4 4 4 4 1 1 1 4 1 1 4 4 1 1 1 1 3 3 1 1 1 1 1 1 1 1 1 1 1 1 1 1 3 3 3 3 3 3 3 3 3 3 1 4 4 4 4 3 3 1 1 1 1 1 1 1 1 1 1 1 1 3 1 1 1 1 1 1 1 1 1 1 1 1 1 1 1 1 1 1 1 1 1 1 1 1 1 1 ; ; 3 1 1 1 ; 1 0 1 ; ; 3 3 3 r u 0.P.R.q.a r r r r r r r r r t B B p a i r 3 r i p B B p p B A N e w q w w i r r r r r r r r r 3 r i i a ] 7.7.5. . .5. .B e q p p n P ..] A N D  .6.6.,.' D g t 8 s l I l u 6 # + + + + + .                 . . .                     . # 5 5 5 # + # 5 5 5 # # . . . . + 5 j k k k 8 j k l l k k k s 6 = = , < - - % % : : & - a @.H.@.u 9 r r r r r r r r r 9 9 9 9 9 < 9 9 0 0 7 7 < < 3 3 < 3 3 3 3 3 3 3 < < ; ; ; 1 u ..#.L L L r r B { h.H.{.XX&X@XL...l 9 = ; ; ; - - , , , , - - - - - = = = & - - - : : : : & & & & & & & & & & : : & & & & : : & : : : : : : : : : : : : : & & & & & & & & : : : & : & & & & : : : & & @ @ & & & & & & & & @ @ @ @ & & @ @ @ @ & & @ @ & & : : @ @ : & @ @ & : : : & & & & @ @ @ @ @ @ @ @ @ @ @ @ & & @ @ @ @ @ @ @ @ @ @ @ @ @ @ O O O O O O O O O O O O O @ O O O @ @ @ @ O O O @ @ @ @ @ & = > 9 r 9 = & & @ & & & = = 9 u K ) ..#.q.e.e.Z.e.#...) I l 8 > = & @ + + O O O O + O O + O O O O O O O O O O O O O O O O O O O O O X X O @ > 8 t a B B C D P P P P P C B f a y y 9 9 8 8 8 6 6 = = # # = = > r a B P ' } ,.8.8.c.H.).).).J.L.@XcXGXKXIXIXIXPXKXmXkXgX@X+X`.K.h.2.:.&.&.$.$.G F F F F F m v ",
"mXnXnXnXnXnXkXgX+XJ.Z.e.7.7.@.O.{ ' D A A m b w 4 4 1 1 4 4 3 3 4 4 4 4 1 3 3 4 4 4 4 4 1 1 1 1 1 3 3 3 1 3 i a B a i 1 1 1 1 1 1 1 1 1 1 1 1 1 3 3 3 3 3 3 3 3 3 3 3 1 1 3 3 3 1 1 1 1 1 1 1 1 1 3 1 1 1 1 1 1 1 1 1 1 1 1 1 1 1 1 1 1 1 1 1 1 1 1 1 1 1 1 1 1 1 ; 1 1 1 1 1 1 ; ; ; ; r 3 3 r _ %XmXkXS.a 0 1 3 r r r r r r r a p i r r 3 3 3 i i i i 0 0 p A B p p e w 0 i r r r r r i i r r 0 r L K B P 6.h.H.7.6.6.] p e p n p p D ] P N f D :.8.H.6.,.] P g y u l l l k 8 # # # # # # +               . . .                   . . # 5 8 k 8 5 5 5 j j j 5 . . . . . . 5 j k k 8 8 k z z z l k k 8 > @ = 9 t , & % & : & & - t @.H.#.g 7 7 r r r r r r r r 9 9 9 9 9 9 9 9 9 7 7 7 ; 3 3 3 < < < < 3 < 3 3 < < ; ; ; 1 t L ......L r 1 0 y C ( @.7.e.#.I y 7 ; = ; ; ; - - , , , , - - - - - = = = - - - - : : : : & & & & & & & & & : : : & & & & : : : : : : : : : : : : : : : : & & & & & & & & : : & & & & & & : : : : & & @ & & & & & & & & & @ @ @ @ & & @ @ @ & & & @ @ & : : : @ @ : : @ @ & : : : & & & & @ @ @ @ @ @ @ @ @ @ @ @ @ & @ @ @ @ @ @ @ @ @ @ @ @ @ @ O O O O O O O @ O O O O O O O O O O @ @ @ @ O O @ @ @ O O @ @ @ & = & @ @ O O O @ @ & = 9 u K ] #.Z.S.J.L.L.L.G.Z.q...I u 9 > & @ + + + O O + + O O O O O O O O O O O O O O O O O O O O O O O O X O O + > u a g B B A C C D D P P L B B g u y y y 8 8 8 8 6 6 > # # @ @ = > r p B P '  .8.8.c.c.H.H.H.r.Z.P.gXmXKXKXPXPXPXKXmXgX@XL.H.h.5.,.>.:.! G G G F F F F F F v v ",
"nXvXvXvXjX*X+XG.e.#.@.5.@.@. .{ { ' J D A n i i 4 3 1 1 1 1 1 1 0 0 1 1 4 4 4 4 4 4 4 1 1 1 1 4 1 3 3 1 1 i I e.r.e.B 3 1 1 1 1 1 1 1 1 1 1 1 1 3 3 1 1 1 1 1 3 1 1 1 3 1 1 1 1 1 1 1 1 1 1 1 1 3 3 1 1 1 1 1 1 1 1 1 1 1 1 1 1 1 1 1 1 1 1 1 1 1 ; ; ; ; ; ; ; 1 3 3 3 ; ; ; ; < < 3 3 3 3 0 t ..+XgXP._ r 0 0 r r a a t r r r t r r r r r 3 3 r r r r 0 w p B n p p p i q q r 3 3 r r a t r r 0 a ] P a f ] 7.Z.6...' B p i p p p p p B N e e A  .8.H.H.6.,.] g y y d l l d 8 6 # # # 5 5 + .                                   . . + 8 k l l l k 5 j j j j 5 .       . . 5 j 8 8 k k z z _ z l k k 8 6 + = 8 u > & : : : & & - u #.A.Z.l 7 7 9 9 9 9 9 9 r r 9 9 9 9 9 9 9 9 > ; 7 7 1 1 < < ; ; ; ; ; ; ; ; ; ; ; ; < < r L ..@...L 4 3 1 0 0 0 y y y r ; ; ; ; ; ; - - - - - = = = = = = = = = = = & & & = : : : : & & : : : : : : : : : : & & & & & & : : : : : : & & & & : : : : : : : : @ @ @ @ : : : : & & & @ & & & & & & & & @ @ @ @ & & & @ @ @ @ @ & & & & @ @ @ @ & & & @ & @ @ @ : : : : @ @ & & & & & & @ @ @ @ @ @ @ @ @ @ @ @ @ @ @ @ & @ @ @ @ O O O O O O O O O O O O O O @ @ @ @ @ O O @ @ O O O O O O O O O O O O O O O O @ @ @ @ O O O O O % & = 9 g L ..e.J.L.'.@X@X+XL.J.S.q.) u 9 > : @ @ @ @ O O O O O O O O O O O O O O O O O O O O O O O O O O O O O O O + > 8 u a B B B B B B D C C C K K K h g f d u s 8 8 8 8 6 # # + + @ > > 9 a B U } ,.8.c.c.c.c.6.O...q.P.gXcXmXGXGXGXmXjX@XL.H.h.H.H.H.j.g.4.2.&.G G F F F m F v v ",
"*X*X@X+XL.S.q.] ] ] { {  .{ { { { ' U D A n i i 4 3 1 1 1 1 1 1 0 1 1 1 4 4 4 4 1 4 4 1 1 1 3 4 3 1 1 1 4 I r.'.J.r.L 3 1 1 1 1 1 1 3 1 1 1 1 1 r 1 1 1 1 1 1 1 1 1 1 1 1 1 1 3 1 1 1 1 1 1 1 1 3 3 1 1 1 1 1 1 1 1 1 1 1 1 1 1 1 1 1 1 1 1 1 1 ; ; ; ; ; ; ; ; 1 1 3 1 1 1 ; ; 3 3 3 3 3 0 0 r K ..q.] y 0 0 r r t a a t r r r r r r r 0 1 r 3 3 3 r r r 0 i p p p n B p r r 0 r r r i a t r r 0 y B a r 0 p P ] ' ' B p i i i i i w p p e e e B } 8.H.H.6...P t 6 6 8 u d s 8 6 # # # 5 5 + .                             . . . + + 5 k z _ _ z l k 8 k j 5 # .       . . 5 j 8 k z z 0.0.z k k k k s 8 9 9 9 8 : > 8 > > : @ = u ) 7.H.) 9 9 9 9 9 9 r 9 r r 9 9 9 9 9 9 7 9 > > ; 7 1 1 < < ; ; ; ; ; ; ; ; ; ; ; ; ; ; r t L I L r 3 1 < < 7 7 ; ; ; ; ; ; - - ; ; - - - - = - = = = = = = = = = = & = = = : : : : & : : : : : : : : : : : & & & & & & : : : : : : & & & & : : : : : : : : @ @ @ @ : : : @ & & & @ & & & & & & & & @ @ @ @ & & & & @ @ @ @ @ & & & @ @ @ @ & & @ @ & & @ @ : : : : @ @ @ & @ & & & @ @ @ @ @ @ @ @ @ @ @ @ @ @ @ @ & @ @ @ O O O O O O O O O O O O O O O O @ @ @ @ O O @ @ O O O O O O O O O O O O O O O O @ @ @ @ O O O O O & & = 9 u K ] e.H.L.+X@X@X@X+XL.J.e._ u 9 > : @ @ @ @ O O O O O O O O O O O O O O O O O O O O O O O O O O O O O O X X @ > 9 r f B D B B A B A A C D ( ( ( ( K K l l l d s 8 8 6 # # + @ # > > r p B P } ,.4.h.c.8.,.[ K ) ..S.P.gXgXgXgXgX@XL.Z.Z.H.`.`.XXXX`.).c.8.2.&.G F F m v v v ",
"S.e.#...) L B B D P ' ] { { {  .{ ' U D A n i r 4 4 1 1 4 4 4 4 0 0 1 1 4 1 4 4 1 1 1 1 1 1 4 4 1 4 1 1 a ..r.e...I a 3 1 1 1 1 3 1 1 1 0 0 0 0 i i 0 1 1 1 3 3 1 1 1 1 1 1 1 1 1 1 3 1 1 1 1 1 r 3 1 1 1 1 1 1 1 1 1 1 1 1 1 1 1 1 1 1 1 1 1 1 ; ; ; ; ; ; 1 1 1 1 1 1 1 1 1 1 3 3 3 1 3 0 0 r B ] ] L r 0 0 r r r t r r r r 0 0 0 r r r r r r 3 3 r r r 0 0 i B B p p i r r r r r r r i 3 3 3 r 0 r r r r r p p B P B p i i q q i p q e y p e N ' ,.8.6.,.] B 9 = = 6 8 8 y 6 6 # # # # # + .             . . . . . . . . + + + + # 8 l z ` 0._ l k 8 j 5 # . .       . . 5 j k z 0.0.q.q._ k k k l l l k 8 9 > # > t 8 > > > 9 u u _ S._ y 9 9 r r r r r r r 9 < < 9 ; ; 7 7 > < ; ; 1 1 1 ; ; ; ; ; ; ; ; ; ; ; ; ; ; ; ; ; 3 r 4 3 1 ; ; ; 9 ; ; ; ; ; ; ; - - - ; - - - - - - , , = = = = = = = = & & = = : : : : & & & & : : : : : : : : & & & & & & : & : : : : & & & & : : : : : : : : @ & & @ : : @ @ & & @ @ & & & & @ @ & @ & & & & & & & & : : : : @ & @ @ @ @ @ @ @ @ @ @ : & : : : & : : @ @ & & @ @ @ & @ @ & @ @ @ @ @ @ @ @ @ @ @ @ @ @ @ @ @ O O O O O O O O O O O O O O O O @ @ @ @ O O @ @ O O @ O O O O O O O O O O O O O @ @ @ @ O O O O O & & = > r h ) #.Z.J.'.@X@X+X'.L.J.q.) u 9 > @ @ @ @ @ O O O O O O O O O O O O O O O O O O O O O O O O O O O O O O X X O @ & > a B P ' U D D D D T ' [  . .O.@.....X.{ ) l d s 6 6 # + + @ # = ; 0 p B D '  .,.6.5. .' C B K _ q.S.G.J.J.J.S.7.@.f.K.`.@X&X&X&X&X{.).c.4.:.G G F v v v ",
"g a i r q w p N B D ( ] { {  . .{ ' P D B n i 3 4 3 1 1 4 4 4 1 0 0 1 1 1 1 4 4 1 1 1 1 1 1 1 4 1 4 4 4 B  .6...U a 3 1 1 1 1 1 3 1 1 1 0 w w w p i i i i 1 3 3 1 1 1 1 1 1 1 1 1 1 1 1 1 1 1 1 3 3 1 1 1 1 1 1 1 1 1 1 1 1 1 1 1 1 1 1 1 1 1 1 ; ; ; ; ; 1 1 1 ; 1 1 1 1 1 1 1 3 3 1 1 1 0 0 q B P B p 0 0 0 r 3 3 3 3 ; 3 0 1 1 0 r t a r r r 3 3 r r 0 r r i a p r q r r r r r r 3 3 r 3 3 1 3 1 3 r r r t r i i p i i i i i q i i q p C D N p D }  . .} D a ; @ @ = 9 y y 9 # # + + + + .               . . . . . . + # 5 5 # # 5 8 l z _ ` _ l k 8 5 # . . .     . . + 5 j z _ 0.q.q.q.0.z k k l I I u 8 8 8 > t t 8 8 8 8 8 8 8 l ..I 9 9 r r r r r r r r < < < < ; ; ; ; < < < ; 1 1 1 ; ; ; ; ; ; ; ; ; ; ; ; ; ; r ; ; 3 3 3 3 ; 1 ; ; ; ; ; ; ; ; ; ; - - ; ; - - - - - - , , = = = = = = = = & & - - : : : : & & & & : : : : : : : : & & & & & & & & : : : : & & & & : : : : : : : : & & & : : : @ @ & & @ @ @ @ & & @ @ @ @ & & & & & & & & : : : : @ @ @ @ @ @ @ @ @ @ @ @ : : : : & & : @ @ @ : : @ @ @ @ @ @ & & @ @ @ @ @ @ @ @ @ @ @ @ @ @ @ @ O O O O O O O O O O @ @ O O O O O @ @ @ @ O @ @ O O @ @ O O O O O O O O O O O O @ @ @ @ O O O O O & & = = ; y h ] #.H.L.`.`.`.L.S.e._ g 9 9 > & @ @ @ @ @ O @ + O O O O O O O O O O O O O O O O O O O O O O O O O O X X O O @ = y P ] .... .' ' ' |  .,.5.5.f.h.A.A.A.Z.#.{ ) h s 9 > # # @ @ & = ; 0 r p B D '  . .' P C B K ) #.Z.S.Z.e...] P { 7.J.`.@X*X-X-X-X&XXX).c.9.:.G F m v v ",
"1 1 1 1 1 i p B A D ) {  . . . . .' D B n i i 4 4 4 1 1 1 1 1 1 4 1 1 1 1 1 1 1 1 1 1 1 1 1 1 1 1 1 4 0 B  .e.6.P i 1 1 1 1 1 1 1 3 i 0 i p n n B B B n i 3 3 3 3 1 1 1 1 1 1 1 1 3 1 1 1 1 1 1 3 3 3 3 1 1 1 1 1 1 1 1 1 1 1 1 1 1 1 1 1 1 1 1 1 1 ; ; ; ; 1 1 ; ; 1 3 1 ; ; 1 3 3 3 0 ; 0 0 q p p r 0 0 q r r 3 1 1 ; ; 3 r 1 0 0 r r t r r r r i r 3 1 r r r i r 0 0 1 3 3 3 3 3 3 3 3 3 3 3 3 3 3 3 3 r r r r r r r i i r q r i w q B ' ( N p N S W } ' P B 9 = + 9 u l l u 6 + + + + . .               . . . + + + # 5 5 5 5 5 5 8 k l z z l k 8 8 5 + . . . . . . + # j k z 0.0.0.0.0.0.z k l I I l 8 6 u > # 8 8 8 8 > 6 8 s l l l u 9 9 9 r r r r r r 9 9 9 < < ; 9 9 9 9 > 9 < ; ; ; ; ; ; ; ; ; ; ; ; ; ; ; ; ; ; ; ; ; ; ; ; ; ; ; ; ; ; ; ; ; ; ; ; ; ; ; ; ; ; ; ; = = = = = = = = - - - - - - - - : : : : & & & & : : : : : : : : & & & & & & & & & & & & & & & & : : : : : : : : : : : : & & & @ & & & @ @ @ @ & @ & & & @ @ & & : : : : : : : & @ @ @ @ @ @ @ @ @ @ @ @ @ @ & & @ @ @ @ : & & : @ @ @ @ @ @ @ @ @ @ @ @ @ @ @ @ @ @ @ @ @ & & & @ @ @ @ @ @ @ @ O O O O O O @ O O O @ @ @ @ @ @ O @ O O O O O @ O O O O O O O O O O O O @ O O O & , > > ; ; 9 y h ) @.Z.H.J.H.Z.#.) l 9 > > : : : : : @ @ @ @ + O O O O O O O O O O O O O O O O O O O O X X X O O O O X O O @ & r L ] ,.7.6.,.:.,.,.5.h.c.H.H.K.K.`.`.L.H.f...( d y 6 > & # : & = = ; 7 q p n B D ( ( D C B C ( ..#.7.#.] P f f K ..Z.L.@X&X-X-X-X&X&XXX).c.:.G F m m v ",
"3 3 1 1 0 i p B D ( ' {  . . . .{ ' S N n e 0 4 4 4 1 1 1 1 1 1 4 1 1 1 1 1 1 1 1 1 1 1 1 1 1 1 1 1 1 1 i B P L i 1 1 1 1 1 4 i i i p n B A A A A A A B m i 3 3 1 1 1 1 1 1 1 1 1 1 1 1 1 1 1 1 3 3 3 3 1 1 1 1 1 1 1 1 1 1 1 1 1 1 1 1 1 1 1 1 1 1 ; ; ; ; 1 1 ; ; 1 1 ; ; ; ; 3 3 0 0 0 0 r y y y q q q q r r 3 1 1 1 1 ; 1 1 0 0 0 0 r r r r r a t r 1 3 r r 0 0 0 3 3 3 3 3 3 3 3 3 3 3 3 3 3 3 3 3 3 3 3 r r r r r r r r i p a p i B P D N e e Z W }  .} P g 9 = t L ) ) K y = + # + . .               . + # 5 # # 5 5 5 5 5 5 8 8 k k k k 8 8 5 # # . . . # 5 j 5 # j k z z z z z z _ _ z l l l l 8 # # # + + # # 8 8 # # 8 l _ l l y 7 9 9 9 r r r r 9 9 9 9 9 ; 9 9 9 9 9 k I k 9 ; ; ; ; ; ; ; ; ; ; ; ; ; ; ; ; ; ; ; ; ; ; ; ; ; ; ; ; ; ; ; ; ; ; ; ; ; ; ; ; ; - - = = = = = = = = - - - - & & - - : : : : & & & & : : : : : : : : & & & & & & & & & & & & & & & & : : : : : : : : : : : : & & @ @ & & @ @ @ @ @ @ & & & & @ @ & & : : : : : : @ & & @ @ @ @ @ @ @ @ @ @ @ @ @ & & @ @ @ @ : : : : @ @ @ @ @ @ @ @ @ @ @ @ @ @ @ @ @ @ @ @ & & & & @ @ @ @ @ @ @ @ O O @ @ O O O O O O @ @ @ @ @ @ O O O O O O O O O O O O O O O O O O O O O O @ & , 8 8 > > ; 7 9 y g P ] #.e.#...] h 9 = > : : : > 8 8 : @ @ @ + O O O O O O O O O O O O O O O O O O O O X X X X O O O O O O @ @ ; a ] ..6.6.8.,.2.4.c.H.).`.`.`.{.XXXX{.`.L.A.@.) g r > = : : : = = = ; 7 r p a B C P C B C B C ] ] ] ] P B p y f P @.Z.`.+X&X&X&X&XXX_.).8.:.J Z m m m ",
"3 4 1 1 0 p N C P ' ] {  . . . .' D D n p 0 1 1 4 4 1 1 1 1 1 1 1 1 1 1 1 1 1 1 4 4 1 1 1 1 3 3 1 1 1 1 4 4 4 1 1 1 1 1 1 4 i i p B A P ] ] ' U U P P K B i 3 1 1 1 1 1 1 1 1 1 1 1 1 1 1 1 1 3 3 3 3 3 1 1 1 1 1 1 1 1 1 1 1 1 1 1 1 1 1 1 1 1 1 1 1 ; ; ; ; 1 ; 1 1 1 ; ; ; ; 1 0 0 0 0 r p a p y p q q q r r 3 3 1 ; 1 1 1 1 3 3 3 3 r r 3 3 3 i r r 3 3 r r r r 3 3 3 3 3 3 3 3 3 3 1 1 3 3 3 3 3 3 r r r r r r r r r i i i B K B p B P P N e e Z '  .,.,.{ L y 7 g ) ] { ( d 7 = = = # +               . # 5 5 5 5 5 5 5 # + 5 5 8 8 5 5 5 5 5 5 5 5 + . . 5 j k j 5 j l z z l k k k l l l l l l u > @ + + + + + # 8 k # # s l l l l y 7 9 9 9 9 9 r r r r 9 9 ; ; 9 9 9 7 u q.P.0.t ; ; ; ; ; ; ; ; ; ; ; ; ; ; ; ; ; ; ; ; ; ; ; ; ; ; ; ; ; ; ; ; ; ; ; ; ; ; ; - - - - = = = = = = = = & & - & = & = = : : : : & & & & : : : : : : : : & & & & : : & : : : & & & & & & : : : : : : : : @ @ : : & & & & & @ @ @ @ @ & & & & & & @ @ @ & : : & & @ @ @ @ & @ @ @ @ @ @ @ @ & & & @ @ @ @ @ @ @ @ @ @ @ @ & & @ @ @ @ @ @ @ @ @ @ @ @ @ @ @ @ @ @ @ @ & @ @ @ O O @ @ @ @ O O O O O O O O @ @ @ @ @ @ @ @ O O O O O O O O O O O O O O O O O O O O O @ : , < t u t 9 < 9 r r y a h L ) ) L g 9 = , : : : : > 8 < : @ @ @ O O O O O O O O O O O O O O O O O X X X X X X X X O O O X O @ @ @ = r B ] ,.8.8.2.2.4.c.).).XXXXXXXX&X&X&X&XXX`.A.@.K u 9 = : # # # = = = ; 9 r a f B L B B B B C D P D A B B p y q p P  .7.H.`.`.`.`.).c.4.:.~ H Z m m m ",
"3 3 1 0 w n N D ( ' ] {  . . .{ ' D N n e 0 1 1 4 4 1 1 1 1 1 1 1 1 1 1 1 1 1 1 4 4 4 1 1 1 3 3 1 1 1 1 1 1 1 1 1 1 1 1 1 i i n B P ]  ... .} ] U U P P B i i 3 1 1 1 1 1 1 1 1 1 1 1 1 1 1 1 1 3 3 3 3 1 1 1 1 1 1 1 1 1 1 1 1 1 1 1 1 1 1 1 1 1 1 1 1 ; ; ; 1 ; 1 1 1 ; ; ; ; 1 0 1 0 r r p a p p p q q 0 r r 3 3 1 ; 1 1 1 1 3 3 3 3 r 3 3 3 3 r 3 r r r r r r r 3 3 3 3 3 3 3 3 3 3 1 r i a t r r 0 r B L I K i r r r r i i p B p p B P P p e e N W  .,.,. .P f q f L ] ] K g y r 9 9 = + .           . . 5 j 8 5 5 5 5 + + + + # # # # # # 5 8 k k j 5 + + 5 j j j j k k z k k j j k k k k l l k 8 > # + . . + # 8 8 5 # # k z l l d y 7 9 r r r 9 9 r r r 9 9 ; 9 9 9 7 9 l S.S.z 9 ; ; ; ; ; ; ; ; ; ; ; ; ; ; ; ; ; ; ; ; ; ; ; ; ; ; ; ; ; ; ; ; ; ; ; ; ; ; ; - - - - = = = = = = = = & & & & & & & : : : : : & & & & : : : : : : : : & & & & : : : : & : : & & & & & : : : : : : : : @ @ & : & & & & & @ @ @ @ & & & & & & & @ @ & & & : @ @ @ @ @ @ @ @ & @ @ @ @ @ & & & & @ @ @ @ @ @ @ @ @ @ @ @ & & & @ @ @ @ @ @ @ @ @ @ @ @ @ @ @ @ @ @ @ @ @ @ O O O @ @ @ @ O O O O O O O O @ @ @ @ @ @ @ @ O O O O O O O O O O O O O O O O O O O O @ > > > , > t u t 9 r r r r r r y t t 9 > = & : @ @ # : : > : @ @ @ @ O O O O O O O O O O O O O O O O O X X X X X X X X O O X O O + > 9 9 r p D } ,.,.,.2.4.8.c.).`.{.XX&X&X-X-X-X&XXX`.f.] a 9 = & # # # = = = > > 9 y a g B g a p p B D D A A B B p p r q y f P { @.7.7.,.,.| W S Z Z n n n m ",
"1 1 1 0 p N B D ( ' ] { { { ] ' U D N n i 0 1 1 1 1 1 1 4 4 4 1 1 1 1 1 1 1 1 1 1 1 1 1 1 1 1 4 3 3 1 1 1 1 1 1 1 1 1 0 e p B A U U }  . . .} } ] ' U P B p r 1 1 1 1 1 1 1 1 1 1 1 1 1 3 1 1 1 1 1 1 1 1 1 1 1 1 1 1 1 1 1 1 1 1 1 1 1 ; ; ; 1 ; ; ; ; 1 1 ; ; 1 1 1 1 ; ; ; ; 3 r r r r p p a p p p p q 0 r r 3 ; 1 1 1 1 ; ; ; 3 3 3 r 1 1 1 3 3 3 r r a a r 1 1 1 r 3 3 3 3 3 3 3 3 3 t L ..L r r i L ..e.r...K r r r r r i p p p p p p p i q w N J } :.:.| D p q r a B B A B B n p r 7 = + .     . . . + 5 s s 8 5 5 5 + + . + + + . + + 5 8 k l z k j 5 # 5 j j 5 5 j k k k j j j j k k l _ _ k 6 # # + + + # j 8 8 # + 5 k z l k u 9 ; 9 r r r r r r ; ; ; ; ; ; ; ; ; 7 g .._ K u < ; ; ; ; ; ; ; ; ; ; ; ; ; ; ; ; ; ; ; ; ; ; ; ; ; ; ; ; ; ; ; ; ; ; = = = = = = = - - - - - = = = = & : , , , : : : : : : : : : : : : : & & & & : : : : : : : : : : : : : : : : : : & & & & & & & & @ @ & & & & & & & @ @ @ @ @ : : @ @ @ & : : @ @ @ @ @ @ @ @ @ @ @ & @ & @ @ @ @ @ @ @ @ @ @ @ @ & & @ @ @ @ @ @ @ @ @ @ @ @ @ @ @ @ @ @ @ @ @ @ @ @ @ @ @ & @ & @ @ @ @ @ @ O O @ @ @ @ @ @ @ @ O O O O O O O O O O O O O O O O + + + + O O + O O O O + @ : > > = = > 8 8 < 9 9 9 9 9 9 9 > > = = @ @ # @ @ @ @ @ @ # @ @ + O O @ O O O @ @ O O O O O O O O O O X X X X X X X X X O X O @ # 9 u a a p A } :.,.,.>.:.2.4.c.H.).).{.XX&X&X&X&XXX`.h.{ f 7 = = # # = = = = > > 9 9 r y y y r r y a B A S A Z N p p t r ; ; 9 y u g a a a p p p p p i i i i ",
"1 1 0 i p N A D ( ' ] ] ] ] ' ( D Z N p i 0 1 1 4 1 1 1 1 4 4 1 4 4 1 1 1 1 1 1 4 1 1 1 4 1 1 4 3 3 1 1 1 1 1 1 3 1 4 e n N A P U ] } } } } } ' ' ' U P B p r 3 1 1 1 1 3 1 1 1 1 1 1 1 1 1 1 1 1 1 1 1 1 1 1 1 1 1 3 1 1 1 1 1 1 1 1 1 ; ; ; ; ; ; ; ; 1 1 1 ; 1 1 1 1 ; ; ; ; 3 3 r r p p p a p p p y q r r 1 ; ; ; 1 1 1 ; ; ; ; 3 3 3 1 1 1 1 1 3 0 r a i r r 1 1 r 3 3 3 3 3 3 3 3 r a ....L r i P ] ] ] 6.@.P a r r r r p B P L p r r r r 0 w n J } :.} W N w 7 0 q p N B A B N p y r 7 = # + + + + + 5 8 s 8 8 5 5 5 + + . + + + + + 5 5 8 k z z l k 5 5 5 5 5 # # 5 j j j j j j k k k _ #._ d 6 = # # # 5 8 8 8 k j + 5 k l l s 8 9 > 9 r r r r r r ; ; ; ; ; ; ; ; ; 0 a ..7.7.L r ; ; ; ; ; ; ; ; ; ; ; ; ; ; ; ; ; ; ; ; ; ; ; ; ; ; ; ; ; ; ; = ; ; = = = = = = = = - - = - = = = = : : , , , : : : : : : : : : : : : & & & & : : : : : : : : : : : : : : : : : : : & & & & & & & & @ @ & & & & @ @ & : @ @ @ @ : : @ @ @ & : : : @ @ @ @ @ @ @ & & @ & @ @ @ @ @ @ @ @ @ @ @ @ @ @ & & @ @ @ @ & & @ @ @ @ @ @ @ @ @ @ @ @ @ @ @ @ @ @ @ @ @ @ @ @ O O @ @ @ @ O O @ @ @ @ @ @ @ @ O O O O O O O O O O O O O O O O + + + O O O + + O O O + + @ > > > = = > > , > > > > > > > = = @ @ + + @ @ @ @ @ @ @ # # @ + O O O O O O O O O O O O O O O X O O X X X X X X X X X X X O O @ 6 t l B B D } :.,.2.2.:.>.| ,.,.4.h.H.).).`.`.`.`.H.5.P p 7 = = # # = = = = = > > > 9 9 ; ; - ; < r a B A A Z n p r r 9 > = @ + + @ @ = = - = ; ; 3 3 3 3 3 ",
"1 0 0 r p B C P ( ' ] ] ] ( P D D N n i 0 1 1 1 4 4 1 1 1 1 1 1 4 4 1 1 1 1 4 4 1 1 4 1 4 1 1 4 3 3 1 1 1 1 1 1 4 4 w n Z A A D U U U U U J U U U ' ' P B p r 3 1 1 1 1 1 1 1 1 1 1 1 1 1 1 1 1 1 1 1 1 1 1 1 1 1 1 1 1 1 1 1 1 1 1 ; ; ; ; ; ; ; ; ; ; 1 1 ; ; 1 1 ; 1 ; ; 1 1 3 r r r p p p p p p y r r r r 1 ; ; 0 0 0 0 ; ; ; ; ; 3 3 1 1 ; 3 1 1 1 r i i r r r r r 3 3 3 1 0 0 0 0 1 i K K p i P @...B f C ( ( a r r r t p a P L p r r r r 0 w N U } :.} D n e 0 0 q e N N Z N n p p y y r 8 6 6 6 6 6 8 8 8 5 5 5 5 5 + . . + + + + + 5 5 8 k l l k 8 8 5 5 5 + . . 5 5 j j j j 8 s k I #.q._ u 6 = = 6 8 6 5 8 8 k 5 j k k l z k 8 9 9 9 r r r r r r ; ; ; ; ; ; ; ; ; 7 t ] e...a < ; ; ; ; ; ; ; ; ; ; ; ; ; ; ; ; ; ; ; ; ; ; ; ; ; ; ; ; ; ; = = = = ; > = ; = = = = = = = = = = = = : : , , : : : : : : : : : : : : : : & & & & & & : : : : : : : : : : : : : : : : & & & & @ @ & & @ & & & & @ @ @ : : : : @ & : : @ @ : & : : @ @ @ @ @ @ @ @ & & @ & @ @ @ @ @ @ @ @ @ @ @ @ @ @ & @ @ @ @ @ & & @ @ @ & @ @ @ @ @ @ @ @ @ @ @ @ @ @ @ @ @ @ @ @ O O @ @ @ @ @ O @ @ @ O @ @ @ @ O O O O O O O O O O O O O O O O + + O O O O + + O O O + @ @ @ : > > > > > > = > = = = = & @ @ + + + + + @ @ @ @ # @ # # @ . + X O O X X X X X X O X X X X X X X X X X X X X X X X X X O O @ # 9 t B B D ' :.4.4.8.2.:.| Q W W | :.,.8.6.6.6.6. .P B r 7 = # # # = = = = = > > > > = - & @ & & > a B A A A n i r r < > = + . X   . + @ @ @ & = = - - - - ",
"r r r y p B C P ( ' ] ] ' ( P D B n i w 0 1 1 1 1 4 1 1 1 1 1 1 4 4 1 1 1 1 4 4 1 1 1 1 4 1 1 4 3 3 1 1 1 1 1 1 4 0 p N S S A A A B B B N N A A D P P D B p r 1 1 1 1 1 1 1 1 1 1 1 1 1 1 1 1 1 1 1 1 1 1 1 1 1 1 1 1 1 1 1 1 1 1 ; ; ; ; ; ; ; ; ; 1 1 1 1 ; ; ; ; ; ; ; ; 1 1 3 r r r p p p p p p r r r r r 1 ; ; 0 0 0 0 ; ; ; ; 1 1 1 ; ; ; 3 3 1 1 r B L L i i i r 3 1 1 3 0 0 0 0 1 r r r r B ..6.P f N D ' ( a r 0 r r r p a p r r r r r i i N J } :.} J Z M b e b N Z S A N n p p p B B h g y y d d s 8 8 5 5 5 5 5 + . + # # # + + + 5 5 8 k s k s s 8 8 5 + . . 5 j j j j 8 s l L ] ....L g y y y d d 8 6 5 5 5 5 z z k _ 0.l 9 9 9 r r r r r r r ; ; ; ; ; ; < < < ; ; t l u 9 ; < < ; ; ; ; ; ; ; ; ; ; ; ; ; ; ; ; ; ; ; ; ; ; ; ; ; ; ; ; = = = = ; > > > = = = = = = = = = = = = : : , , : : : : : : : : : : : : : : & & & & & & : : : : : : : : : : : : : : : : & & & & @ @ & & @ @ & & & @ @ @ : : : : @ & : : @ @ : : : : @ @ @ @ @ @ @ & & & & @ @ @ @ @ @ @ @ @ @ @ @ @ @ @ & @ @ @ @ @ & & @ @ @ & @ @ @ @ @ @ @ @ @ @ @ @ @ @ @ @ @ @ @ & O @ @ @ @ @ @ O @ @ O O @ @ @ @ O O O O O O O O O O O O O O O O + + O O O O + + + + + + + @ O @ & > > > > & & & & & & & @ @ + + + + + + + @ @ + # # # # @ @ + X X X X X X X X X X X X X X X X X X X X X X X X X X X X X O O + & > t B P } ,.4.c.8.8.4.,.^ E S N Z A A A D D B B p r ; = = @ # # # # @ @ > > > > : & @ O O O @ & r a B A B n i 1 1 ; = = + .       X X X + @ @ = = = = = ",
"r r y p f B C P ( ( ( ( ' P D B N n w 0 1 1 1 1 1 1 1 1 1 1 1 1 1 1 1 1 1 1 1 1 1 1 1 1 1 1 1 1 1 1 1 1 1 1 1 4 0 i n A S A A n p i p p p p n A D P P A n i 0 1 1 1 1 1 1 1 1 1 1 1 1 1 1 1 1 1 1 1 1 1 1 1 1 1 1 1 1 1 1 1 1 1 ; ; ; ; ; ; ; ; ; 1 1 1 ; ; ; ; ; ; ; ; 1 1 1 1 ; r r r p p p p p r r r r r ; ; ; 1 0 0 1 1 1 1 ; ; 1 ; ; ; ; 1 3 3 1 1 i I ..U a t t r 3 1 1 r t r r r 3 3 3 1 r B ] ' N D @.7. .P p r r r r p a p r r r r r r i i n A U } } W H S S S S H J U D n e w p N D ' ] ) ( K ( ) h y 6 5 5 5 5 # # + 5 5 5 5 + + + + # 5 8 s s k l l s 5 # + # 5 j k j 5 8 l _ ..] ' P C B f f C ( d d 8 s 8 5 8 l k z S.q.l > 9 r r r r r r r r ; ; ; ; < < < < ; ; < < < < < < ; ; ; ; ; ; ; ; ; ; ; ; ; ; ; ; ; ; ; ; ; ; ; ; ; ; ; = = ; ; ; = = ; ; = = = = = = = = = = - - & & , , : : : , , : : : : : : : : : & & & & & & & & : : : : : : : : : : : : @ @ @ @ @ @ @ @ @ @ @ & & & & @ & & & & @ @ & : : : : & & : : : & & & @ @ @ @ @ @ @ @ @ @ @ @ @ @ @ @ @ @ @ @ @ @ @ @ @ @ @ @ @ @ @ @ @ @ @ @ @ @ @ @ @ @ @ @ @ @ @ @ @ @ & @ @ @ @ @ @ @ @ @ @ @ @ @ @ O O O O O O O O O O O O O O O O O O O O O O O O O O O O @ @ @ + + + + + O O O O @ @ & : : @ @ @ @ & & @ @ + + + . . # # # # . . + # # # # # + . + X X X X X X X O X X X X X X X X X X X X X X X X X X X X X X + @ > t L ] ,.8.c.H.).H.c.4.o.E N e q 0 0 7 7 ; ; 9 ; = > = > # # # # : : : : # # @ O O O O O O @ , t a B B n i r 1 ; ; = @ + .     . O + + @ # > = = = = ",
"y y y a f B B L ( ( ( ( P D C B n p 0 0 1 1 1 1 1 1 1 1 1 1 1 1 1 1 1 1 1 1 1 1 1 1 1 1 1 1 1 1 1 1 1 1 1 1 1 4 i p N A S S A n i w w w w w n B D D D B p r 1 1 1 1 1 1 1 3 1 1 1 1 1 1 1 1 1 1 1 1 1 1 1 1 1 1 1 1 1 1 1 1 1 1 ; ; ; ; 1 ; ; ; 1 1 1 1 ; ; ; ; ; ; ; ; 1 ; 1 1 ; 3 r r r r p p r r r r r < ; ; ; 1 0 0 1 0 1 1 1 ; ; ; ; ; ; ; 1 1 1 1 t L U L r r r 3 3 1 r L L a r 0 3 3 3 3 r B ' ' ( 7.`.`.6.B r r r r r a B p p a t r r i i i i B J ' } } W W ~ ~ ~ } } } U A n e p N U  .,.,. . .@.@.{ K 8 6 5 5 6 6 5 6 8 s 8 8 # + + + + # 8 s k l l l k 8 5 # 5 j k k j 8 s ` Z.7. .' ' D A f V [ [ ( ) ( ` ) z l l l 0.S._ 8 > 9 r r r r r r r r 7 7 ; ; ; ; ; < ; ; < < < < < < < ; ; ; ; ; ; ; ; ; ; ; ; ; ; ; ; ; ; ; ; ; ; ; ; ; ; = = = ; ; = ; ; ; = = = = = = = = = = - - & & : : : : , , , : : : : : : : : : & & & & & & & & : : : : : : : : : : : : @ @ @ & @ @ & & @ @ & & & & & @ & & & & @ @ & : : : : & & : : : & & @ @ @ @ @ @ @ @ @ @ @ @ @ @ @ @ @ @ @ @ @ @ @ @ @ @ @ @ @ @ @ @ @ @ @ @ @ @ @ @ @ @ @ @ @ @ @ @ @ @ @ @ @ @ @ @ @ @ @ @ @ @ @ @ @ @ O O O O O O O O O O O O O O O O O O O O O O O O O O O O O O @ + @ @ + + O O O O O O @ @ @ O O O O @ @ @ @ @ + + # j x x x x j # # + # # > j j > # # @ X X X X X X X .   X X X X X X X X X X X X X X X X X X X X O & > a U ,.8.c.).).`.).H.h.1.[ A i 0 ; * * & = = = = > > > # : # # # # @ @ @ @ O O O O O O X O : , r i p p i r r r < > = # + . . . + + @ # > > 6 6 6 > ",
"y y a a f h K L P P P P D A B N p e 0 1 1 1 1 1 1 1 1 1 1 1 4 4 1 1 1 1 4 4 1 1 1 1 1 1 1 1 1 1 1 1 1 1 1 1 1 4 0 n Z S S A m b 0 0 0 0 w w p N B B B n p 0 1 1 1 1 1 1 1 1 1 1 1 1 1 1 1 1 1 1 1 1 1 1 1 1 1 1 1 1 1 1 1 1 1 1 ; ; 1 1 1 1 ; ; ; ; 1 1 1 1 1 1 1 1 ; ; ; ; ; ; ; 1 r r 0 r r r r r r r 1 3 < < 1 1 0 1 1 0 1 1 ; ; 1 1 ; ; ; 1 1 1 1 1 3 i t r 3 4 3 3 1 r K ....K r 7 0 3 3 3 r B  .6.H.`.@X'...y 0 r t r r a P ] ] U B r r r 0 0 i b B D J ~ ~ | :.:.:.:.:. .} U A n b Z '  .,.8.4.4.8.7.5.) d 8 8 8 6 8 8 d l l l 8 6 6 # # # 5 8 s l z z l k 8 5 5 j k k j 8 8 l #.J.Z.,. .} W D S ( +.5.+.h.f.F.F.G.Z.` ` q._ u 9 9 9 r r t t t r 0 7 7 7 ; ; ; ; ; ; ; ; ; ; < < < < < ; ; ; ; ; ; ; ; ; ; ; ; ; ; ; ; ; ; ; ; ; ; ; ; ; ; = = = ; ; ; ; = = = = = = = = = = = = - - - & , , : : : : , : : : : : : : : : & & & & & & & & : : : : : : : : : : : : @ @ & & & & & & @ @ & & & & @ @ @ @ & & @ @ & @ : : @ @ @ @ @ : : : : : @ @ & @ & & @ @ @ @ @ @ @ @ @ @ O @ @ @ @ @ @ @ @ @ @ @ @ @ @ @ @ @ @ @ @ @ @ @ @ @ @ @ @ @ & @ @ @ @ @ @ @ @ + @ @ O O @ @ @ @ O O O O O O O O O @ O O O O @ O O O O O O O O O + O O O O O O O @ @ @ + O O O O O O O O O O O O O O O + @ @ # # k w.fXhXhXfXC.w.k j # # 8 j k k k j 8 # + + + + + .     # j j # . X X X X X X X X X X X X X X X X + & 9 B ' 8.c.)._._._._.).K.h.,.P p q ; = = = = = = > = = = & # # # # @ O O O O X X X O O O X + : , r i i i i i r r t 9 9 = = + # # # 6 6 9 8 8 8 8 8 ",
"y y a f f g K L P P P D C B N p p p w 1 1 1 1 1 1 1 1 1 4 4 4 1 1 1 1 4 4 4 1 1 1 1 1 1 1 1 1 1 1 1 1 1 1 1 1 4 e n Z S S Z n i 0 0 0 0 w w p B B B B p q 1 1 1 1 1 1 1 1 1 1 1 1 1 1 1 1 1 1 1 1 1 1 1 1 1 1 1 1 1 1 1 1 1 1 1 1 1 1 1 1 1 ; ; ; ; 1 1 1 1 1 1 1 ; ; ; ; ; ; ; ; ; 0 0 0 0 r r r r r 1 1 3 < 3 1 1 0 1 1 0 1 1 ; ; 1 1 1 ; ; 1 1 1 1 1 1 3 3 3 4 4 3 3 1 i I 6.] a 0 0 r r 3 3 r B ..J.`.XX'.H.L q r t r r y L 6.H.H.@.L r 1 1 3 1 1 i p Z S J ~ :.>.2.2.,.:.:.} ' A N b N J } ,.2.4.4.8.8.6. .h s y y y s g K ) ) l d 8 8 6 6 6 6 s d l ) z l s 8 5 5 5 8 8 5 8 8 d @.Z.7. .} ' W W Q +.g.j.K.L.{.{.+X+XL.G.Z._ 8 9 9 9 r r r t t r r 0 7 7 ; ; ; ; ; ; ; ; ; ; ; ; < < < < ; ; ; ; ; ; ; ; ; ; ; ; ; ; ; ; ; ; ; ; ; ; ; ; ; ; = = = ; ; ; ; = = = = = = = = = = = = - - - & , , : : : , , : : : : : : : : : & & & & & & & & : : : : : : : : : : : : : & & & & & & & @ & & & & & @ @ @ & & & @ @ @ @ : : @ @ @ @ @ @ : : : : : @ & & & @ @ @ @ @ @ @ @ @ @ @ O @ @ @ @ @ @ @ @ @ @ @ @ @ @ @ @ @ @ @ @ @ @ @ @ @ @ @ & & & @ @ @ @ @ @ @ @ + @ O O O O @ @ @ O O O O O O O O O @ O O O @ O O O O O O O O O O + O O O O O O O @ @ @ @ O O O O O O O O O O O O O O X X . . # # x fXJXIXIXKXJXcXfXC.x k j j k k k k k k # # + # # # + # z w.C.w.x j . X X X X X X X X X X X X X X O @ & r B } 6.c.).)._._._.`.).c.,.U N p 0 7 7 9 6 = = = = = & @ # # # @ O O O O X X X O O O X @ : > < r i i i i i p p p p y r 9 9 9 9 y y y y y u y y ",
"a f f f h B L L P P P A B N P ] @...P i 1 2 1 1 1 1 1 1 1 1 1 1 1 1 1 1 1 1 1 1 1 1 1 1 1 1 1 1 1 1 1 1 1 1 1 0 b n Z S S Z m b e w i i p n B B B B B i r 1 1 1 1 1 1 1 1 1 1 1 1 1 1 1 ; ; 1 1 1 1 ; ; ; 1 1 1 1 1 1 1 1 1 ; ; ; ; ; ; ; ; ; ; ; ; ; ; ; ; ; ; ; ; ; 1 1 1 ; ; ; 1 1 1 1 0 1 ; ; ; 3 1 1 ; ; ; 1 1 1 ; ; ; 1 1 < < < < < < < 3 3 3 < < < 3 3 3 3 3 3 3 0 r L I a r 1 r i t r 3 3 t P e.J.J.7.L r r B L a r a ] J.`.`.7.B 0 1 0 3 3 1 0 i n Z H J :.4.c.s.4.,.:.} U S N b M S W :.2.4.4.4.4.4. .P B g f g C ( { { { ( h g g y y f h ) ) ` ` ` ` l s 8 6 6 5 8 8 9 r y P @.{ ' ' | >.g.h.c.m.).[.[.&X&X*X&XL.L.e.l 9 r r 9 9 r r r r r 9 9 9 ; ; < < < < < < < < ; ; ; ; < < ; ; - > - - ; - ; < ; ; ; ; ; ; ; ; ; ; ; ; ; ; ; ; > > ; ; - , , > ; = = = = = > > = = = = = = = = : : : : & & & & : : : : @ @ : : : : : : : : : : : : : : : : : : : : : : : : & & & & & & & & @ @ @ @ & & & @ @ & # : @ @ : @ @ @ # # @ @ @ : : : : : @ @ : : : : @ @ @ @ @ @ @ @ @ + @ + + + + + + + @ @ @ + + @ @ @ @ @ @ @ @ @ @ @ @ @ @ @ @ @ @ > $ # @ O O O O O O O + + O O O O O O O O O O O O O O O O O O O O O O O O O O O O O O O O O O O O O O O O O O O O O O O O O O O X X X . . . # x fXKXIXUXUXUXIXKXJXhXC.w.x x z k l z z z k 8 5 8 8 8 z P.kXmXcXfXC.k # X X X X X O O X X X X X X X X @ & < a P ,.8.c.H.).).).).c.8.:.' A p y r 9 9 > > = > > & : # @ @ + + + + X X X X O O X O @ : > < 0 0 i i e e p n n B B B B B B C C C C K K h g d ",
"B B B B L L L K P P A A N U e.`.'.J...a 1 2 1 1 2 1 1 1 1 1 1 1 1 1 1 1 1 1 1 1 1 1 1 1 1 1 1 1 1 1 1 1 1 1 1 0 b n Z S S S Z n n n B A D D A A B m a i 1 1 1 1 1 1 1 1 1 1 1 1 1 1 1 1 ; ; 1 1 1 1 ; ; ; 1 1 1 ; ; 1 1 1 1 ; ; ; ; ; ; ; ; ; ; ; ; ; ; ; ; ; ; ; ; ; 1 1 1 ; ; 1 1 1 1 1 1 ; ; 1 ; 3 1 1 1 ; ; 1 1 1 ; ; ; 1 1 < < < < < < < < 3 3 < < 3 3 3 3 3 3 3 ; ; 0 r t 0 1 1 t a i r 3 3 3 t K P I a r 0 a ] @.L p a ..L.`.J.] y 7 0 3 3 3 1 1 0 e n S ~ 2.c.c.c.4.,.} J H S S Z Z S E ^ >.,.2.2.2.,.| W D D A D T ( [ { [ T C C C h h ) ..#.Z.Z.G.F.Z.` l s 8 8 8 s d u y y f B B D | 4.N..XXX[.N.).XX XOX-X&X&XL.J._ y r r r 9 9 r r r r r 9 9 9 ; ; < < < < < < < < ; ; ; ; ; ; ; ; - , - < r < < < ; ; ; ; ; ; ; ; ; ; ; ; ; ; ; > > > ; ; ; > > , > = = = = = = > = = = = = = = = : : : : & & & & : : : : @ @ & & : : : : : : : : : : : : : : : : : : : : & & @ @ & & & & & & @ @ @ @ & & & & @ & : # @ @ # # $ j x x k k j > : : : : @ @ : : : : @ @ @ @ @ @ @ @ @ @ + + + + + + + + @ O @ @ + + @ @ @ @ @ @ @ @ @ @ @ @ @ @ @ @ j 0.w.k + O O O O O O O + + O O O O O O O O O O O O O O O O O O O O O O O O O O O O O O O O O O O O O O O O O O O O O O O O O O X X X X . . . # k C.hXKXIXUXUXUXUXUXPXJXhXhXfXC.0.l _ S.P.C.0.z k l l _ R.mXLXKXGXkXP.0.8 + + X O O O O O O X X X X X O O & - r B D } ,.5.6.6.7.6.,. .' D N p r 9 9 9 > = > > = : # @ @ + + + + X X X X O O X X O : , < r i n n n n b n n S J U ' ' {  . .O.@.@.{ { ( K ",
"C D P P P P P P D A A N A ,.H.J.r...P i 1 2 2 2 2 1 1 1 1 1 1 1 1 1 1 1 1 1 1 1 1 1 1 1 1 1 1 1 1 1 1 1 1 1 1 0 e n Z H G H H S D J ' ' ' U D A B a i 1 1 1 1 1 1 1 1 1 1 1 1 1 1 1 1 1 ; ; 1 1 1 1 1 1 1 1 1 1 ; ; 1 1 1 1 1 ; ; ; ; ; ; ; < < ; ; ; ; ; ; ; ; ; ; ; ; 1 1 1 ; 1 1 1 1 1 1 1 1 1 1 1 1 1 1 ; ; 3 3 3 1 ; 1 1 1 < < < < < < < < 3 < < < 3 3 3 3 3 3 3 r ; ; ; ; 1 1 1 r a r 3 3 3 3 3 0 r 0 r r 0 t L L a r t P 6.e.] a 0 0 3 r < 0 3 1 0 0 e Z ~ ,.c.c.c.2.| H Z Z S J S S S J W ! ^ >.>.>.>.| ^ ' W W Q Q [ [ [ W T T T T Y ( @.Z.F.L.{.+X+XL.Z.` l l l l _ ) l y y p y p B | c.[.OXOXOX.X)..XOXOX&X&X{.Z...u r r r r 9 9 r r r r 9 9 7 ; ; ; < < < < < < < < ; ; ; ; ; ; ; ; < > < a L t > ; ; ; ; ; ; ; ; ; ; ; ; ; ; ; ; > ; ; = = = = = = = = = = > > > = = = = = = = = = : : : : & & & & : : : : @ @ @ & : : : : : : : : : : : : : : : : & : @ @ @ @ @ @ @ @ & & & & & & & & & & & @ @ & # # @ # j x C.C.fXfXfXP.C.0.8 : & : : : @ @ @ @ @ @ @ @ @ @ @ @ @ + + + @ @ @ O + @ O O + + + + @ @ @ @ @ @ @ @ @ @ @ @ @ @ @ @ k P.gX0.+ @ O @ O O O + + + + O O O O O O O O O O O O O O O O O O O O O O O O O O O O O O O O O O O O O O O O O O O O O O O O O X X X X . . + # j k w.fXJXIXUXUXUXUXUXIXIXIXKXJXfX0.C.hXmXmXkXR.V._ K _ P.cXKXLXLXGXnX+Xq.s # @ @ @ O O O X X X X X X X O O @ & - 1 t a B L P ( ( P P P C f y r 9 9 > > > > > > # # @ @ + O + + X X X X X X X X O : , r a B A D S Z Z n n Z J } :.,.4.8.h.j.H.A.H.f.5.5.",
"' ' ' ' ] ' P D D A N N S }  ...U A i 2 1 1 1 1 1 1 1 1 2 1 1 1 1 1 1 1 1 1 1 1 1 1 1 1 1 1 1 1 1 1 1 1 1 1 1 0 i m A H J J J U ' ' } } ' U D A n i 3 1 1 1 1 1 1 1 1 1 1 1 1 1 1 1 1 1 ; 1 1 1 1 1 1 1 1 1 1 1 ; ; 1 1 1 1 1 ; ; ; ; ; ; < < ; ; ; ; ; ; ; ; ; ; ; ; ; 1 1 ; ; 1 1 1 1 1 1 1 1 1 1 1 1 3 1 1 1 3 3 3 1 1 1 1 1 3 < < < < ; ; ; 3 < < < 3 3 3 3 3 3 3 r 3 ; 1 1 r ; 1 1 r r 1 r 3 3 1 ; ; 1 3 3 0 r r r r 0 r t a a p 0 1 3 3 3 < < < 3 1 0 w n U ,.8.c.4.>.J Z Z S W | ~ W J J E ! ^ ^ *.>.>.| | >.>.>.>.o.| ^ ^ ^ Q [ [ | [ { 5.A.L.{.+X@X@X+XL.V._ ) _ q.Z.q.) f q q p e p D <.).XX&X-X&XXXXX{.XXXX`.7.K y r r r r r 9 r r r r 9 9 7 ; ; ; ; < < < < < < < < ; ; ; ; ; ; ; ; < < < g L t < > ; ; ; ; ; ; ; ; ; ; ; ; ; ; ; > ; = = = > > = 8 k 8 > = = > > > = = = = = = = = : : : : & & & & : : : : @ @ @ @ : : : : : : : : : : : : : : : : & @ @ @ @ @ @ @ @ & & & & & & & & & & & & @ @ & # # @ > 0.gXmXJXKXKXmXmXhXP._ t - & & : @ @ @ @ @ @ @ @ @ @ @ @ @ + + + @ @ @ O @ @ O O + + + + @ @ @ @ @ @ @ @ @ @ @ @ @ @ @ @ j 0.C.x # + O @ O O O + + + + + O O O O O O O O O O O O O O O O O O O O O O O O O O O O O O O O O O O O O O O O O O O O O O O O O O + + . + + # # j k w.fXJXKXIXUXUXUXUXUXUXUXIXJXfXR.mXKXLXKXmXjXP.q._ q.+XmXLXLXGXFXnX+Xq.l 9 ; = & @ O X X X X X X X o o o O O O & - - - < r y y y y a y r 9 9 9 > > > > > > # + @ @ + X + X X X X X X X X X O @ , r a K U } } } J H Z Z H ~ :.2.4.c.).).).).).).).K.",
"...... .{ ' D D A Z n A U } :. .U n 1 2 1 1 1 2 2 2 2 1 1 1 1 1 1 1 1 1 1 1 1 1 1 1 1 1 1 1 1 1 1 1 1 1 1 1 1 4 i m m H H H J ' ' ' ' ' J D A n i 1 1 1 1 1 1 1 1 1 1 1 1 1 1 1 1 1 1 1 ; ; 1 1 ; ; 1 1 1 ; ; ; 1 1 1 1 1 1 1 1 ; ; < < < ; ; ; ; ; ; ; ; ; ; ; 1 1 1 ; ; ; ; 1 1 ; 1 3 r r 3 3 1 1 1 1 3 3 1 1 ; ; ; 1 1 1 ; ; 3 3 < ; ; ; 1 1 ; < < < < < < < 1 1 1 3 1 1 1 1 1 ; 1 1 1 1 0 r r 1 ; ; < 3 3 3 3 3 1 1 1 0 0 0 0 r r r ; 3 3 3 < ; < 3 3 3 0 n J :.4.4.>.! H S S | 2.,.,.^ ~ ! E ! ! &.*.&.:.>.2.4.4.c.s.4.3.<.<.<.1.5.f.h.g.5.5.h.A.K.Y.+X%X@XR.G.#.` #.S.L.S._ y q q q q e e S 4.).XX-X-X&XXX[.).h.] B r 0 r r 9 9 r r r r r 9 < ; < ; ; ; ; < < < < < < < < ; ; ; ; ; ; ; ; > > > r t 9 > > ; ; ; ; ; ; ; ; ; ; ; ; - - - ; > > 8 z 0.x 0.0.C.w.0.l 8 > > , = = = = & & & & : : : : & & & & : : : : & & @ @ : : : : : : : : : : : : : : : : @ @ @ @ @ @ @ @ @ @ & & & & & & & & & & & & & & @ + @ j S.cXKXKXGXmXjX@X'.S.@.L r - - & @ @ @ @ @ @ @ @ @ @ @ @ @ @ + + + + O O O O + + O O O O @ @ @ O @ @ @ @ @ @ @ @ @ O @ > z C.fXP.0.k # O + + + + O O + + O O O O O O O O O O O O O O O O O O O O O O O O O O O O O O O O O O O O O O O O O O O O O O O O O + + + + + + # 8 j $ j x C.fXJXIXUXUXUXUXUXUXUXIXJXmXGXLXPXPXLXGXkX@XS.Z.J.gXFXGXGXFXFXvX+Xe.P g r 9 = @ O o X X X X X o o o o X X X O O O @ @ & = > > 9 9 ; ; > > > > > > > : # @ @ . X X X X X X X X X X X X X O & < u K ] :.,.,.,.:.~ ~ E ! >.2.z.c._._..XXXXXXXXXXX",
"6.6.,.@.{ ' D A N n n B U  .] U B 1 1 1 1 1 1 1 2 2 2 1 1 1 1 1 1 1 1 1 1 1 1 1 1 1 1 1 1 1 1 1 1 1 1 1 1 1 1 1 4 v m m Z H H J J J J D A N n i 1 1 1 1 1 1 1 1 1 1 1 1 1 1 1 1 1 1 1 1 ; ; 1 1 ; ; 1 1 1 ; ; ; 1 1 1 1 1 1 1 1 ; ; < < ; ; ; ; ; ; ; ; ; ; ; ; 1 1 1 1 ; ; ; 1 ; ; 1 1 1 1 1 ; 1 1 1 1 3 3 1 1 ; ; ; 1 1 1 3 < 3 3 < ; 1 r a a 3 < < < < < < < 1 1 1 1 1 1 1 1 1 1 ; 1 ; ; 0 r p r 1 < < 3 3 3 3 3 3 3 3 3 3 3 1 r 1 3 1 ; < < < ; < < 3 3 r i S } :.:.^ ^ ^ | o.5.c.c.s.2.*.! ! ! ^ &.*.:.>.2.4.c.c.!.N.m.c.c.c.c.N.K.).`.L.K.H.j.h.A.L.+X*X%X@XY.Z.#.#.S.L.S.) y q q q q w e b S | 4.j.K.K.H.7.] B p q r r 3 9 9 7 r r r r r 9 ; > > ; ; ; ; < < < < < < < < ; ; ; ; ; ; ; ; > > < < > > > ; ; ; ; ; ; ; ; ; ; ; ; ; - - - , j x w.fXhXhXgXkXmXcXhXP.0.t > > = = = = , - & & : : : : & & : : : : : : & & & @ : : : : : : : : : : : : : : : : & & @ @ & @ @ @ @ @ & & & & & @ & & & & & & & @ + @ > z q.jXGXFXvX+XJ.#.] U U U B t , & @ @ @ @ O @ @ @ @ @ @ @ @ @ + + + + O O O + + + O O O O @ @ @ @ @ @ @ @ @ @ @ @ @ @ : k S.kXGXmXgXq.k @ + + + + O O + + O O O O O O O O O O O O O O O O O O O O O O O O O O O O O O O O O O O O O O O O O O O O O O O @ + # + + + + + # 5 5 5 $ j k w.fXhXKXIXUXUXUXUXUXUXIXPXPXPXPXPXPXLXGXmXjX@X+X*XnXFXFXCXCXbX8X{.Z.{ C a 9 = @ O o X X X X o o X X X X X X X o O O O + @ # & & & & & : # # @ @ @ # @ X X X X X X X X X X X X X X X X X @ , 3 B U  .8.8.8.4.4.2.2.2.2.4.z.Q.!._..XXXXXXXOXOX",
"7.6.6.,.' ' D N n n p p B B a i 1 1 1 1 1 1 1 1 2 2 2 1 1 1 1 1 1 1 1 1 1 1 1 1 1 1 1 1 1 1 1 1 1 1 1 1 1 1 1 1 4 4 b m M Z Z S S Z Z N n i 0 1 1 1 1 1 1 1 1 1 1 1 1 1 1 1 1 1 1 1 1 1 ; 1 1 1 ; ; 1 1 1 1 1 1 1 1 ; ; 1 1 1 1 ; ; ; ; ; ; ; ; ; ; ; ; ; ; ; ; 1 1 ; ; ; ; 1 1 ; 1 1 1 ; ; ; ; 1 1 1 1 ; ; 1 1 1 ; 1 1 1 1 < < < < < ; 1 p B B r < < 3 < < < < 1 1 ; ; 1 1 1 1 1 1 1 1 ; 0 r a L a 0 3 1 ; 0 0 3 3 3 3 3 3 3 3 r 0 r r 1 1 0 7 ; > < < < 3 3 i n H ~ &.&.>.g.c.K.).).).c.4.>.*.^ &.*.*.>.2.2.4.c.m.).).).).).).).).{.{.XXXXXX{.{.).K.A.L.%X8X8X*X+XL.#.` #.S.q.) q q q q q w w e b N N V D ( P B w 0 0 r r r r r r 7 r r r r r ; ; < < ; ; ; ; < < < < < < < < ; ; ; ; ; ; ; ; ; - ; < > - - - ; ; ; ; ; ; - - ; ; ; ; - - - > 0.fXcXKXKXKXKXKXGXmXmXcXP._ k > = = = = , , - - : : : : & & : : : : : : & & @ @ : : : : : : : : : : : : : : : : : : : : & & @ @ @ & & & @ @ @ @ & & @ @ @ @ & & @ # k q.S.@XnXjX'.e.P n i i m L L I k > @ @ @ @ + @ @ @ @ @ @ @ @ @ @ + + + + O O O + + + O O O @ @ @ @ @ @ @ @ @ @ @ @ @ @ > I S.gXmXcX+Xe.I > @ + O O O O + + O O O O O O O O O O O O O O O O O O O O O O O O O O O O O O O O O O O O O O O O O O O O O O O # t l k 8 + + + + # # j j j j k w.fXJXIXUXUXUXUXUXUXUXIXIXIXPXPXPXLXLXGXmXvXuXuXbXnXnXnXbXbXuX&X{.A.@.K y 9 = @ O O O X o X X X X X X X X X X X X X X X X O O @ @ + + + + + + + + X X X X X X X X X   . .         X X X O , r B ' ,.8.c.!.!.c.c.z.z.z.c.!.!._..X.XXXXXOXOX",
"7.6.,. .' D D N p i i i 3 3 3 3 1 1 1 1 1 1 1 1 2 2 2 1 1 1 1 1 1 1 1 1 1 1 1 1 1 1 1 1 1 1 1 1 1 1 1 1 1 1 1 1 2 2 v v b b b b n b e e w 0 1 1 1 1 1 1 1 1 1 1 1 1 1 1 1 1 1 1 1 1 1 1 1 1 1 1 1 1 1 1 1 1 1 1 1 1 ; ; ; ; 1 1 ; ; ; ; ; ; ; ; ; ; ; ; ; ; ; ; 1 1 ; ; ; ; 1 1 ; 1 1 1 ; ; ; ; 1 1 1 ; ; ; ; ; 1 1 1 1 1 1 < 3 < < < ; r p a p 3 < 3 3 < < < < 1 1 1 ; ; 1 1 1 1 1 1 1 ; r t L P p 0 0 1 ; 1 0 3 3 3 3 3 3 3 3 1 r a t 0 1 0 7 7 ; < < < < 3 r b S J &.>.s.).[.XXXXXX_.!.c.2.*.&.&.>.>.2.4.4.s.m.).)..X.X[.[.).[.{.XX&X&X&X&X&X&X{.).K.{.*XjXjX*X@XG.#.h ) .._ h q q q q q w w e e e e e e q q 0 1 1 r r r r r < < 7 r r r r r ; ; ; < ; ; ; ; < < < < < < < < ; ; ; ; ; ; ; ; ; - - ; - - - - ; ; ; ; - - - - ; ; ; ; - - - 8 w.mXKXPXPXKXKXKXmXkXhXgXS.q.0.u = = = = , , , , : : : : & : : : : : : : : : @ @ : : : : : : : : : : : : : : : : : : : : : : @ @ & & & & @ @ @ @ & & @ @ @ & & & @ @ k e.S.J.*X'.e.U m i 4 4 i m L ] _ 8 @ @ @ @ + @ @ @ @ @ @ @ O O @ @ + + @ O O O + + + O O O @ @ @ @ @ @ O O @ @ @ @ & @ > _ S.G.P.P.q.] L 9 @ O O O O O + + O O O O O O O O O O O O O O O O O O O O O O O O O O O O O O O O O O O O O O O O O O O O O O O > z 0.0.l > + + + # # 5 j j k x C.cXKXIXUXUXUXUXUXUXUXUXUXIXPXPXPXPXLXLXGXCXNXbXvXbXbXbXbXbXuXuX&XXXH.O.C y 9 & @ O O X X X X     X X X X X X X X X   X X o o o o O X X X X X X X X X X X X X X X   . . .           X X X @ = r N ~ 2.c.!.!.!.!.!.Q.!.!.!.!._._..X.XXXXXOX"
};
