/* XPM */
static char *c2abe794f96a4ac1f1454f9ae9529ff7AFe29Tz5JHPNmpsp[] = {
/* columns rows colors chars-per-pixel */
"64 64 256 2 ",
"   c #060008",
".  c #0F0211",
"X  c #180215",
"o  c #2A0B18",
"O  c #14102E",
"+  c #331326",
"@  c #32252E",
"#  c #4F1727",
"$  c #531525",
"%  c #472C2C",
"&  c #6B2734",
"*  c #6D4C3B",
"=  c #091651",
"-  c #081B56",
";  c #092A57",
":  c #162758",
">  c #282A4A",
",  c #061870",
"<  c #0E2C6F",
"1  c #0A3576",
"2  c #28376A",
"3  c #553B44",
"4  c #114D7B",
"5  c #314F7D",
"6  c #6F544D",
"7  c #625D6B",
"8  c #842A3A",
"9  c #8F4F3C",
"0  c #8F534F",
"q  c #876856",
"w  c #B06267",
"e  c #C66364",
"r  c #CD886D",
"t  c #051B92",
"y  c #0F318C",
"u  c #043A97",
"i  c #1E3497",
"p  c #0E36AC",
"a  c #184686",
"s  c #07489A",
"d  c #1A4897",
"f  c #0F5293",
"g  c #2E508C",
"h  c #385799",
"j  c #106499",
"k  c #396995",
"l  c #0649A9",
"z  c #1548A9",
"x  c #0755AB",
"c  c #1755A8",
"v  c #054BB7",
"b  c #1349B6",
"n  c #0456B9",
"m  c #1759B7",
"M  c #2857A8",
"N  c #3055B0",
"B  c #0665B8",
"V  c #1168B1",
"C  c #306EAE",
"Z  c #2768B8",
"A  c #3766B8",
"S  c #475592",
"D  c #6A5E8E",
"F  c #4C6694",
"G  c #6B7094",
"H  c #4758AD",
"J  c #4867AA",
"K  c #4E6DB2",
"L  c #5677B9",
"P  c #6B78B0",
"I  c #0D36CE",
"U  c #0254C4",
"Y  c #025BC4",
"T  c #0C50CA",
"R  c #0857C8",
"E  c #025CCB",
"W  c #185AC9",
"Q  c #065BD5",
"!  c #265AC9",
"~  c #0466CA",
"^  c #1767C7",
"/  c #0676CA",
"(  c #1872CA",
")  c #0264D4",
"_  c #026CD4",
"`  c #0966D9",
"'  c #036CDC",
"]  c #1866D7",
"[  c #0576D5",
"{  c #0274DB",
"}  c #027CDC",
"|  c #1678D9",
" . c #2969C7",
".. c #3667C4",
"X. c #3373CD",
"o. c #2768D6",
"O. c #2677D9",
"+. c #3879D8",
"@. c #066BE3",
"#. c #0274E4",
"$. c #037BE3",
"%. c #0877E8",
"&. c #027CEC",
"*. c #1271EE",
"=. c #1877E9",
"-. c #2D6FE8",
";. c #2579E6",
":. c #3579E6",
">. c #4B72CB",
",. c #4678D5",
"<. c #577BD6",
"1. c #7477D4",
"2. c #4B75ED",
"3. c #637AE5",
"4. c #9D7A92",
"5. c #EC7D84",
"6. c #887DD1",
"7. c #1686BE",
"8. c #2E89B9",
"9. c #4D8DB8",
"0. c #7388B4",
"q. c #76A8BE",
"w. c #1089CC",
"e. c #0787D9",
"r. c #178AD8",
"t. c #1994DB",
"y. c #318CCE",
"u. c #3797C7",
"i. c #2788D8",
"p. c #2796D8",
"a. c #3899D8",
"s. c #32AFDD",
"d. c #38A9D8",
"f. c #0787E6",
"g. c #0284EC",
"h. c #048CEC",
"j. c #1787E6",
"k. c #0995EA",
"l. c #169AE9",
"z. c #0685F3",
"x. c #038CF3",
"c. c #1688F7",
"v. c #0394F4",
"b. c #0B95F4",
"n. c #049BF4",
"m. c #0C9CF4",
"M. c #1599F4",
"N. c #2988EA",
"B. c #3789EA",
"V. c #2798E8",
"C. c #3796EA",
"Z. c #2D8AF5",
"A. c #2898F5",
"S. c #3899F6",
"D. c #1BA3EB",
"F. c #0DA2F5",
"G. c #0AA6F8",
"H. c #14A4F4",
"J. c #1BA4F3",
"K. c #17ABF8",
"L. c #1DB5FB",
"P. c #26A5E9",
"I. c #36A7E9",
"U. c #37B3E8",
"Y. c #23ACF4",
"T. c #29A9F5",
"R. c #37A6F7",
"E. c #29B6F9",
"W. c #37B7F7",
"Q. c #499AC6",
"!. c #5090CF",
"~. c #4987DB",
"^. c #6D90D0",
"/. c #51A9CE",
"(. c #47AAD7",
"). c #56A8D6",
"_. c #6DABD0",
"`. c #4D91E8",
"'. c #4698F4",
"]. c #6D92E9",
"[. c #769AE6",
"{. c #47A7E9",
"}. c #58AAE9",
"|. c #48B4EA",
" X c #56B6EB",
".X c #48A8F7",
"XX c #55A8F7",
"oX c #46B9F5",
"OX c #57B8F7",
"+X c #68A7E6",
"@X c #70AEEB",
"#X c #67B8F7",
"$X c #77BAF6",
"%X c #38C4FC",
"&X c #4AC6FB",
"*X c #59C7FA",
"=X c #5BD2FB",
"-X c #70C3E7",
";X c #67C7F8",
":X c #77C7F8",
">X c #69D3FC",
",X c #79D5FB",
"<X c #7AE0FC",
"1X c #A18D98",
"2X c #AAA6B8",
"3X c #DC9492",
"4X c #E8AA9C",
"5X c #F39DA3",
"6X c #D2AAB4",
"7X c #EEB0AD",
"8X c #F1CBB9",
"9X c #8993CB",
"0X c #92ADCE",
"qX c #8AA8D7",
"wX c #87B7D6",
"eX c #98B5D9",
"rX c #B1B5D4",
"tX c #8E99E6",
"yX c #86A7E7",
"uX c #92B2EB",
"iX c #ADAEE8",
"pX c #A9B7E4",
"aX c #CCB4CD",
"sX c #C8B2DC",
"dX c #93C4D9",
"fX c #A6C1DB",
"gX c #B5C7DB",
"hX c #92CAEF",
"jX c #88CAF9",
"kX c #87D7FB",
"lX c #98D9FB",
"zX c #B6C5E6",
"xX c #B0CFEE",
"cX c #A7DAF9",
"vX c #9BE1FD",
"bX c #A4E2FC",
"nX c #ABE3FC",
"mX c #B8E6FC",
"MX c #CECCDB",
"NX c #F0CECA",
"BX c #FAEAD8",
"VX c #C8CBE4",
"CX c #C9D5E8",
"ZX c #D9D8E5",
"AX c #D4D3EB",
"SX c #E6DBE5",
"DX c #E6D6E9",
"FX c #C7EBFD",
"GX c #D2ECFB",
"HX c #CFF0FC",
"JX c #DAF3FD",
"KX c #EAE4EA",
"LX c #F6E8EA",
"PX c #F5F1EE",
"IX c #E8F7FD",
"UX c #F6FAFB",
/* pixels */
"!.{.C.}.xXhXhXcXcXmXGXIXIXIXUXUXUXUXUXUXUXIXUXIXIXIXIXIXJXJXJXIXIXGXFXGXJXmXlXjXjXjXlXlXcX#X.XcXyX+X{.`.@X`.`.~.| +Xi.O. . .n B ",
"a.{.{.I.}.#X:XjXmXFXFXGXFXJXIXUXUXUXUXIXIXIXIXIXJXGXIXIXIXJXGXFXmXFXcXlXjXjXlXlXcXcX:X#X.XOX$X$XuX@X{.+X}.{.i.[ ~.X.~.y.O.^ n n ",
"/ r.I. X X#XhXcXlXmXmXmXFXGXIXIXUXIXIXJXIXIXIXJXHXFXmXFXFXGXFXGXFXcXcXlXlXcX:XjXlXjX#X#XOX$X X X#X{.}.`.r.i.i.+X+Xi.(  .n v n B ",
"i.p.l.I.|.#X:XjXnXcXcXmXGXJXJXIXIXIXJXHXHXHXHXFXGXHXnXbXnXFXFXnXnXlXkX:XlXlXlXjX;XOX;X;X:X#XW.I.P.l.V.j.j.r.r.t.[ | !.^ n n v x ",
"p.d.{. X#X#X;X:XjXcXnXmXFXHXHXJXGXJXJXGXHXFXHXmXnXlXlXkXkXlXlXlXlXkXlXnXlXkX&X*XOX;X;X;X;XOX XI.V.V.C.l.}.}.t.| _ / Y Y Y n n v ",
"i.a.{. X X;X;X:XjXjXlXmXmXmXFXFXFXFXHXFXmXmXnXmXbXkX,X>X,X,XkXkXkXkXkXjX,X;X*X*X;X:XOXOX|.I.V.l.m.I.I.C.C.N.a.y.[ _ E Y Y n n B ",
"r.t.V.I.{. X;XjXkXlXnXmXnXnXmXcXnXmXmXFXnXnXnXnXbXlXkXkXkX>X=X;X,X,X,XkX,X:X;X*X;XoXW.W.T.T.P.l.k.l.l.}.}.+Xt.} e.{ [ _ [ / ~ n ",
"r.t.p.I.I.|. XOX:XlXlXlXbXnXFXnXnXnXnXmXnXlXkXvXbXvXlX,X>X=X>X>X,X*X;X>X>X>X,X;XoXW.Y.Y.J.J.H.Y.W.oXP.I.V.k.f.h.} { { _ / ~ Y ~ ",
"r.r.r.k.D.T.U.;XkXkXkXlXlXlXnXlXlXlXlXnXnXkX,X,XkXkXkXkX,X>X=X=X&X&X&X*X*X=X*X*X&XoXE.W.T.Y.H.H.F.H.m.m.k.f.f.f.j.{ e.[ _ ~ n n ",
"w.r.l.l.D.T.oX;X;X;X>XkXkXkXlXkXkXkXkXkXvXkX,XkXkXlXlXkXkX>X&X&X&X&X%X%X&X&X&XoXoXW.W.T.H.H.H.m.F.m.m.k.h.f.f.f.$.{ { _ ~ E n n ",
"/ } e.k.l.I.oX*X&X*X,X,X>XkX,X,X,X,X,XkXcXxXiXtXtXtXiXtX].yXuXjX,X%X%XW.E.W.W.oXW.W.W.Y.H.H.K.m.m.m.m.k.h.j.h.N.j.$.} { { ~ Y n ",
"/ [ e.k.P.U.oXoX&X=X,XkXuX[.^.!.@X>XcXxXiXiXsXVXiXtX1.1.1.1.3.2.2.@X:X&XE.E.E.E.W.W.E.Y.H.m.b.#Xm.b.k.C.C.h.h.j.$.$.} { _ ~ Y U ",
"~ / e.k.P.U.W.W.oX;X,XCXxX:XN.R t !.rXaXDXLXZXiXiXiXiXiXuXyXtX[.].~.-.[.:X&XE.E.E.E.E.L.K.G.m.b.k.k.h.l.j.h.z.j.$.{ _ ) ~ Y n n ",
"~ / e.l.P.P.Y.T.W.*XxX1X1X2X0.m u t z ^.rXrXtXpXAXDXVXuXyXyX].^.<.<.<.+.-.+X:XW.L.E.L.K.K.H.m.M.R.b.b.C.C.g.B.B.$.{ ' ) ~ Y n v ",
"~ } f.l.D.D.P.Y.oXoX@X6 6 * 6 k c l p p K F K !.[.pXVXpXuXyX].].<.>.>.K >.o.:.$X*XL.L.K.K.H.F.F.m.b.b.b.A.'.'.b.j.$.} _ _ E n v ",
"/ e.f.k.k.l.H.T.W.W.OX7 % + * 7 4 f l m A N K 0.0.^.[.pXzXpXuX].].<.>.H ..! ] ] '.;XK.K.K.G.G.K.m.m.J.m.b.S.R.h.b.g.$.{ _ ) Y U ",
"/ e.e.f.k.k.l.T.W.E.W.).6 # # 6 6 5 f u M m ! ,.qX0X^.[.yXuXpXpXyX^.>.......! W ] ;.#XT.G.G.K.F.m.M.m.M.m..XXXb.N.f.f.{ ' _ ) Y ",
"} e.e.f.k.m.J.Y.T.Y.E.W.0.0 # # % q 7 g s s T Q +.@XeXqXyX[.yXuXpXeX].<.>...o.! T Q =.XXR.G.m.T.m.m.S.M.M.b.b.C.f.f.$.{ ' ) Y U ",
"} } } f.f.k.P.P.Y.Y.E.W.oXG * + + o 6 q 7 h m ~ ' O.+XpX0XeX[.[.yXrXpX[.~.+.o.W ! ] :.*.#X.Xn.J.m.m.+Xb..X.XXXZ.j.f.O.` ` E U v ",
"[ [ } f.f.l.D.J.H.K.T.W.W.|.7 9 # + o @ q q F C R ^ N.@XuXqXpXqX^.[.pXpXuX[.+.o.! ..o.2.*.$XR.m..XT.A.M.$XA.S.f.&.%.;.` ) E U v ",
"_ [ e.f.f.l.H.H.H.K.T.W.W.E.|.7 0 # # X X 6 q 6 F X.| C.+XyXqXpX9X^.qXpXVXVXrX~...A >.].2.c.$XXX#XM.M.S.A.$X.XN.j.#.| ` E U U v ",
"[ } f.f.k.l.m.m.F.H.Y.T.W.E.W.|.7 9 $ $ X X @ 6 6 6 k !.`.yXeXqXqX^.^.9XMXeX9XqX^.H A ,.].2.Z.uX.XJ.#XXXjX$Xc.f.B.=.@.' ) E U U ",
"[ } e.f.k.m.m.m.F.K.Y.Y.Y.L.E.E.).% 9 + o X X X @ * * % F ^.eXeX0XqXP K G G S K ^.L S .. .:.*..X#XY.R.R.#X$XA.Z.;.%.=.` ) Q U U ",
"_ [ } f.h.k.m.n.G.H.K.K.K.K.K.L.#X> . X X X X .       o o O 7 0.eXeX^.F 2 3 + 1 h ~.h H A O.*.&.#XkX;XOXR.#X#XXXN.;.@.+.Q Q U v ",
"_ [ } f.h.k.k.n.F..XK.K.K.G.G.K.W.D # X X X .             # + O G rXeXK 5 . o - 1 ,.J h K ~.;.c.S.jX@XuXyX@XjX.XA.c.=.O.` ] U U ",
"_ { } f.f.h.v.n.T.F.K.T.T.G.G.K.K.6X0 + X o     . X X     8 4.aXZXgXVX^.h g 2 S y c K h J ^.].c.Z.XX].I I I I ,.`.C.`.` ] o.U U ",
"_ { } f.f.h.v.v.n.F.F.K.T.G.G.Y.uX6X& & X + & $ & & +   % 6XLXLXPXPXKXzX^.M d h 1 y H J C <.].].&.c.uX2.I p p t t ^ N.' ` ] U v ",
"_ { } f.f.h.h.v.n.G.G.F.H.F.T.K.AX3X0 & 0 e w w e w 0 q NXLXPXLXLXPXPXZXzX^.A d h d d J J  .+.].Z.*.R.+XI t t i , < m %.' ] R U ",
"_ { } $.g.g.h.v.n.n.n.m.n.n.G.#XNXr & 1X7X5.3X7X5.w 3XNXLXKXKXLXPXLXPXPXZXpX^.A F h c M z ..( B.].Z.M.#X>.y , , t , , | | ) E U ",
"_ { { $.g.g.h.v.n.n.n.n.n.G.R.ZX4X9 6 5X5X5X7X5X6X7XNXKXCXKXLXPXLXLXLXLXKXVX0XL K J M M l A ..j.'.S.A.oX^.t y , y i i { #.] ] U ",
"_ _ { $.$.g.h.h.v.v.v.n.n.m.CX8Xr $ e 5X5X7X5X8X8XLXDXxXCXKXKXLXLXSXSXKXKXZX0X0.K K J M v c Z i.*.'.'.S.#XM t u m B.S.&.%.@.) R ",
"_ _ { #.$.g.h.h.x.x.b.n.R.CXNXe 8 # e 7XNX8X4XNXSXxXuXzXCXZXKXSXKXSXSXSXSXSXrX^.K K K J z l c i.*.c.S.C.XXX.z c R.R.XX@Xc.#.| _ ",
"_ ' { #.$.g.g.h.x.'..XhXPX8Xw & & e 3X8X7X6XaXgX+X+XeXCXCXAXZXSXZXCXZXZXAXZXZX0XK A L K c c v X.j.z..XC.S.}.p !.:XOX#X.X&.N.' ] ",
"_ ' { #.$.$.g.g.A.xXPXBX4X1Xw 1X4X8X8X7XaX0X^.!.).wXgXCXCXZXZXZXzXgXzXVXgXZXSXrXP J K J M M l m B.z.[.@XB.S.A C.OX:X:XXXS.&.' ` ",
") ) ' { #.$.&.g.uXPXPXPXBXNXNXNXNX6XrX9XK Z / p.{.hXxXxXCXCXVXfXfXfXVXVXMXKXSXMX0.L J K C M x l Z V.`.pX~.N.~.R..XOXOXZ.'.@.' ) ",
") ) ) ' #.$.&.g.yXNX8XNXMX2X9XJ J g a u l ( a.}. X-X XdXfXeXwXwXwXVXSXSXKXKXSXMX9XL K K A Z m l x | z.[.,.j.XXXXXX$X#XS.Z.;.` E ",
"E ) ) ' #.#.&.&.N.2Xw 1XG g 4 y u s l l n ~ / p.a.d.(.).).).).).fXSXKXKXKXKXSXMX0XL L K A Z V l z n &.,.!.| S.XXR.#XOXXX'.%.` ] ",
"E E ' ' #.#.&.&.g.N.a ; ; 1 u u x x B w.w.w.w.d.d.d.d.p.p.p.y.0XKXLXKXSXKXSXDXVX9X^.L A C C V c z c Q R Z  .=.XX;X.XA.#X'.=.` Q ",
"E E ) ' @.#.&.g.g.g.f./ Z C Z y.a.{.+X_.dX_._./././.Q.u.a.y.qXZXLXLXSXMXZXDXZXzX0X^.9.C C C M c l x l R c ^.=.XX:X#XA.XXXX=.-.Q ",
"U E ) ) @.=.&.g.g.g.z.x.x.x.v.v.b.v.n.$XKXdX0Xq.9.9.9.9.Q.qXrXZXZXVXeXzXLXDXAXzXqX0.J M M M M c c n s ) n L ` Z..X#X:XR.S.B.@.Q ",
"U E ) ) ' @.#.&.&.g.g.g.g.x.x.x.x.v.v.v.KXzX(.9.8.9.9.9.^.0XeXrXeX+XeXLXSXSXAXrX9XP h g d d M c Z m s ^ n A b | '.#XjX#XOX'.@.Q ",
"U U E ` ` ' #.#.&.&.g.g.g.g.x.x.x.x.M.A.GXKXeXQ.u.y.u.Q.!._._.).).fXLXLXSXCXrX0.P G d y 1 1 d M m n c ..>.l z m B.:XOX#XR.XX=.o.",
"U U E E ) ' ' #.#.&.&.j.c.g.z.c.b.A.b..XAXPXZX_.Q.u.u.a.p.p.p.!.MXPXPXLXZXgX9X2X0.h p d a 2 4 d x A c M m m z >.;.#XjXXXS.c.;.` ",
"n U E E ) ' ` #.#.&.%.&.&.c.z.c.M.b.+XrX0XZXZXgX/.Q.u.y.Q.Q._._.ZXLXKXSXZX0X2XrX0X| T p 1 = a d M x N b v Z c m o.S.#XXX.XS.=.o.",
"v n Y E ) ) ) @.#.#.#.&.&.z.g.c.z.[.9XM x wXZXCX).Q.Q.u././._.wXMXMXgXMXgX_.0.S 6X[.*.I u , y d z s N z Z x b z X.N..XXXZ.B.;.o.",
"v v U E ) ) ` ' @.#.#.&.&.&.z.b.[.G < , 1 9.wXCXdXd.d.d.d.(.)._.gXgXwXrXwX_.g c D aXC.=.-.v 1 h ..l p N z z l L T @.S.XX$XZ.` Q ",
"v v n U E E ` ) | @.#.&.&.&.z.[.D - = : 1 g /.wXdX_.s.s.d.(.).).wXwX0XqX_.9.5 s y 4.sXB.:.-.o.d A m Z L K N N z b Q c.S.#XB.Q T ",
"l v v n Y E ) ' ' @.#.#.%.&.`.D : : > - 1 < k /.). X|.U.s.s.(./.)._._./.Q.9.C ; y 1 aXaX6.<.-.[.9X<. .N M N z u p Q *.Z.S.Z.@.! ",
"l l n Y ~ ) ) ) ` ' #.#.#.#.P = = O > : : : = _.wX_.-X|.|.U.s.(.(.(./.!._.9.C 1 - a F NX9X>.o.<.tX[.^.A M ^.c N p T @.Z.c.*.O.o.",
"l v n n Y Y E ) ) ' ' ' #.>.: : 2 > O : : ; : 5 _.gXdX-XU.U.s.s.s.(./.0XeX_.C j < ; f 2XaX+. .W >.].]...eX^.c A d v Q *.S.B.T W ",
"l l v n n n Y E ) _ ' ' { h = = 2 : < , - 2 f j..XhXxXdX XU.s.s.d.(./._._._.8.j f 1 1 S NX1.b m p Q -.`.+.[.>.N z z ! Q '.;.W b ",
"s l l v n n Y E ) _ _ ' O.- - = < < , < < ( b.M.m.XXxXxXhX Xs.d.d.(.(./.Q.Q.9.C j f 4 f 1X6XH p b i ! +.`.y.+.>.m b v Q :.] ] v ",
"u s l l v n n ~ _ [ _ { ^ : : < , , 5 Z z.M.b.x.b.M.XXcXhX-XU.s.s.d.u.u.u.u.8.C j j f g F 4.P i p p p ] o.B.~.~. .A ..W @.:.o.p ",
"u s x n ~ [ [ } e.f.f.f./ 2 2 < 5 V V.b.M.M.x.x.x.x.A.R.hXhX XU.U.s.d.y.u.8.7.8.V V x j j a G H i p p N T ^.'.:.X.b u v ] @.] W ",
"s x x B n n n ~ _ [ } f.k.1 1 a (.H.H.F.J.A.n.M.b.v.x.b.R.:XhX;XoXU.P.p.p.p.y.w.7.V V V f C g J S g p y p p O.`.:.W Z  .o.] ;.o.",
"B B x x n B ~ _ [ } f.k.H.t.w.l.Y.J.J.H.T.m.m.v.v.v.A.v.A.A..XjX:X;XU.P.p.t.p.w.r./ x V x M c k S S y i t p d ~.+.~. .m ~.~.=.O.",
"/ / w.w.e.e.e.e.k.k.k.k.k.l.H.F.J.J.M.M.J.m.F.m.n.v.h.v.M.b.J.T.#X:X*X|.U.P.p.t.r.w./ B V Z V V d F g y t t < Z ^ ..~.W R o.;.B.",
"B / w.e.e.e.t.D.D.D.D.P.l.P.J.Y.K.T.Y.T.F.H.F.F.H.E.E.L.L.E.E.K.K.oX:XoXW.W.J.l.r.w.w./ Z V x Z X.c a < , , < a ] B.O.X.+.] =.;.",
"B B B / w.t.P.U.P.P.P.P.Y.W.W.W.E.W.E.Y.M.H.E.L.K.E.%X%XE.W.%XE.T.T.oXoXOXoXY.M.V.r.t.e./ X.B m x ,.f y ; = , , O.O.B.X.Z ,.B.B.",
"B / w.p.d.p.P.P.P.I.U.|.oXW.E.T.W.W.oXoXoXE.%X%X&X*X=X&X&XW.W.%X%XE.E.W.E.oXOXR.C.C.j.j.e.e.i.| B A ^ m 2 2 2 y  .B.`.,.X. .+XN.",
"B B B / / w.p.I.|.|.|.I.U.U.oXoXoX;X,X,X,X>X=X=X>X=X=X>X<X,X=X&XE.Y.J.T.Y.T..XOXOX.XA.j.e./ O.( (  .n ^ n y 2 2 M ( ^ Z ^  .^ ;.",
"B B B B / p.p.t.p.r.r.t.V.V.P.|.*X:X,X>X,X;X*X*X;X=X*X&X&X>X&XW.W.W.W.W.T.T.T.R.A.R.T.M.b.h.i.| ( ~ ~ ~  .^ x a s n ^ m X.m o.B.",
"V B w.w.a.a.i.w.r.t.t.p.I. X*X XOXOX|.oXOX|.oXoX*X>X<X,X,X;XoXW.W.T.D.D.P.i.r.j.l..XA.R.{.l.z.f.} _ ^ ~ m Z v c v v W x m  .o.=.",
"y.u./.Q.u.y.a.a.p.y.a.V.I.|. X|. X X|.I.I.I.I.I.I.OX*X;X;XoXW.Y.D.l.l.l.l.P.f.j.f.f.j.B.C.j.N.g.%.| ~ n x l m l v u n v s m R ;."
};
