/* XPM */
static char *_018982f2fe148f9f9f55f118108dfa1WkuIUyyPKbkMFCtP[] = {
/* columns rows colors chars-per-pixel */
"114 64 256 2 ",
"   c #233E41",
".  c #174C53",
"X  c #17555D",
"o  c #2B4849",
"O  c #304E50",
"+  c #265858",
"@  c #375857",
"#  c #2D615E",
"$  c #34635D",
"%  c #0E506D",
"&  c #1B5C64",
"*  c #155B68",
"=  c #2F5663",
"-  c #245D63",
";  c #196169",
":  c #1B636C",
">  c #186675",
",  c #1B6975",
"<  c #156A7C",
"1  c #1B6C7A",
"2  c #286667",
"3  c #336562",
"4  c #386A67",
"5  c #37716D",
"6  c #246D74",
"7  c #2A7478",
"8  c #387878",
"9  c #415E5B",
"0  c #46655C",
"q  c #446562",
"w  c #4B6A65",
"e  c #486B67",
"r  c #526C66",
"t  c #49736B",
"y  c #53736C",
"u  c #58786B",
"i  c #476E71",
"p  c #487A76",
"a  c #557974",
"s  c #5B7C74",
"d  c #627C72",
"f  c #3E827F",
"g  c #49827C",
"h  c #59857A",
"j  c #66877B",
"k  c #74907E",
"l  c #0F5B91",
"z  c #1A5E9D",
"x  c #0F6A8E",
"c  c #187286",
"v  c #167B9A",
"b  c #287A82",
"n  c #2F7B89",
"m  c #0A69A9",
"M  c #1778A8",
"N  c #116DB7",
"B  c #0C77B9",
"V  c #1578B8",
"C  c #417D83",
"Z  c #106DCA",
"A  c #0D7CC4",
"S  c #0D76C9",
"D  c #147AC8",
"F  c #0C79D5",
"G  c #0C76DB",
"H  c #0D7CDB",
"J  c #1379D8",
"K  c #257BC7",
"L  c #0C76E4",
"P  c #0D7AE4",
"I  c #0D75EA",
"U  c #0E7AEA",
"Y  c #127AE5",
"T  c #117CEC",
"R  c #0F77F5",
"E  c #1076F3",
"W  c #117BF4",
"Q  c #1177FD",
"!  c #147CFD",
"~  c #1C7EFF",
"^  c #207EFF",
"/  c #3A8586",
"(  c #318D92",
")  c #158CB3",
"_  c #1A89BA",
"`  c #2B93B4",
"'  c #2EA8B6",
"]  c #468A87",
"[  c #598885",
"{  c #59918A",
"}  c #4D9190",
"|  c #489597",
" . c #599996",
".. c #658B83",
"X. c #748F87",
"o. c #699588",
"O. c #769888",
"+. c #689C97",
"@. c #779B93",
"#. c #5AA29E",
"$. c #7FA38D",
"%. c #66A49C",
"&. c #78A496",
"*. c #509AAC",
"=. c #699DAA",
"-. c #5AA7A7",
";. c #52ABB3",
":. c #67AAA7",
">. c #75ACA6",
",. c #79B4AC",
"<. c #6FB3B2",
"1. c #68B6B6",
"2. c #77C6B5",
"3. c #0D85C9",
"4. c #1788C7",
"5. c #1384CD",
"6. c #1797C9",
"7. c #0E87D6",
"8. c #0D84DB",
"9. c #1383D4",
"0. c #138BD4",
"q. c #1484DC",
"w. c #138BDB",
"e. c #1B89D9",
"r. c #0E90D1",
"t. c #1798DA",
"y. c #248AC7",
"u. c #2497CA",
"i. c #288CD5",
"p. c #2397D7",
"a. c #19A3D6",
"s. c #1DA9D3",
"d. c #1CA5DB",
"f. c #1CAADD",
"g. c #25A5C8",
"h. c #2BB3CA",
"j. c #39B6C7",
"k. c #23A9D9",
"l. c #27B7DB",
"z. c #37B3D4",
"x. c #0E82E4",
"c. c #0E86E9",
"v. c #1484E4",
"b. c #138BE4",
"n. c #1A8BE5",
"m. c #1485EB",
"M. c #1A86E8",
"N. c #138BEB",
"B. c #1B8BEC",
"V. c #1493E4",
"C. c #159BE4",
"Z. c #1A9BE4",
"A. c #1594EB",
"S. c #1A97EA",
"D. c #169CEC",
"F. c #1583F3",
"G. c #1789F7",
"H. c #1B8CF3",
"J. c #1682FD",
"K. c #1C83FE",
"L. c #1C8CFD",
"P. c #1B93F4",
"I. c #1A9AF4",
"U. c #199AF6",
"Y. c #1D93FC",
"T. c #228BE5",
"R. c #2497E8",
"E. c #399CEC",
"W. c #218DF6",
"Q. c #2185FF",
"!. c #238CFE",
"~. c #2597F4",
"^. c #2394FE",
"/. c #2995FE",
"(. c #259AFE",
"). c #2B9CFE",
"_. c #3B9DF6",
"`. c #319EFE",
"'. c #17A6E6",
"]. c #1BA5E3",
"[. c #1CACE4",
"{. c #16A3EC",
"}. c #19A4EC",
"|. c #1BACEC",
" X c #1EB2E4",
".X c #1EB2EB",
"XX c #1BA4F3",
"oX c #1DABF3",
"OX c #1DA8F8",
"+X c #1FB3F3",
"@X c #22ACE4",
"#X c #24A7E8",
"$X c #23B4E4",
"%X c #25BCE4",
"&X c #2ABAE4",
"*X c #22B3EB",
"=X c #24BBE9",
"-X c #22A7F6",
";X c #2EA1FE",
":X c #37A3F6",
">X c #3EACF5",
",X c #33A3FE",
"<X c #3AA5FD",
"1X c #36A9FE",
"2X c #3CACFE",
"3X c #22B3F4",
"4X c #24B6F7",
"5X c #4EB2CC",
"6X c #6DB4C7",
"7X c #419EF3",
"8X c #4EA6E8",
"9X c #46A4F4",
"0X c #42A3FD",
"qX c #43ADFE",
"wX c #4AADFE",
"eX c #43B2FE",
"rX c #4BB4FE",
"tX c #4DBAFE",
"yX c #51B5FF",
"uX c #52BCFE",
"iX c #71B5E9",
"pX c #28C1E6",
"aX c #55CACD",
"sX c #70CCCB",
"dX c #65D4EF",
"fX c #829D8F",
"gX c #86A897",
"hX c #8BA993",
"jX c #8DB39A",
"kX c #95B59B",
"lX c #89AEA6",
"zX c #8BB5A8",
"xX c #98B9A5",
"cX c #89BBB6",
"vX c #A3BBA9",
"bX c #9CC19F",
"nX c #9AC2A7",
"mX c #88C6B9",
"MX c #98C4B6",
"NX c #A6C8AB",
"BX c #B2CEAF",
"VX c #AACCB5",
"CX c #ACD3B6",
"ZX c #B6D6B8",
"AX c #BCE2BB",
"SX c #C4DABA",
"DX c #C2E4BD",
"FX c #87BACD",
"GX c #84BAE6",
"HX c #92CDCD",
"JX c #B2D7C4",
"KX c #9AE3D3",
"LX c #BBE4C8",
"PX c #C1DAC4",
"IX c #C7E8C7",
"UX c #CDEAD2",
/* pixels */
"~ ~ ^ ^ ^ ^ ^ ~ K.K.Q.Q.Q.Q.Q.Q.Q.Q.!.!.!.!.!.!.!.!.!.!.!.!.!.!.!.!.^./././././././././././././././.).).).).).).).`.`.`.`.,X,X,X,X,X,X,X<X2X2X<X2XqXqXqXqXqXeXeXeXrXrXrXtXtXtXtXrXrXwXwXwXwXwXwXwX0X0X0X0X0X0X0X0X0X0X0X0X_._._.0X0X",
"~ ~ ~ ~ ^ ^ K.~ K.K.Q.Q.Q.Q.Q.Q.Q.!.!.!.!.!.!.!.!.!.!.!.!.!.!.!.!.^.^.!.^.!.!.!.^.^././././././././.).).).).).).).`.`.`.`.`.`.,X,X,X,X,X,X<X<X2X2X2X2X2X2XqXqXqXeXeXrXrXrXtXtXtXuXuXrXrXrXrXwXwXwXwX0X0X0X0X0X0X<X0X0X0X0X_._._.0X<X",
"^ ~ ~ ~ ^ ^ ^ ^ Q.Q.Q.Q.Q.Q.Q.Q.Q.Q.Q.!.!.!.!.!.!.!.!.!.!.!.!.!.^.^.^.!.!.!.!.^.^.^.^.^.^./././././././.).).).).).).).`.`.`.`.`.,X,X,X,X,X,X,X<X2X<X2X2X2X2X2X2XqXeXqXeXeXeXrXrXtXtXuXuXuXtXrXwXwXwXwXwXwX0X0X0X0X0X0X0X0X0X_._.0X0X",
"~ ~ ~ ~ ~ ~ ^ Q.Q.Q.Q.Q.Q.Q.Q.K.Q.Q.Q.!.!.!.!.!.!.!.!.!.!.!.!.!.!.^.^.^.!.^.^.^.^.^.^.^.^.^.^.^./././././.(.(.(.(.).).).).).).`.`.`.`.,X,X,X,X,X,X<X2X2X<X2X2X2X2X2XeXqXeXeXeXeXtXtXrXtXuXuXuXtXrXrXrXrXrXwXwX0X0X0X0X0X0X0X0X<X0X0X",
"~ ~ ^ ~ K.K.Q.Q.K.Q.Q.Q.Q.Q.Q.Q.Q.Q.Q.Q.Q.!.!.!.!.!.!.!.!.!.!.!.^.^.!.!.!.!.!.^.^.^.^.^.^.^.^.^.^.^.^.^./.(.(.(./.(.(.(.(.).).).).`.`.`.,X,X,X,X,X,X,X<X<X<X2X2X2X2X2X2XqXqXeXeXeXeXrXrXtXtXuXuXuXuXtXrXrXrXrXwXwX0X0X0X0X0X0X0X<X0X",
"^ ^ Q.Q.K.K.~ K.K.Q.K.Q.Q.Q.Q.Q.Q.Q.Q.Q.Q.!.!.!.!.!.!.!.!.!.!.!.!.!.!.!.!.!.!.^.!.^.^.^.^.^.^.^.^.^.^.^.^.^.^././.(.(.(.(.(.).).).).`.`.`.,X`.,X,X,X,X,X,X,X,X<X2X2X2X2X2X2X2XeXeXeXeXeXrXrXrXrXuXuXuXuXuXtXrXrXrXrXwXwX0X0X_.0X<X_.",
"^ ^ ^ ^ ~ ~ K.K.K.K.K.K.K.K.K.Q.Q.Q.Q.Q.K.Q.Q.K.!.L.L.L.L.!.!.!.!.!.!.L.!.!.L.!.!.!.^.^.^.^.^.^.^.^.^.^.^.^.^.(.^./.(.(.(.(.(.).).).).).`.`.`.`.,X,X`.,X,X,X,X,X,X<X2X2X2X2X2X2XqXqXeXeXeXeXeXrXtXtXrXtXuXuXtXyXyXyXrXwXwX0X0X0X0X_.",
"~ ~ ~ ~ ~ K.K.K.K.K.K.K.K.K.K.K.K.K.K.K.K.K.K.K.L.K.K.L.L.!.!.!.L.L.!.!.L.L.L.^.^.^.^.^.^.^.^.^.^.^.^.^.^.^.^.^.^.^.(.(.(.(.(.).).).).).`.`.`.`.).;X,X`.,X,X,X,X,X,X,X1X2X2X2X2X2X2XqXeXqXeXeXeXeXeXtXtXtXtXuXuXuXuXuXyXrXwXwXwXwX0X",
"~ ~ ~ K.K.K.K.K.K.K.K.K.K.K.K.K.K.K.K.K.K.K.K.L.K.L.L.L.L.L.L.L.L.L.!.L.L.L.L.L.L.L.Y.Y.Y.^.^.^.^.^.^.^.^.^.^.^.^.^.^.(.(.(.(.).).`.9X:X`.`.`.`.).).).).,X,X,X,X,X,X,X,X,X1X2X:X2X2X2X2X2XeXeXeXeXeXeXeXtXtXtXtXuXuXuXuXuXrXwXwXwXwX",
"~ ~ ~ ~ K.K.K.K.K.K.K.K.K.K.K.K.K.K.K.K.K.K.K.L.K.K.K.L.K.L.L.L.L.L.L.L.L.L.L.L.L.Y.Y.Y.Y.Y.^.^.Y.Y.^.^.T.W.^.^.^.^.^.(./.(.(.).9X6XJXUXGX9X`.`.`.).).).).).,X,X,X,X,X,X,X,X,X:X1X2X2X2X2X2X2XqXqXeXeXeXeXeXeXtXtXuXuXuXuXuXyXrXwXwX",
"~ ~ ~ ~ ~ K.K.K.K.K.K.K.K.K.K.K.K.K.K.K.K.K.K.L.K.K.K.K.L.K.K.L.L.L.L.L.L.L.L.L.L.Y.Y.Y.Y.Y.Y.Y.Y.Y.^.^.^.^.^.^.^.^.^.(.(.).).8XFXX.kXBXUXUXGX,X`.).).).).).`.;X;X,X;X,X,X,X,X,X,X,X,X2X2X2X2X2X2X2XeXeXeXeXeXeXtXtXtXtXuXuXtXtXrXwX",
"~ ~ ~ ~ ~ ~ K.K.K.K.K.K.K.K.K.K.K.K.K.K.K.K.K.K.K.K.K.K.L.L.K.L.L.L.L.L.L.L.M.W.L.Y.Y.Y.Y.Y.Y.Y.Y.L.L.Y.Y.^.^.^.^.~.~.8X6XFXFX@.@.gXxXSXSXIXJXiX`.).).~.(.).).).).;X;X,X,X,X,X,X,X,X_.1X1X1X1X2X2X2X2XeXqXeXeXeXeXrXrXtXtXtXuXtXrXyX",
"~ ~ ~ ~ ~ ~ K.K.K.K.K.K.K.K.K.K.~ K.K.K.K.K.K.K.K.K.K.K.L.L.M.L.L.L.L.L.L.L.L.L.L.L.H.Y.Y.Y.Y.L.L.L.L.Y.Y.Y.^.^.E.iXFX[ xXVXxX@.X.fXvXSXSXSXPXHX0X;X).).).(.).).).).).;X;X).,X,X,X,X,X,X,X,X1X1X2X2X2X2X2XeXeXeXeXeXeXeXeXtXtXuXyXrX",
"~ ~ ~ ~ ~ ~ ~ ~ K.K.K.K.K.K.K.K.K.K.K.K.K.K.J.K.K.K.J.L.L.G.G.L.L.L.L.B.L.L.L.Y.T.T.Y.Y.Y.Y.Y.L.L.Y.Y.Y.^.^.^.7X=.lXX.o.X.jXkXO.d gXvXhXBXZXBXZXHX_.).(.(.).~.(.).).).).).).).;X;X,X).,X,X,X,X,X1X1X2X2X2X2X2XeXeXeXeXeXqXeXeXtXuXuX",
"~ ~ ~ ~ ! ! ! ! ~ ~ K.K.K.K.~ K.K.K.K.J.J.J.J.J.J.J.J.L.L.L.L.L.L.L.L.L.L.L.L.Y.H.i.Y.Y.Y.L.L.L.Y.B.^.^.^.~.7X,.o.....X.fXxXLXUXNXj O.fXZXSXZXxXBXGX).(.(.(.^.^.(.(.).).).).).;X;X;X;X;X,X,X,X,X,X,X1X1X2X2X2X2X2X2X2XqX>XeXeXeXrXrX",
"~ ~ ~ ~ ! ! ! ! ~ ~ K.~ ~ ~ ~ J.J.J.J.J.J.J.J.J.J.K.J.L.L.L.L.G.L.L.L.L.L.L.Y.Y.Y.L.L.L.H.H.H.H.P.P.~.~.~.E.HXJX......j gXxXO.d X.q j fXvXBXZXVXfXHX8X).(.(.~.^.(.(.).).).).).).).).).).,X,X,X,X,X,X,X~.<X2X2X2X:X2X2XqXqXeXeXeXeXeX",
"~ ~ ! ! ~ ! ! ! ! ! ! ! ! ! K.J.J.J.J.J.J.J.J.J.J.J.J.K.L.L.G.G.L.G.B.L.L.L.L.L.L.H.G.G.H.H.H.H.H.H.P.R.E.FXMXxXh ..gXO.gXy @ @ r e 9 e d BXZXZXZXVXFXK T.(.^.(.(.(.).).(.(.).).).).).).).,X;Xi.`.,X,X,X,X1X1X1X1X2X2X2X2X2X2XeXeXeX",
"~ ~ ! ! ! ! ! ! ! ! ! ! ! ! ! ! ~ J.J.J.J.J.J.J.J.J.G.G.G.G.Y G.G.G.B.H.G.G.H.G.T.H.H.B.B.H.B.B.B.T.T.8X,.cXJXgX@.xXjXgXy O o o O @ o o @ hXIXZXZXVXFX`.~.(.^.^.(.(.(.~.(.(.(.(.(.).).).).).).).~.,X,X,XR.,X1X1X1X,X2X2X2X2X2XeXeX2X",
"! ! ! ! ! ! ! ! ! ! ! ! ! ! ! ! ! ! J.J.Y ! J.J.F.J.J.J.J.G.G.G.G.G.F.F.F.H.H.H.K B.B.B.B.B.B.B.T.T.5XHXMXMXMXlXlXO.q e O @ o 9 r u r s @ d kXZXBXJXxX9X).).~.~.^.^.(.(.(.(.(.(.(.(.(.).).).).).).).).;XR.,X,X,X1X2X2X2X2X2X2X2X2X2X",
"! ! ! ! ! ! ! ! ! ! ! ! ! ! ! ! ! ! ! J.J.W J.F.F.F.J.F.F.F.F.F.F.m.m.m.m.m.M.n.M.B.B.B.n.n.S.T.i.p.FXzXMXMXCXNXgXj q o o q y u j O.d fXr k hXxXVXZXxXHX_.~.~.~.^.^.(.(.(.(.(.(.(.(.(.(.).).).).).).~.).;X,X,X,X,XR.1X1X1X2X2X2X2X2X",
"! ! ! ! ! ! ! ! ! ! ! ! ! ! ! ! ! W ! J.J.F.F.F.F.F.F.m.F.F.F.F.m.m.m.m.m.B.B.N.N.B.M.n.n.n.S.T.p.5XcXzX..@.e a @ e q e y a s s j O.O.xXhXj O.hXhXxXNXVXiX~.~.~.~.~.(.(.(.(.(.(.(.(.(.(.(.(.(.(.).(.(.).).,X,X,X;X).,X,X,X1X:X2X2X2X",
"! ! ! ! ! ! ! ! ! ! ! ! Q Q Q ! W W W W W F.F.F.F.F.F.m.m.m.m.v.q.m.m.m.N.B.A.A.n.n.n.e.y.p.T.i.*.mXMX&.a o @ q @ @ e y a t t u j O.u X.vXfXhXNXNXVXIXVXHXE.~.~.R.~.(.(.(.(.(.(.(.(.(.(.(.(.(.~.K R.).(.(.).;X;X;X,X;X,X,X,X:X2X2X,X",
"! ! Q ! ! ! ! ! ! ! Q Q Q W W W W W W W W F.T m.F.m.m.m.m.v.J D v.m.N.N.N.A.S.n.n.n.M y.p.5Xu.` +.zXxX&.t i p 3 q q e s s a e q O o o r k kXfXkXkXBXPXIXLX8XR.R.e.~.(.-X-X-X-XR.-X(.(.(.(.(.(.(.T.K D ~.(.).).).).;X;X;X,X,X,X,X,X,X",
"Q ! Q Q Q ! ! ! ! Q Q Q W W W E E W W W W T m.m.m.Y v.v.m.m.v.J b.b.v.e.n.y.y.n.n.e.y.p.sXHXHX1.zXxX@.t e i i @ q t y y y y y q @ @   9 r k hXhXxXNXJXLXVXGXR.R.S.P.(.-XR.-X-X(.-X-X(.(.(.(.(.(.~.K R.~.(.(.(.).).).).;X,X,X,X,X,X,X",
"Q Q Q Q Q Q Q Q Q Q Q W Y T E T P T F.F.T T T m.m.m.m.v.m.v.q.q.n.e.D i.4.> i.e.e.p.y.5X,.HXHXnXJXJXxXa [ i 4 @ @ q t s t t 0 9 O o @ o O.j O.gXxXxXkXZXjX6XR.R.R.I.~.-X-X-X-X~.~.-X~.(.(.(.(.(.^.^.^.~.(.(.(.(.).).).).;X).,X,X,X,X",
"Q Q Q Q Q Q Q Q Q W W E Y T E T T T T m.T T m.m.m.m.m.m.m.b.q.b.e.4.S.S.y.p.S.4.i.p.5X:.>.mXmXxXLXZXAX@.4 i 4 i @ y y y t e q q e @ 9 o j gXj 0 j O.hXNXVXHXR.R.R.-X-XR.-XR.-X(.~.(.(.Y.Y.Y.Y.Y.^.^.^.^.(.(.^.(.(.(.(.).).).).;X).,X",
"Q Q Q Q Q Q Q Q W W W T V Y T T T T T T T T v.m.m.m.N.N.N.A.S.Z.S.D.}.}.t.p.R.p.p.z.sX,.cXHXHXJXIXZXZXCXlXe q y q e t t q @ @ @ O @ r r 0 O.O.fXgXy X.xXxXcXR.Z.#X-XZ.e.-XR.-XXXXXI.(.I.Y.Y.P.Y.Y.Y.Y.H.^.^.(.(.(.~.(.).).).T.).R.).",
"Q Q Q Q Q Q Q W W W E T U U T T T Y T T T v.v.m.N.N.A.A.I.I.t.R.XXXXXXXX#X#X8XsXHXKXLXLXJXVXzXgXDXDXZXBXjX@.t [ [ q q q @ 9 @ @ O @ j O.0 j 0 O.fX..k jXxXcXE.R.#X-X-X#X-X~.~.I.I.I.~.~.P.H.H.H.L.H.Y.Y.^.^.^.(.(.(.(.(.).).(.(.).).",
"Q Q Q Q Q W W W E E E T T T U Y Z l Y Y v.v.v.N.P.I.R.p.XXXXXXOXOXOX-X-X-X8XHXlXJXLXNX$.VXlXt a ZXvXIXDXnXh [ [ 4 9 e q q q @ @ q e d ZXBXkXj j O.gX@.o.lXzX6Xu.#X#X#X#XS.S.A.A.A.P.P.S.T.B.B.H.H.H.H.B.^.^.Y.^.^.(.J ~.).(.(.(.(.(.",
"Q Q Q R E L W W U U P L U P P J N Y Y Y v.m.m.N.I.I.i.#XOXOXoX}.XX-X-X-X*X5XcXp zXZXnXxXgXa t h JXUXUXIXBXO.h t @ o @ o o @ @ O q e y xXSXBXhXu @.@.O.o.&.zX6X_ p.Z.S.R.V.n.M.M.M.B.B.B.J M.M.B.B.B.H.H.B.Y.Y.Y.^.T.~.^.(.(.(.(.(.(.",
"Q Q R R I G E E T Y J J Y P Y Z Y P v.v.v.m.N.A.I.XXXXOXOXOXoXp.M M *X3X5X:. .{ ..O.O.gX..h a [ VXUXIXDXAXO.y q q 9 r e e e a e @ O q y NXSXBX0 ..@.a a o.+.;.t.e.e.w.V.b.b.v.v.n.q.M.M.v.M.v.M.B.B.B.n.M.H.L.L.Y.^.^.(.(.(.(.(.(.(.",
"Q Q R R E E U I U Z l z J P Y Y P x.v.v.v.N.A.I.XXOXOXOXOXOXoX3X#X#X3X&X1. .+.>.lXO.o y ......[ gXIXIXDXAXjXu 9 e t q q 0 q q s @ O O O fXNXBXO.O.jX..[ o.nX<.e.0.e.0.0.q.q.V e.q.q.q.v.v.v.v.v.M.N.B.N q.B.H.L.B.^.^.^.^.(.(.(.(.(.",
"R R R E E U U U I U Y J Y Z K H J H v.v.b.A.I.XX-XR.-X#Xu.-X3X3X3X*X*X5X} >.+.+.VXMX&.xXo.o...@.xXNXBXBXZXVXfXs q q y r y y y s j o o o r kXZXxX$.jXO.[ O.nXmXu.0.0.9.9.9.9.D D q.q.q.q.v.v.v.M.M.B.B.M.n.v.B.L.Y.^.^.^.^.^.^.^.(.^.",
"R R W U Z G I U U U L Z N % l Y H v.v.b.e.4.XXXX6._ R._ v -X3X3X3X*X5X<.:.:.>.&.zXcXlXxXgXlX@.@.xXxXkXxXZXZXjXO.h e u u e s s y j r o O q fXxXxXgXgX&.jX&.xXgX;.4.9.9.9.9.D 9.9.9.q.q.q.q.v.v.v.v.n.M.M.B.B.H.H.Y.Y.^.^.(.^.~.P.Y.^.",
"R E E Z z N U I L L L L J J H x.x.v.b.D t.t.XXoX-XOXoXp.#X3X3X3X*X&X;.:.#.%.:.,.+.cXcXMXxX&.@.@.ZXBXNXBXBXZXNXgX@.y u j y y y e s X.q O @ h gXO.j o.gXzX@.t [ :.4.9.9.9.9.D 9.9.9.q.q.q.q.q.v.v.J v.q.M.M.B.B.H.P.Y.^.^.Y.P.D ^.^.^.",
"E E I I Z Z I L P L P P P H P P v.v.N.V.XXOXt.M #X].oX3X@X#X3X3X&X5X<.:.:.,.:. .+.,.cXcXgXO.o.o.kXZXBXkXVXBXNXxX$.j s ..y s s s d s j 0 q o.gXo.h &.&.....[ g -.4.5.9.9.9.9.9.9.9.9.q.q.q.q.J q.v.q.N D J J q.B.H.P.Y.Y.Y.Y.P.^.Y.Y.",
"I L L I I L I P G P P P P H P v.q.9.A.I.XX}.p.R.].3X3Xt.k.u.*X@X6XKXHX:.<.:.%.[ +.&.cX>.zX&.o...O.kXNXNXxXkXNXxX&.j h s t s s zXfXs j X.h j zX&.t o.o.p h p [ ` 4.5.5.5.5.0.D 9.9.9.9.q.q.q.J q.v.q.D q.v.v.M.B.B.H.P.Y.Y.Y.e.P.Y.Y.",
"I L I I L J J P F P P H S P x.v.q.V.XXXXt.p.p.#X3X3X3Xk.4X*Xu.` n HX>.,.:.:.:.+.+.lXCXnXj gX@.j O.kXNXNXjXxXfX$.O.h O.j 0 r j xXBXkXk X.j @.&.a i o.o.{ [ g ] u.0.5.5.4.V 4.4.t.w.9.q.9.q.q.N D q.N q.q.v.v.m.M.N.m.H.P.Y.H.q.Y.Y.Y.",
"I I I L L L P P P P P F J x.x.n.D.{.}.OXR.oXp.#X3X#Xp._ @Xv = ` | 1.:.<.>.:.%.,.>.MXIXAXnX@.&.O.jXVXBXNXkXkXVXhXo.j j &.s O.$.jXNXO.k e $ t ..t ..e +.h +.[ -.k.t.t.0.0.4.4.6.t.0.9.9.9.9.q.9.0.V.D q.D q.v.v.m.m.m.B.H.Y.Y.Y.Y.Y.Y.",
"I I I L L P P P P x.x.H H 8.b.I.XXOXt.t.].oXy.u.3X@X3X*X@Xk.k.` | -.:.<.<.:.:.%.,.xXAXIXZXhXgXjXNXNXkXBXCXNXCXnX&.o.o.gXX.O.j j &.e a $ 4 h o.h o.g &.[  . .1.$X[.t.d.d.d.].t.w.0.9.9.9.9.e.V.Z.S.n.q.q.D 9.v.v.m.m.m.H.B.Y.Y.Y.Y.Y.",
"I I I L L P P x.N.N.m.x.H 8.b.Z.}.oXOX|.OXoXp.oX3X3XoX[.@X*X$X' -.:.<.<.:.:.>.>.zXMXxXIXDXBXjXgXnXxXxXZXCXkXCXVXgXO.&.gXj O.t t q @ 4 p e h h &.&.h { [ +.#.1.l.@Xf.f.[.[.[.t.w.0.e.w.q.w.w.Z.Z.Z.S.w.q.m D v.v.m.N.m.H.P.P.Y.Y.H.P.",
"I I L Z F P c.N.N.N.c.H S 8.8.w.}.OXoXOX+X3X3XOX3X3X3X#X@X$X$X` 1.1.-.:.:.<.%.>.MXUXNXNXIXDXkXO.jXxXNXNXNXnXCXNXjX$.....y j q e 4 4 t h t h &.+.o.{ { {  . .-.k.@X X[. X[.[.t.t.0.w.w.e.e.M Z.4.D.Z.V.q.q.q.v.v.v.N.B.P.P.Y.I.P.M.B.",
"I L L P P P N.N.N.N.H H F H 8.V.XXoXoXoX+X3X3X3X4X3X3X3X*X*Xz.1.1.:.:.:.:.,.>.%.MXIXIXO.BXDXNXgXxXxXNXnXVXO.nXCXNXjXu 0 a a a a a o.a h h h o.+.+.g p } %.:.1.6.t.@X Xf.@Xk.f.].t.w.0.w.w.4.t.t.Z.Z.V.v.q.q.v.v.v.N.P.P.P.B.e.I.Y.P.",
"I L P U U c.N.N.N.x.H H H H S 0.}.Z.OXoX].#X@X*X3X3X3X[.*X*Xz.sX1.1.:.-.%.>.,.,.CXAXAXZXu O.gXxXjXnXZXNXZXZXNXnXNXjXu j ..e e [ h &.o.h $ h h p p p p ]  .:.1.4.6.f. Xu.g. X X|.[.M 0.0.0.w.t.5.w.Z.V.q.q.q.q.v.v.N.P.I.I.I.A.I.Y.Y.",
"U U U c.c.N.N.N.x.H H H H H 9.V.}._ ].].#XM k.4X3X|.|.*X*X*Xj.6X1.1.-.} >.mX>.mXNXCXnXhXt s jXkXBXCXZXNXCXLXAXNXkXjXO.O.o.e i 5 3 4 p p p o.+.%.%. .] 8 /  .` r.r.6. Xl.g..X.X.X[._ 0.0.0.A V V 5.w.S.w.q.q.q.v.v.b.P.I.I.I.I.I.Y.B.",
"U U c.c.N.N.N.q.H H H H H H q.V.}.t.|.oX+X_ R.4X*Xf.*X3X*Xk.5X1.1.1.:. .<.,.>.[ ..h h a q O h xXLXIXUXDXZXAXIXAXbXkXO.&.h e + 3 5 4 5 5 g o.{ { +. . .| / *.6.6.6.6. X X*X X*X*X[.d.V 3.r.4.D A B 0.Z.V.8.9.D q.b.A.A.I.I.I.I.I.I.Y.",
"c.c.c.N.v.q.N.S F H H H H 8.q.A.XXoXoX@Xp.*X3X4X_ k.*X*X.X$X5X6X1.1.#.:.:.,.%.4 e a a t @ . @ h t j gXjXnXZXAXAXZXVXjXq 4 p t 3 5 p g # 8 p {  .%.:.] | / h.l.a.a.f.$X$X*X=X*X.X.X[.t.r.5.z 4.m A m Z.C.V.b.9.b.b.A.D.A.I.I.I.I.I.Y.",
"c.v.m.N.9.q.v.H H H H S H 8.8.C.XXoX3X].@X6.3X4Xu.*X$X*X*X*X5X1.1.1.#.:. .>.>.p 4 4 4 4 4 4 + + . $ y 4 t t j zXj h t p 4 $ t o.o.h %.{ 5 p  .%.%. ./ ( ` l.l.k.l.s.=Xf.*X=X=X*Xf..X[.t.t.x M 5.7.7.w.t.C.C.V.A.D.D.V.I.I.I.I.I.P.P.",
"H S c.N.N.N.x.H H H H S H 8.w.D.oXoX3Xk._ *X+X3X_ @X*X.X@X$X5X;.1.1.:.#.:.:.5 3 4 3 3 3 @ # 3 3 + + 4 h p p 3 # e 4 3 + 4 p p p { g [ %.{ } }  .] ] ( ' l.l.%Xl.k.k.=X%X=X*X=X=Xl..Xf.f.d.V 4.3.5.9.9.5.C.C.D.D.D.D.D.I.I.I.I.I.P.P.",
"U P P x.c.x.H H H H H S 9.7.0.C.oXoXoXd.*X+X+X3X*Xd.*X*X[.k.5X;.1.1.<.-.<.{ p 2 3 4 4 5 3 # 3 3 3 + + + + . . + 4 4 3 # h 5 2 5 8 p 8 8 ] } } ] 1.-.' pX&X%X%X%Xl.%X%Xk.l.=X$X=Xk.*Xf.6.].0.3.A B 9.7.w.C.D.{.}.}.V.D.D.D.w.I.I.I.q.",
"P U H Z F H G H H 8.8.8.5.V _ ].|.oXoX+X+X+X4X3X*Xv *X*X@Xl.;.1.1.1.1.<.<.{ 8 2 + + # 3 3 3 3 3 4 $ # # # + O O 4 + + + + 5 5 5 8 5 g 5 8 8 } / | ` l.l.&Xl.l.%X%X=X%X$Xk.=X*X*X X=X$Xu.t.r.3.3.A 9.7.C.Z.{.{.{.}.{.D.I.D.S.I.I.I.n.",
"L L Z F G H H H 8.b.b.w.3.V t.}.oXoX+X+X3X3X3X.Xk._ .X[.[.z.;.sX1.-.-.:. .5 - - - + + 3 4 4 3 5 3 $ + + # + + 4 3 3 3 2 2 2 5 p ] 8 5 7 8 7 / | ( l.l.` l.%X%X%X=X=X%X=X=X=X=X$X X.X@XM 4.B A B A 5.9.C.{.}.}.}.{.{.{.D.D.D.D.A.A.A.",
"L G G G G F H H 8.V.V.8.8.7.w.{.oXoXoXp.+X+X+X3X@X*X[. Xf.g.;.1.:.} p C 6 - - - - 2 - - 2 3 3 3 3 3 # + 3 # i p 4 4 5 5 2 5 8 8 8 8 2 / / n / ( h.pX%Xg.l.l.pX%X%XpX$X=X=X=X*X_ $X*X X6.V M A B B A 5.Z.].}.}.{.D.t.D.D.D.D.D.A.A.A.",
"L G G G H S N D q.V.8.A A 8.w.{.|.oXoX.X.X.X.X*X.X.X*X[.f.g.;.1.-.:. .2 X X . X & X 2 2 - + + . . + # 3 3 5 2 2 4 2 8 8 5 8 f ] / 8 7 n 6 b ` h.l.pXpX%XpX%X%XpXl.pXpX=X=X=X=Xk.$X X X6._ B A B B 3.l t.'.t.V Z.t.0.Z.D.D.D.D.A.A.A.",
"G Z F F F F l N S b.8.F A 8.w.D.}.|.|.|..X.X.X*X[.*X[.[.f.g.;.| | *.| 6 & * X X X X & & & X + - + - 2 # 2 2 2 2 5 5 7 5 8 8 / / / 7 6 : ( ' g.h.l.pXpXpX%X%X%X%X` &X=X%X=X=X=X=X X$X X[.6.r.B B B 3.6.6.{.t._ '.{.C.C.D.D.D.D.A.A.A.",
"Z N F F H H N 8.8.b.8.9.A 8.w.{.|.|.|.oX|.[..X*X*X[.f.a.f.g.;.n ( n 6 ; * * * * X X & & & & X X - X & & & & ; 2 2 2 7 / 8 7 7 / 7 6 6 | 5Xj.' h.l.l.l.pXpX%X%X%Xg.%X=X=X=X X$X=X X[..X.Xt.t.r.3.3.t.].].[.'.6.}.}.{.C.C.A.V.V.V.b.b.",
"G B G H H H S x.b.A.b.A A q.A.}.|.|.|.|.6.4.*X[..X[.f.a.a.g.` c 1 > * * * * * & & & X X X & X X & & & ; 2 2 6 8 2 8 8 / ]  .%.] ]  .#.;.aXj.' h.l.l.l.pXl.%X%XpX=X%XpX$X%Xf.s.=X=X.X.X.X[.].a.r.t.[.[.4.6.'.'.'.{.C.w.w.B 0.w.w.A 3.",
"G F G H H b.b.w.V.D.w.w.w.3.t.{.'.|.|.|.) k.@X*X.X[.[.a.6.g.v c c > > : * * * : : : & * X X * * ; ; & 8 7 5 2 8 8 ] ] g %.2.KX2.%.} | ;.aX5Xj.h.h.h.l.pXpXpXpXpXpX=X=X%X%X$Xf.$X=X*X*X$X@X X[.a.a.[.[._ x _ t.Z.t.C.7.7.3.3.0.r.3.3.",
"L G G H x.A.A.w.C.D.t.C.C.C.{.{.@Xp.|.|.[.[.s.f.[.[.f.a.a.) x > < 1 < , , * , * * : : * * * & * ; : 6 6 6 2 6 7 8 } %.] ,.mXKXKX2.<.-.sXaXaXaX' h.h.l.&X&XpXpXpX%X%X%X%X$Xg.k.=X*Xk.=Xa._ k.[.a.a.[.'.'.t.].'.0.4.r.3.3.3.3.5.3.B 3.",
"G H H 8.9.A.D.D.D.D.C.{.}.}.}.{.a.y.|.|.|.|..Xu.d.a.d.a.a._ x < < c 1 > , > > % * * : * * * ; : ; ; 6 : 5 2 6 7 7 8 8 ] } ] %.:.<.2.2.KXaXaXaXj.h.l.h.l.%X%XpXh.&X=X%X%Xk.l._ %X=X_ $X$X X_ k.[.|.|.[.'.t.].C.5.3.3.3.A A A A m % V ",
"F Z H b.V A.D.Z.D.{.{.}.|.{.|.|.|.k.@X.X.X.Xd.v d.a.f.a.6.6.) v c c < < < > > * > * % * * * * * * ; : ; 2 6 : 6 7 6 7 6 7 7 8 ] /  .2.sXsXaXaX' j.z.z.l.%X%XpX` &X=X%X=Xk.$X%X%X=Xu.l.$X Xs.6.a.[.[.'.].a.t.3.A B B m B B B B B l x ",
"F F x.b.D b.V.V {.}.}.}.{.{.4.|.|.|.6.k..X.X.Xs.[.[.f.6.v 6.) ) v v x c c 1 < > 1 > > > > , ; , , : : : : , , 6 , : 6 7 n 7 b b 7 7 | 1.sXsXsX' ' h.z.l.l.l.&Xl.%X$X%X=X%X$Xk.$X=Xk.g.=X[.f.[.a.6.a.].t._ 3.A B B B % B B B B B B m ",
"G Z F P P A 5.w.D.XX}.|.|.}.].|.|.|.|..X.X.Xd._ f.f.a.6.) ) ) ) v v x x c c c < < 1 1 c 7 > 6 6 , , , , , , , , , , : , 7 7 , , 7 b / | sXsXdXaXj.' h.l.l.&Xl.l.%X%X%X=XpX$Xg.g.$X$X X X[.6.f.) a.a.d.t.B A B B B B l m l N l l m m ",
"G N S H H H 8.V.{.{.}.'.t.{.d.'.'.6.u..X3X.X6.s.a.a.a.a.6.6.) ) ) v x x x c c < < < < 1 1 < 1 1 , 1 7 1 1 , , 1 1 1 , , : ; , , b 7 ( ( -.sXsXaXaX' g.l.&Xl.l.%X%X%Xl.%XpX%X%X Xf.6.k. X@Xf.[._ d.t.t.r.B B B l m N l m l m m m m m "
};
